; generated by PrusaSlicer 2.3.1+win64 on 2022-05-27 at 21:16:09 UTC

; 

; external perimeters extrusion width = 0.60mm
; perimeters extrusion width = 0.50mm
; infill extrusion width = 0.50mm
; solid infill extrusion width = 0.50mm
; top infill extrusion width = 0.45mm
; first layer extrusion width = 0.42mm

M73 P0 R115
M73 Q0 S115
M201 X1000 Y1000 Z200 E5000 ; sets maximum accelerations, mm/sec^2
M203 X200 Y200 Z12 E120 ; sets maximum feedrates, mm/sec
M204 P1250 R1250 T1250 ; sets acceleration (P, T) and retract acceleration (R), mm/sec^2
M205 X8.00 Y8.00 Z0.40 E4.50 ; sets the jerk limits, mm/sec
M205 S0 T0 ; sets the minimum extruding and travel feed rate, mm/sec
M107
;TYPE:Custom
M862.3 P "MK3S" ; printer model check
M862.1 P0.4 ; nozzle diameter check
M115 U3.11.0 ; tell printer latest fw version
G90 ; use absolute coordinates
M83 ; extruder relative mode
M104 S215 ; set extruder temp
M140 S60 ; set bed temp
M190 S60 ; wait for bed temp
M109 S215 ; wait for extruder temp
G28 W ; home all without mesh bed level
G80 ; mesh bed leveling
G1 Y-3.0 F1000.0 ; go outside print area
G92 E0.0
G1 X60.0 E9.0 F1000.0 ; intro line
G1 X100.0 E12.5 F1000.0 ; intro line
G92 E0.0
M221 S95

; Don't change E values below. Excessive value can damage the printer.

M907 E538 ; set extruder motor current
G21 ; set units to millimeters
G90 ; use absolute coordinates
M83 ; use relative distances for extrusion
M900 K0.05 ; Filament gcode LA 1.5
M900 K30 ; Filament gcode LA 1.0
;LAYER_CHANGE
;Z:0.2
;HEIGHT:0.2
;BEFORE_LAYER_CHANGE
G92 E0.0
;0.2


M73 P0 R114
G1 E-0.80000 F2100.000
G1 Z0.400 F10800.000
;AFTER_LAYER_CHANGE
;0.2
G1 X191.103 Y122.294
G1 Z0.200
G1 E0.80000 F2100.000
M204 S1000
;TYPE:Skirt
;WIDTH:0.42
G1 F1200.000
G1 X190.020 Y122.762 E0.03698
G1 X189.524 Y122.857 E0.01582
G1 X84.348 Y131.672 E3.30928
G1 X73.075 Y131.677 E0.35346
G1 X72.571 Y131.603 E0.01597
G1 X71.663 Y131.311 E0.02992
G1 X71.201 Y131.011 E0.01728
G1 X70.650 Y130.472 E0.02416
G1 X60.560 Y118.556 E0.48955
G1 X60.117 Y117.733 E0.02931
G1 X59.923 Y116.959 E0.02502
G1 X57.405 Y100.242 E0.53007
G1 X57.395 Y91.544 E0.27272
G1 X57.617 Y90.454 E0.03488
G1 X60.313 Y84.992 E0.19098
G1 X60.612 Y84.570 E0.01621
G1 X61.204 Y83.986 E0.02607
G1 X61.650 Y83.695 E0.01668
G1 X72.027 Y78.544 E0.36325
G1 X73.161 Y78.321 E0.03624
G1 X189.338 Y78.321 E3.64264
G1 X189.833 Y78.374 E0.01562
G1 X190.629 Y78.598 E0.02592
G1 X191.070 Y78.821 E0.01550
G1 X191.453 Y79.128 E0.01538
G1 X191.960 Y79.655 E0.02292
G1 X192.257 Y80.128 E0.01752
G1 X192.538 Y81.030 E0.02961
G1 X192.605 Y81.558 E0.01668
G1 X192.514 Y119.672 E1.19505
G1 X192.313 Y120.734 E0.03390
G1 X191.908 Y121.472 E0.02637
G1 X191.145 Y122.251 E0.03421
; printing object Large_Palm_Pen_Small_Pen_hole.stl id:0 copy 0
;WIPE_START
G1 F8640.000
G1 X190.020 Y122.762 E-0.28524
G1 X189.524 Y122.857 E-0.11652
G1 X187.978 Y122.987 E-0.35824
;WIPE_END
G1 E-0.04000 F2100.000
G1 Z0.600 F10800.000
G1 X105.298 Y126.553
G1 Z0.200
G1 E0.80000 F2100.000
;TYPE:Perimeter
G1 F1200.000
G1 X102.937 Y126.750 E0.07428
G1 X102.676 Y126.301 E0.01629
G1 X102.885 Y126.385 E0.00705
G1 X103.451 Y126.550 E0.01847
G1 X105.238 Y126.553 E0.05604
;WIPE_START
G1 F8640.000
G1 X102.937 Y126.750 E-0.53320
G1 X102.676 Y126.301 E-0.11994
G1 X102.885 Y126.385 E-0.05190
G1 X103.113 Y126.451 E-0.05497
;WIPE_END
G1 E-0.04000 F2100.000
G1 Z0.600 F10800.000
G1 X102.354 Y126.496
G1 Z0.200
G1 E0.80000 F2100.000
;TYPE:External perimeter
G1 F1200.000
G1 X101.454 Y126.656 E0.02866
G1 X100.958 Y126.708 E0.01561
G1 X84.461 Y128.089 E0.51908
G1 X84.472 Y112.745 E0.48109
G1 X84.556 Y111.828 E0.02889
G1 X85.125 Y112.094 E0.01972
G1 X85.471 Y113.159 E0.03512
G1 X87.801 Y117.194 E0.14610
G1 X90.919 Y120.657 E0.14610
G1 X94.689 Y123.396 E0.14610
G1 X98.946 Y125.291 E0.14610
G1 X102.035 Y125.948 E0.09903
G1 X102.323 Y126.445 E0.01800
G1 X102.555 Y126.842 F10800.000
;WIPE_START
G1 F8640.000
G1 X101.454 Y126.656 E-0.20668
G1 X100.958 Y126.708 E-0.11495
G1 X99.067 Y126.866 E-0.43837
;WIPE_END
G1 E-0.04000 F2100.000
G1 Z0.600 F10800.000
G1 X85.125 Y96.093
G1 Z0.200
G1 E0.80000 F2100.000
G1 F1200.000
G1 X84.556 Y96.359 E0.01971
G1 X84.472 Y95.453 E0.02852
G1 X84.462 Y94.957 E0.01557
G1 X84.461 Y81.888 E0.40976
G1 X99.330 Y81.889 E0.46620
G1 X99.838 Y81.899 E0.01593
G1 X100.771 Y81.983 E0.02938
G1 X100.476 Y82.570 E0.02061
G1 X98.946 Y82.895 E0.04907
G1 X94.689 Y84.791 E0.14610
G1 X90.919 Y87.530 E0.14610
G1 X87.801 Y90.992 E0.14610
G1 X85.471 Y95.028 E0.14610
G1 X85.144 Y96.036 E0.03323
G1 X85.177 Y96.489 F10800.000
G1 X84.697 Y96.709
;TYPE:Perimeter
G1 F1200.000
G1 X84.442 Y97.268 E0.01925
G1 X84.084 Y98.335 E0.03530
G1 X84.084 Y109.851 E0.36107
G1 X84.442 Y110.919 E0.03530
G1 X84.697 Y111.477 E0.01925
G1 X84.229 Y111.259 E0.01619
G1 X84.095 Y112.728 E0.04626
G1 X84.084 Y128.324 E0.48900
G1 X73.270 Y128.324 E0.33905
G1 X73.222 Y128.311 E0.00157
G1 X73.109 Y128.193 E0.00512
G1 X73.954 Y127.883 E0.02821
G1 X73.954 Y103.356 E0.76903
G1 X61.261 Y103.356 E0.39797
G1 X60.749 Y99.964 E0.10756
G1 X60.749 Y91.697 E0.25922
G1 X60.796 Y91.522 E0.00569
G1 X61.617 Y89.880 E0.05754
G1 X73.954 Y89.880 E0.38681
G1 X73.954 Y81.676 E0.25725
G1 X84.084 Y81.676 E0.31763
G1 X84.095 Y95.475 E0.43264
G1 X84.230 Y96.927 E0.04575
G1 X84.642 Y96.735 E0.01427
;WIPE_START
G1 F8640.000
G1 X84.442 Y97.268 E-0.13153
G1 X84.084 Y98.335 E-0.25995
G1 X84.084 Y99.931 E-0.36852
;WIPE_END
G1 E-0.04000 F2100.000
G1 Z0.600 F10800.000
G1 X73.577 Y89.503
G1 Z0.200
G1 E0.80000 F2100.000
;TYPE:External perimeter
G1 F1200.000
G1 X62.040 Y89.503 E0.36174
G1 X63.385 Y86.812 E0.09435
G1 X73.577 Y81.716 E0.35726
G1 X73.577 Y89.443 E0.24228
G1 X73.746 Y89.866 F10800.000
;WIPE_START
G1 F8640.000
G1 X70.285 Y89.461 E-0.76000
;WIPE_END
G1 E-0.04000 F2100.000
G1 Z0.600 F10800.000
G1 X73.577 Y103.733
G1 Z0.200
G1 E0.80000 F2100.000
G1 F1200.000
G1 X73.577 Y127.620 E0.74895
G1 X73.039 Y127.817 E0.01796
G1 X63.439 Y116.477 E0.46587
G1 X61.516 Y103.733 E0.40408
G1 X73.517 Y103.733 E0.37626
G1 X73.959 Y103.615 F10800.000
;WIPE_START
G1 F8640.000
G1 X73.525 Y107.025 E-0.76000
;WIPE_END
G1 E-0.04000 F2100.000
G1 Z0.600 F10800.000
G1 X101.066 Y82.236
G1 Z0.200
G1 E0.80000 F2100.000
;TYPE:Perimeter
G1 F1200.000
G1 X101.347 Y81.676 E0.01963
G1 X103.265 Y81.676 E0.06013
G1 X101.572 Y82.055 E0.05439
G1 X101.122 Y82.214 E0.01496
;WIPE_START
G1 F8640.000
G1 X101.347 Y81.676 E-0.13472
G1 X103.265 Y81.676 E-0.44283
G1 X102.494 Y81.849 E-0.18245
;WIPE_END
G1 E-0.04000 F2100.000
G1 Z0.600 F10800.000
G1 X189.576 Y81.733
G1 Z0.200
G1 E0.80000 F2100.000
;TYPE:External perimeter
G1 F1200.000
G1 X189.473 Y81.836 E0.00454
G1 X189.279 Y81.888 E0.00630
G1 X105.424 Y81.888 E2.62921
G1 X105.424 Y82.007 E0.00374
G1 X103.511 Y82.007 E0.06000
G1 X101.677 Y82.418 E0.05893
G1 X101.221 Y82.580 E0.01517
G1 X100.810 Y82.779 E0.01429
G1 X99.033 Y83.164 E0.05704
G1 X94.830 Y85.035 E0.14424
G1 X91.108 Y87.739 E0.14425
G1 X88.030 Y91.158 E0.14425
G1 X85.729 Y95.143 E0.14425
G1 X85.424 Y96.082 E0.03098
G1 X85.258 Y96.513 E0.01449
G1 X85.000 Y96.936 E0.01551
G1 X84.794 Y97.404 E0.01605
G1 X84.461 Y98.397 E0.03283
G1 X84.461 Y109.790 E0.35721
G1 X84.794 Y110.783 E0.03283
G1 X85.000 Y111.251 E0.01605
G1 X85.258 Y111.673 E0.01551
G1 X85.424 Y112.105 E0.01449
G1 X85.729 Y113.044 E0.03098
G1 X88.030 Y117.029 E0.14425
G1 X91.108 Y120.448 E0.14425
G1 X94.830 Y123.152 E0.14425
G1 X99.033 Y125.023 E0.14425
G1 X102.157 Y125.687 E0.10013
G1 X103.008 Y126.028 E0.02875
G1 X103.505 Y126.173 E0.01622
G1 X107.347 Y126.180 E0.12049
G1 X189.171 Y119.308 E2.57456
M73 Q0 S114
G1 X189.369 Y119.344 E0.00630
G1 X189.480 Y119.437 E0.00454
G1 X189.529 Y119.573 E0.00454
G1 X189.503 Y119.716 E0.00455
G1 X189.409 Y119.827 E0.00454
G1 X189.220 Y119.895 E0.00630
G1 X106.475 Y126.844 E2.60357
G1 X106.463 Y126.705 E0.00438
G1 X105.763 Y126.892 E0.02274
G1 X84.150 Y128.701 E0.68003
M73 P0 R113
G1 X73.221 Y128.701 E0.34267
G1 X73.027 Y128.649 E0.00630
G1 X72.858 Y128.481 E0.00746
G1 X62.929 Y116.751 E0.48187
G1 X62.864 Y116.510 E0.00783
G1 X60.372 Y99.993 E0.52374
G1 X60.372 Y91.647 E0.26166
G1 X60.442 Y91.387 E0.00844
G1 X62.894 Y86.484 E0.17189
G1 X63.057 Y86.320 E0.00726
G1 X72.961 Y81.369 E0.34716
M73 Q1 S114
G1 X73.221 Y81.299 E0.00844
G1 X189.279 Y81.299 E3.63894
M73 P1 R113
G1 X189.473 Y81.351 E0.00630
G1 X189.576 Y81.453 E0.00454
G1 X189.613 Y81.593 E0.00455
G1 X189.591 Y81.675 E0.00266
G1 X189.431 Y81.733 F10800.000
G1 X189.418 Y81.593
;TYPE:Gap fill
;WIDTH:0.254866
G1 F1200.000
G1 X105.236 Y81.593 E1.48358
;WIDTH:0.294661
G1 X105.183 Y81.613 E0.00119
;WIDTH:0.334462
G1 X105.130 Y81.633 E0.00137
;WIDTH:0.374262
G1 X105.077 Y81.653 E0.00156
G1 X103.452 Y81.653 E0.04476
;WIPE_START
G1 F8640.000
G1 X105.077 Y81.653 E-0.37515
G1 X105.130 Y81.633 E-0.01308
;WIPE_END
G1 E-0.41177 F2100.000
G1 Z0.600 F10800.000
G1 X101.146 Y81.657
G1 Z0.200
G1 E0.80000 F2100.000
;WIDTH:0.366007
G1 F1200.000
G1 X100.502 Y81.628 E0.01731
;WIDTH:0.316233
G1 X99.858 Y81.599 E0.01464
;WIDTH:0.26646
G1 X99.334 Y81.594 E0.00974
;WIDTH:0.255546
G1 X84.273 Y81.593 E0.26628
;WIPE_START
G1 F8640.000
G1 X87.564 Y81.593 E-0.76000
;WIPE_END
G1 E-0.04000 F2100.000
G1 Z0.600 F10800.000
G1 X83.206 Y81.789
G1 Z0.200
G1 E0.80000 F2100.000
;TYPE:Solid infill
;WIDTH:0.421284
G1 F1200.000
G1 X83.801 Y82.384 E0.02649
G1 X83.801 Y82.920 E0.01684
G1 X82.841 Y81.959 E0.04275
G1 X82.305 Y81.959 E0.01683
G1 X83.801 Y83.455 E0.06656
G1 X83.801 Y83.990 E0.01684
G1 X81.770 Y81.959 E0.09036
G1 X81.235 Y81.959 E0.01683
G1 X83.801 Y84.525 E0.11417
G1 X83.801 Y85.060 E0.01684
G1 X80.700 Y81.959 E0.13798
G1 X80.165 Y81.959 E0.01683
G1 X83.801 Y85.595 E0.16179
G1 X83.801 Y86.130 E0.01684
G1 X79.630 Y81.959 E0.18560
G1 X79.095 Y81.959 E0.01683
G1 X83.802 Y86.665 E0.20941
G1 X83.802 Y87.200 E0.01684
G1 X78.560 Y81.959 E0.23322
G1 X78.025 Y81.959 E0.01683
G1 X83.802 Y87.736 E0.25703
G1 X83.802 Y88.271 E0.01684
G1 X77.490 Y81.959 E0.28083
G1 X76.955 Y81.959 E0.01683
G1 X83.802 Y88.806 E0.30464
G1 X83.802 Y89.341 E0.01684
G1 X76.420 Y81.959 E0.32845
G1 X75.884 Y81.959 E0.01683
G1 X83.802 Y89.876 E0.35226
G1 X83.802 Y90.411 E0.01684
G1 X75.349 Y81.959 E0.37607
G1 X74.814 Y81.959 E0.01683
G1 X83.802 Y90.946 E0.39988
G1 X83.802 Y91.481 E0.01684
G1 X74.279 Y81.959 E0.42369
G1 X74.237 Y81.959 E0.00134
G1 X74.237 Y82.451 E0.01549
G1 X83.802 Y92.017 E0.42558
G1 X83.802 Y92.552 E0.01684
G1 X74.237 Y82.986 E0.42559
G1 X74.237 Y83.521 E0.01683
G1 X83.802 Y93.087 E0.42559
G1 X83.802 Y93.622 E0.01684
G1 X74.237 Y84.057 E0.42559
G1 X74.237 Y84.592 E0.01683
G1 X83.802 Y94.157 E0.42559
G1 X83.802 Y94.692 E0.01684
G1 X74.237 Y85.127 E0.42559
G1 X74.237 Y85.662 E0.01683
G1 X83.808 Y95.233 E0.42584
G1 X83.842 Y95.802 E0.01794
G1 X74.237 Y86.197 E0.42736
G1 X74.237 Y86.732 E0.01683
G1 X83.896 Y96.392 E0.42979
G1 X83.951 Y96.981 E0.01863
G1 X74.237 Y87.267 E0.43221
G1 X74.237 Y87.802 E0.01683
G1 X84.033 Y97.599 E0.43588
G1 X83.899 Y97.999 E0.01329
G1 X74.237 Y88.337 E0.42989
G1 X74.237 Y88.872 E0.01683
G1 X83.801 Y98.437 E0.42556
G1 X83.801 Y98.972 E0.01683
G1 X74.237 Y89.407 E0.42556
G1 X74.237 Y89.942 E0.01683
G1 X83.801 Y99.507 E0.42556
G1 X83.801 Y100.042 E0.01683
G1 X73.922 Y90.163 E0.43955
G1 X73.387 Y90.163 E0.01683
G1 X83.801 Y100.577 E0.46335
G1 X83.801 Y101.112 E0.01683
G1 X72.852 Y90.163 E0.48716
G1 X72.317 Y90.163 E0.01683
G1 X83.801 Y101.648 E0.51097
G1 X83.801 Y102.183 E0.01683
G1 X71.782 Y90.163 E0.53478
G1 X71.247 Y90.163 E0.01683
G1 X83.801 Y102.718 E0.55858
G1 X83.801 Y103.253 E0.01683
G1 X70.712 Y90.163 E0.58239
G1 X70.177 Y90.163 E0.01683
G1 X83.801 Y103.788 E0.60620
G1 X83.801 Y104.323 E0.01683
G1 X69.642 Y90.163 E0.63000
G1 X69.106 Y90.163 E0.01683
G1 X83.801 Y104.858 E0.65381
G1 X83.801 Y105.393 E0.01683
G1 X68.571 Y90.163 E0.67762
G1 X68.036 Y90.163 E0.01683
G1 X83.801 Y105.928 E0.70143
G1 X83.801 Y106.463 E0.01683
G1 X67.501 Y90.163 E0.72523
G1 X66.966 Y90.163 E0.01683
G1 X83.801 Y106.998 E0.74904
G1 X83.801 Y107.534 E0.01683
G1 X66.431 Y90.163 E0.77285
G1 X65.896 Y90.163 E0.01683
G1 X83.801 Y108.069 E0.79666
G1 X83.801 Y108.604 E0.01683
G1 X65.361 Y90.163 E0.82046
G1 X64.826 Y90.163 E0.01683
G1 X83.801 Y109.139 E0.84427
M73 Q1 S113
G1 X83.801 Y109.674 E0.01683
G1 X64.291 Y90.163 E0.86808
G1 X63.756 Y90.163 E0.01683
G1 X83.959 Y110.366 E0.89889
G1 X84.140 Y110.905 E0.01788
G1 X83.984 Y110.832 E0.00542
G1 X83.976 Y110.918 E0.00272
G1 X63.221 Y90.163 E0.92345
G1 X62.685 Y90.163 E0.01683
G1 X83.931 Y111.409 E0.94528
G1 X83.886 Y111.899 E0.01549
G1 X62.150 Y90.163 E0.96710
M73 P1 R112
G1 X61.792 Y90.163 E0.01128
G1 X61.733 Y90.281 E0.00414
G1 X83.842 Y112.390 E0.98368
G1 X83.812 Y112.895 E0.01593
G1 X61.554 Y90.638 E0.99030
G1 X61.376 Y90.994 E0.01255
G1 X73.455 Y103.074 E0.53744
G1 X72.920 Y103.074 E0.01683
G1 X61.198 Y91.351 E0.52156
G1 X61.062 Y91.623 E0.00956
G1 X61.035 Y91.723 E0.00328
G1 X72.385 Y103.074 E0.50500
G1 X71.850 Y103.074 E0.01683
G1 X61.032 Y92.256 E0.48132
G1 X61.032 Y92.791 E0.01683
G1 X71.315 Y103.074 E0.45752
G1 X70.780 Y103.074 E0.01683
G1 X61.032 Y93.326 E0.43371
G1 X61.032 Y93.861 E0.01683
G1 X70.245 Y103.074 E0.40990
G1 X69.710 Y103.074 E0.01683
G1 X61.032 Y94.396 E0.38609
G1 X61.032 Y94.931 E0.01683
G1 X69.175 Y103.074 E0.36229
G1 X68.640 Y103.074 E0.01683
G1 X61.032 Y95.466 E0.33848
G1 X61.032 Y96.001 E0.01683
G1 X68.104 Y103.074 E0.31467
G1 X67.569 Y103.074 E0.01683
G1 X61.032 Y96.536 E0.29086
G1 X61.032 Y97.071 E0.01683
G1 X67.034 Y103.074 E0.26706
G1 X66.499 Y103.074 E0.01683
G1 X61.032 Y97.606 E0.24325
G1 X61.032 Y98.141 E0.01683
G1 X65.964 Y103.074 E0.21944
M73 P2 R112
M73 Q2 S113
G1 X65.429 Y103.074 E0.01683
G1 X61.032 Y98.677 E0.19563
G1 X61.032 Y99.212 E0.01683
G1 X64.894 Y103.074 E0.17183
G1 X64.359 Y103.074 E0.01683
G1 X61.032 Y99.747 E0.14802
G1 X61.032 Y99.943 E0.00618
G1 X61.092 Y100.342 E0.01269
G1 X63.824 Y103.074 E0.12153
G1 X63.289 Y103.074 E0.01683
G1 X61.187 Y100.972 E0.09350
G1 X61.282 Y101.602 E0.02005
G1 X62.754 Y103.074 E0.06546
G1 X62.218 Y103.074 E0.01683
G1 X61.377 Y102.232 E0.03742
G1 X61.473 Y102.863 E0.02005
G1 X61.853 Y103.243 E0.01693
;WIPE_START
G1 F8640.000
G1 X61.473 Y102.863 E-0.12427
G1 X61.377 Y102.232 E-0.14715
G1 X62.218 Y103.074 E-0.27464
G1 X62.754 Y103.074 E-0.12355
G1 X62.477 Y102.797 E-0.09039
;WIPE_END
G1 E-0.04000 F2100.000
G1 Z0.600 F10800.000
G1 X74.067 Y103.685
G1 Z0.200
G1 E0.80000 F2100.000
G1 F1200.000
G1 X83.812 Y113.430 E0.43357
G1 X83.811 Y113.965 E0.01682
G1 X74.237 Y104.390 E0.42600
G1 X74.237 Y104.925 E0.01683
G1 X83.811 Y114.499 E0.42599
G1 X83.810 Y115.034 E0.01682
G1 X74.237 Y105.460 E0.42597
G1 X74.237 Y105.995 E0.01683
G1 X83.810 Y115.569 E0.42595
G1 X83.810 Y116.103 E0.01682
G1 X74.237 Y106.530 E0.42594
G1 X74.237 Y107.065 E0.01683
G1 X83.809 Y116.638 E0.42592
G1 X83.809 Y117.173 E0.01682
G1 X74.237 Y107.600 E0.42590
G1 X74.237 Y108.135 E0.01683
G1 X83.809 Y117.707 E0.42588
G1 X83.808 Y118.242 E0.01682
G1 X74.237 Y108.671 E0.42587
G1 X74.237 Y109.206 E0.01683
G1 X83.808 Y118.777 E0.42585
G1 X83.807 Y119.312 E0.01682
G1 X74.237 Y109.741 E0.42583
G1 X74.237 Y110.276 E0.01683
G1 X83.807 Y119.846 E0.42582
G1 X83.807 Y120.381 E0.01682
G1 X74.237 Y110.811 E0.42580
G1 X74.237 Y111.346 E0.01683
G1 X83.806 Y120.916 E0.42578
G1 X83.806 Y121.450 E0.01682
G1 X74.237 Y111.881 E0.42577
G1 X74.237 Y112.416 E0.01683
G1 X83.805 Y121.985 E0.42575
G1 X83.805 Y122.520 E0.01682
G1 X74.237 Y112.951 E0.42573
G1 X74.237 Y113.486 E0.01683
G1 X83.805 Y123.055 E0.42571
G1 X83.804 Y123.589 E0.01682
G1 X74.237 Y114.021 E0.42570
G1 X74.237 Y114.557 E0.01683
G1 X83.804 Y124.124 E0.42568
G1 X83.804 Y124.659 E0.01682
G1 X74.237 Y115.092 E0.42566
G1 X74.237 Y115.627 E0.01683
G1 X83.803 Y125.193 E0.42565
G1 X83.803 Y125.728 E0.01682
G1 X74.237 Y116.162 E0.42563
G1 X74.237 Y116.697 E0.01683
G1 X83.802 Y126.263 E0.42561
G1 X83.802 Y126.797 E0.01682
G1 X74.237 Y117.232 E0.42560
G1 X74.237 Y117.767 E0.01683
G1 X83.802 Y127.332 E0.42558
G1 X83.801 Y127.867 E0.01682
G1 X74.237 Y118.302 E0.42556
G1 X74.237 Y118.837 E0.01683
G1 X83.441 Y128.041 E0.40951
G1 X82.905 Y128.041 E0.01683
