; generated by PrusaSlicer 2.3.1+win64 on 2022-05-27 at 21:16:32 UTC

; 

; external perimeters extrusion width = 0.60mm
; perimeters extrusion width = 0.50mm
; infill extrusion width = 0.50mm
; solid infill extrusion width = 0.50mm
; top infill extrusion width = 0.45mm
; first layer extrusion width = 0.42mm

M73 P0 R129
M73 Q0 S131
M201 X1000 Y1000 Z200 E5000 ; sets maximum accelerations, mm/sec^2
M203 X200 Y200 Z12 E120 ; sets maximum feedrates, mm/sec
M204 P1250 R1250 T1250 ; sets acceleration (P, T) and retract acceleration (R), mm/sec^2
M205 X8.00 Y8.00 Z0.40 E4.50 ; sets the jerk limits, mm/sec
M205 S0 T0 ; sets the minimum extruding and travel feed rate, mm/sec
M107
;TYPE:Custom
M862.3 P "MK3S" ; printer model check
M862.1 P0.4 ; nozzle diameter check
M115 U3.11.0 ; tell printer latest fw version
G90 ; use absolute coordinates
M83 ; extruder relative mode
M104 S215 ; set extruder temp
M140 S60 ; set bed temp
M190 S60 ; wait for bed temp
M109 S215 ; wait for extruder temp
G28 W ; home all without mesh bed level
G80 ; mesh bed leveling
G1 Y-3.0 F1000.0 ; go outside print area
G92 E0.0
G1 X60.0 E9.0 F1000.0 ; intro line
G1 X100.0 E12.5 F1000.0 ; intro line
G92 E0.0
M221 S95

; Don't change E values below. Excessive value can damage the printer.

M907 E538 ; set extruder motor current
G21 ; set units to millimeters
G90 ; use absolute coordinates
M83 ; use relative distances for extrusion
M900 K0.05 ; Filament gcode LA 1.5
M900 K30 ; Filament gcode LA 1.0
;LAYER_CHANGE
;Z:0.2
;HEIGHT:0.2
;BEFORE_LAYER_CHANGE
G92 E0.0
;0.2


G1 E-0.80000 F2100.000
G1 Z0.400 F10800.000
;AFTER_LAYER_CHANGE
;0.2
G1 X196.584 Y122.307
M73 Q0 S130
G1 Z0.200
G1 E0.80000 F2100.000
M204 S1000
;TYPE:Skirt
;WIDTH:0.42
G1 F1200.000
G1 X195.469 Y122.777 E0.03794
G1 X89.833 Y131.673 E3.32385
G1 X67.579 Y131.677 E0.69776
G1 X67.071 Y131.603 E0.01609
G1 X66.163 Y131.311 E0.02992
G1 X65.701 Y131.011 E0.01728
G1 X65.147 Y130.469 E0.02428
G1 X55.058 Y118.553 E0.48955
G1 X54.785 Y118.141 E0.01550
G1 X54.603 Y117.682 E0.01550
G1 X54.422 Y116.955 E0.02347
G1 X51.904 Y100.238 E0.53007
G1 X51.895 Y91.540 E0.27272
G1 X52.119 Y90.450 E0.03489
G1 X54.813 Y84.992 E0.19086
G1 X55.112 Y84.570 E0.01621
G1 X55.707 Y83.984 E0.02619
G1 X56.153 Y83.694 E0.01668
G1 X66.578 Y78.529 E0.36477
G1 X67.661 Y78.321 E0.03458
G1 X194.838 Y78.321 E3.98754
G1 X195.333 Y78.374 E0.01562
G1 X196.129 Y78.598 E0.02592
G1 X196.570 Y78.821 E0.01550
G1 X196.953 Y79.128 E0.01538
G1 X197.460 Y79.655 E0.02292
G1 X197.757 Y80.128 E0.01752
G1 X198.038 Y81.030 E0.02962
G1 X198.105 Y81.558 E0.01668
G1 X198.014 Y119.676 E1.19517
G1 X197.809 Y120.745 E0.03413
G1 X197.396 Y121.487 E0.02661
G1 X196.626 Y122.264 E0.03432
; printing object Large_Palm_Pen_Large_Pen_hole.stl id:0 copy 0
;WIPE_START
G1 F8640.000
G1 X195.469 Y122.777 E-0.29226
G1 X193.450 Y122.947 E-0.46774
;WIPE_END
G1 E-0.04000 F2100.000
G1 Z0.600 F10800.000
G1 X110.798 Y126.553
G1 Z0.200
G1 E0.80000 F2100.000
;TYPE:Perimeter
G1 F1200.000
G1 X108.437 Y126.750 E0.07428
G1 X108.176 Y126.301 E0.01629
G1 X108.385 Y126.385 E0.00705
G1 X108.951 Y126.550 E0.01847
G1 X110.738 Y126.553 E0.05604
;WIPE_START
G1 F8640.000
G1 X108.437 Y126.750 E-0.53320
G1 X108.176 Y126.301 E-0.11994
G1 X108.385 Y126.385 E-0.05190
G1 X108.613 Y126.451 E-0.05497
;WIPE_END
G1 E-0.04000 F2100.000
G1 Z0.600 F10800.000
G1 X107.854 Y126.496
G1 Z0.200
G1 E0.80000 F2100.000
;TYPE:External perimeter
G1 F1200.000
G1 X106.954 Y126.656 E0.02866
G1 X106.458 Y126.708 E0.01561
G1 X89.961 Y128.089 E0.51908
G1 X89.972 Y112.745 E0.48109
G1 X90.056 Y111.828 E0.02889
G1 X90.625 Y112.094 E0.01972
G1 X90.971 Y113.159 E0.03512
G1 X93.301 Y117.194 E0.14610
G1 X96.419 Y120.657 E0.14610
G1 X100.189 Y123.396 E0.14610
G1 X104.446 Y125.291 E0.14610
G1 X107.535 Y125.948 E0.09903
G1 X107.823 Y126.445 E0.01800
G1 X108.055 Y126.842 F10800.000
;WIPE_START
G1 F8640.000
G1 X106.954 Y126.656 E-0.20668
G1 X106.458 Y126.708 E-0.11495
G1 X104.567 Y126.866 E-0.43837
;WIPE_END
G1 E-0.04000 F2100.000
G1 Z0.600 F10800.000
G1 X90.625 Y96.093
G1 Z0.200
G1 E0.80000 F2100.000
G1 F1200.000
G1 X90.056 Y96.359 E0.01971
G1 X89.972 Y95.453 E0.02852
G1 X89.962 Y94.957 E0.01557
G1 X89.961 Y81.888 E0.40976
G1 X104.830 Y81.889 E0.46620
G1 X105.338 Y81.899 E0.01593
G1 X106.271 Y81.983 E0.02938
G1 X105.976 Y82.570 E0.02061
G1 X104.446 Y82.895 E0.04907
G1 X100.189 Y84.791 E0.14610
G1 X96.419 Y87.530 E0.14610
G1 X93.301 Y90.992 E0.14610
G1 X90.971 Y95.028 E0.14610
G1 X90.644 Y96.036 E0.03323
G1 X90.677 Y96.489 F10800.000
G1 X90.197 Y96.709
;TYPE:Perimeter
G1 F1200.000
G1 X89.942 Y97.268 E0.01925
G1 X89.584 Y98.335 E0.03530
G1 X89.584 Y109.851 E0.36107
G1 X89.942 Y110.919 E0.03530
G1 X90.197 Y111.477 E0.01925
G1 X89.729 Y111.259 E0.01619
G1 X89.595 Y112.728 E0.04626
G1 X89.584 Y128.324 E0.48900
G1 X67.770 Y128.324 E0.68395
G1 X67.722 Y128.311 E0.00157
G1 X67.609 Y128.193 E0.00512
G1 X68.454 Y127.883 E0.02821
G1 X68.454 Y103.356 E0.76903
G1 X55.761 Y103.356 E0.39797
G1 X55.249 Y99.964 E0.10756
G1 X55.249 Y91.697 E0.25922
G1 X55.296 Y91.522 E0.00569
G1 X56.117 Y89.880 E0.05754
G1 X68.454 Y89.880 E0.38681
G1 X68.454 Y81.676 E0.25725
G1 X89.584 Y81.676 E0.66253
G1 X89.595 Y95.475 E0.43264
G1 X89.730 Y96.927 E0.04575
G1 X90.142 Y96.735 E0.01427
;WIPE_START
G1 F8640.000
G1 X89.942 Y97.268 E-0.13153
G1 X89.584 Y98.335 E-0.25995
G1 X89.584 Y99.931 E-0.36852
;WIPE_END
G1 E-0.04000 F2100.000
G1 Z0.600 F10800.000
G1 X106.566 Y82.236
G1 Z0.200
G1 E0.80000 F2100.000
G1 F1200.000
G1 X106.847 Y81.676 E0.01963
G1 X108.765 Y81.676 E0.06013
G1 X107.072 Y82.055 E0.05439
G1 X106.622 Y82.214 E0.01496
;WIPE_START
G1 F8640.000
G1 X106.847 Y81.676 E-0.13472
G1 X108.765 Y81.676 E-0.44283
G1 X107.994 Y81.849 E-0.18245
;WIPE_END
G1 E-0.04000 F2100.000
G1 Z0.600 F10800.000
G1 X68.077 Y81.716
G1 Z0.200
G1 E0.80000 F2100.000
;TYPE:External perimeter
G1 F1200.000
G1 X68.077 Y89.503 E0.24416
G1 X56.540 Y89.503 E0.36174
G1 X57.885 Y86.812 E0.09435
G1 X68.023 Y81.743 E0.35538
G1 X68.469 Y81.638 F10800.000
;WIPE_START
G1 F8640.000
G1 X68.046 Y85.034 E-0.76000
;WIPE_END
G1 E-0.04000 F2100.000
G1 Z0.600 F10800.000
G1 X68.023 Y103.733
G1 Z0.200
G1 E0.80000 F2100.000
G1 F1200.000
G1 X68.077 Y103.733 E0.00168
G1 X68.077 Y127.620 E0.74895
G1 X67.539 Y127.817 E0.01796
G1 X57.939 Y116.477 E0.46587
G1 X56.016 Y103.733 E0.40408
G1 X67.963 Y103.733 E0.37458
G1 X68.035 Y103.681 F10800.000
;WIPE_START
G1 F8640.000
G1 X68.077 Y103.733 E-0.02625
G1 X68.077 Y106.911 E-0.73375
;WIPE_END
G1 E-0.04000 F2100.000
G1 Z0.600 F10800.000
G1 X195.076 Y81.453
G1 Z0.200
G1 E0.80000 F2100.000
G1 F1200.000
G1 X195.113 Y81.593 E0.00455
G1 X195.076 Y81.733 E0.00455
G1 X194.973 Y81.836 E0.00455
G1 X194.779 Y81.888 E0.00630
G1 X110.924 Y81.888 E2.62921
G1 X110.924 Y82.007 E0.00374
G1 X109.011 Y82.007 E0.06000
G1 X107.177 Y82.418 E0.05893
G1 X106.721 Y82.580 E0.01517
G1 X106.310 Y82.779 E0.01429
G1 X104.533 Y83.164 E0.05704
G1 X100.330 Y85.035 E0.14424
G1 X96.608 Y87.739 E0.14425
G1 X93.530 Y91.158 E0.14425
G1 X91.229 Y95.143 E0.14425
G1 X90.924 Y96.082 E0.03098
G1 X90.758 Y96.513 E0.01449
G1 X90.500 Y96.936 E0.01551
G1 X90.294 Y97.404 E0.01605
G1 X89.961 Y98.397 E0.03283
G1 X89.961 Y109.790 E0.35721
G1 X90.294 Y110.783 E0.03283
G1 X90.500 Y111.251 E0.01605
G1 X90.758 Y111.673 E0.01551
G1 X90.924 Y112.105 E0.01449
G1 X91.229 Y113.044 E0.03098
G1 X93.530 Y117.029 E0.14425
G1 X96.608 Y120.448 E0.14425
G1 X100.330 Y123.152 E0.14425
G1 X104.533 Y125.023 E0.14425
G1 X107.657 Y125.687 E0.10013
G1 X108.508 Y126.028 E0.02875
G1 X109.005 Y126.173 E0.01622
G1 X112.847 Y126.180 E0.12049
G1 X194.671 Y119.308 E2.57456
M73 P0 R128
G1 X194.869 Y119.344 E0.00630
G1 X194.980 Y119.437 E0.00454
G1 X195.029 Y119.573 E0.00454
G1 X195.003 Y119.716 E0.00455
G1 X194.909 Y119.827 E0.00454
G1 X194.720 Y119.895 E0.00630
G1 X111.975 Y126.844 E2.60357
M73 Q0 S129
G1 X111.963 Y126.705 E0.00438
G1 X111.263 Y126.892 E0.02274
G1 X89.650 Y128.701 E0.68003
G1 X67.721 Y128.701 E0.68757
G1 X67.527 Y128.649 E0.00630
G1 X67.358 Y128.481 E0.00746
G1 X57.429 Y116.751 E0.48187
G1 X57.364 Y116.510 E0.00783
G1 X54.872 Y99.993 E0.52374
G1 X54.872 Y91.647 E0.26166
G1 X54.942 Y91.387 E0.00844
G1 X57.394 Y86.484 E0.17189
G1 X57.557 Y86.320 E0.00726
G1 X67.461 Y81.369 E0.34716
G1 X67.721 Y81.299 E0.00844
G1 X194.779 Y81.299 E3.98384
M73 P1 R128
M73 Q1 S129
G1 X194.973 Y81.351 E0.00630
G1 X195.033 Y81.411 E0.00266
G1 X195.005 Y81.580 F10800.000
G1 X194.918 Y81.593
;TYPE:Gap fill
;WIDTH:0.254866
G1 F1200.000
G1 X110.736 Y81.593 E1.48358
;WIDTH:0.294661
G1 X110.683 Y81.613 E0.00119
;WIDTH:0.334462
G1 X110.630 Y81.633 E0.00137
;WIDTH:0.374262
G1 X110.577 Y81.653 E0.00156
G1 X108.952 Y81.653 E0.04476
;WIPE_START
G1 F8640.000
G1 X110.577 Y81.653 E-0.37515
G1 X110.630 Y81.633 E-0.01308
;WIPE_END
G1 E-0.41177 F2100.000
G1 Z0.600 F10800.000
G1 X106.646 Y81.657
G1 Z0.200
G1 E0.80000 F2100.000
;WIDTH:0.366007
G1 F1200.000
G1 X106.002 Y81.628 E0.01731
;WIDTH:0.316234
G1 X105.358 Y81.599 E0.01464
;WIDTH:0.26646
G1 X104.834 Y81.594 E0.00974
;WIDTH:0.255548
G1 X89.773 Y81.593 E0.26629
;WIPE_START
G1 F8640.000
G1 X93.064 Y81.593 E-0.76000
;WIPE_END
G1 E-0.04000 F2100.000
G1 Z0.600 F10800.000
G1 X88.702 Y81.789
G1 Z0.200
G1 E0.80000 F2100.000
;TYPE:Solid infill
;WIDTH:0.422971
G1 F1200.000
G1 X89.301 Y82.388 E0.02677
G1 X89.301 Y82.926 E0.01699
G1 X88.335 Y81.959 E0.04320
G1 X87.797 Y81.959 E0.01698
G1 X89.301 Y83.463 E0.06723
G1 X89.301 Y84.001 E0.01699
G1 X87.260 Y81.959 E0.09125
G1 X86.722 Y81.959 E0.01698
G1 X89.301 Y84.538 E0.11527
G1 X89.301 Y85.076 E0.01699
G1 X86.185 Y81.959 E0.13929
G1 X85.647 Y81.959 E0.01698
G1 X89.301 Y85.613 E0.16331
G1 X89.302 Y86.151 E0.01699
G1 X85.110 Y81.959 E0.18733
G1 X84.572 Y81.959 E0.01698
G1 X89.302 Y86.688 E0.21136
G1 X89.302 Y87.226 E0.01699
G1 X84.035 Y81.959 E0.23538
G1 X83.497 Y81.959 E0.01698
G1 X89.302 Y87.763 E0.25940
G1 X89.302 Y88.301 E0.01699
G1 X82.960 Y81.959 E0.28342
G1 X82.422 Y81.959 E0.01698
G1 X89.302 Y88.838 E0.30744
G1 X89.302 Y89.376 E0.01699
G1 X81.885 Y81.959 E0.33146
G1 X81.347 Y81.959 E0.01698
G1 X89.302 Y89.913 E0.35548
G1 X89.302 Y90.451 E0.01699
G1 X80.810 Y81.959 E0.37951
G1 X80.272 Y81.959 E0.01698
G1 X89.302 Y90.988 E0.40353
G1 X89.302 Y91.526 E0.01699
G1 X79.735 Y81.959 E0.42755
G1 X79.198 Y81.959 E0.01698
G1 X89.302 Y92.063 E0.45157
G1 X89.302 Y92.601 E0.01699
G1 X78.660 Y81.959 E0.47559
G1 X78.123 Y81.959 E0.01698
G1 X89.302 Y93.138 E0.49961
G1 X89.302 Y93.676 E0.01699
G1 X77.585 Y81.959 E0.52363
G1 X77.048 Y81.959 E0.01698
G1 X89.302 Y94.213 E0.54766
G1 X89.302 Y94.751 E0.01699
G1 X76.510 Y81.959 E0.57168
G1 X75.973 Y81.959 E0.01698
G1 X89.309 Y95.295 E0.59601
G1 X89.348 Y95.872 E0.01827
G1 X75.435 Y81.959 E0.62178
G1 X74.898 Y81.959 E0.01698
G1 X89.403 Y96.464 E0.64825
G1 X89.458 Y97.056 E0.01880
G1 X74.360 Y81.959 E0.67472
G1 X73.823 Y81.959 E0.01698
G1 X89.515 Y97.651 E0.70132
G1 X89.380 Y98.054 E0.01341
G1 X73.285 Y81.959 E0.71930
G1 X72.748 Y81.959 E0.01698
G1 X89.301 Y98.512 E0.73979
G1 X89.301 Y99.050 E0.01698
G1 X72.210 Y81.959 E0.76381
G1 X71.673 Y81.959 E0.01698
G1 X89.301 Y99.587 E0.78783
G1 X89.301 Y100.125 E0.01698
G1 X71.135 Y81.959 E0.81185
G1 X70.598 Y81.959 E0.01698
G1 X89.301 Y100.662 E0.83587
G1 X89.301 Y101.200 E0.01698
G1 X70.061 Y81.959 E0.85989
G1 X69.523 Y81.959 E0.01698
G1 X89.301 Y101.737 E0.88391
G1 X89.301 Y102.275 E0.01698
G1 X68.986 Y81.959 E0.90793
G1 X68.737 Y81.959 E0.00787
G1 X68.737 Y82.247 E0.00912
G1 X89.301 Y102.812 E0.91906
G1 X89.301 Y103.349 E0.01698
G1 X68.737 Y82.785 E0.91906
G1 X68.737 Y83.322 E0.01698
G1 X89.301 Y103.887 E0.91906
G1 X89.301 Y104.424 E0.01698
G1 X68.737 Y83.860 E0.91906
M73 P1 R127
G1 X68.737 Y84.397 E0.01698
G1 X89.301 Y104.962 E0.91906
G1 X89.301 Y105.499 E0.01698
G1 X68.737 Y84.935 E0.91906
G1 X68.737 Y85.472 E0.01698
G1 X89.301 Y106.037 E0.91906
G1 X89.301 Y106.574 E0.01698
G1 X68.737 Y86.010 E0.91906
G1 X68.737 Y86.547 E0.01698
G1 X89.301 Y107.112 E0.91906
M73 Q1 S128
G1 X89.301 Y107.649 E0.01698
G1 X68.737 Y87.085 E0.91906
G1 X68.737 Y87.622 E0.01698
G1 X89.301 Y108.187 E0.91906
G1 X89.301 Y108.724 E0.01698
G1 X68.737 Y88.159 E0.91906
G1 X68.737 Y88.697 E0.01698
G1 X89.301 Y109.262 E0.91906
G1 X89.301 Y109.799 E0.01698
G1 X68.737 Y89.234 E0.91906
G1 X68.737 Y89.772 E0.01698
G1 X89.523 Y110.559 E0.92898
G1 X89.640 Y110.905 E0.01156
G1 X89.484 Y110.832 E0.00544
G1 X89.465 Y111.038 E0.00652
G1 X68.590 Y90.163 E0.93290
G1 X68.053 Y90.163 E0.01698
G1 X89.420 Y111.530 E0.95491
G1 X89.375 Y112.023 E0.01563
G1 X67.516 Y90.163 E0.97693
G1 X66.978 Y90.163 E0.01698
G1 X89.330 Y112.516 E0.99895
G1 X89.312 Y113.035 E0.01641
G1 X66.441 Y90.163 E1.02214
G1 X65.903 Y90.163 E0.01698
G1 X89.312 Y113.572 E1.04615
G1 X89.311 Y114.109 E0.01697
G1 X65.366 Y90.163 E1.07015
G1 X64.828 Y90.163 E0.01698
G1 X89.311 Y114.646 E1.09415
G1 X89.310 Y115.183 E0.01697
G1 X64.291 Y90.163 E1.11816
G1 X63.753 Y90.163 E0.01698
G1 X89.310 Y115.720 E1.14216
G1 X89.310 Y116.257 E0.01697
G1 X63.216 Y90.163 E1.16616
G1 X62.678 Y90.163 E0.01698
G1 X89.309 Y116.794 E1.19016
M73 P2 R127
M73 Q2 S128
G1 X89.309 Y117.331 E0.01697
G1 X62.141 Y90.163 E1.21417
G1 X61.603 Y90.163 E0.01698
G1 X89.308 Y117.868 E1.23817
G1 X89.308 Y118.405 E0.01697
G1 X61.066 Y90.163 E1.26217
G1 X60.528 Y90.163 E0.01698
G1 X89.308 Y118.943 E1.28618
G1 X89.307 Y119.480 E0.01697
G1 X59.991 Y90.163 E1.31018
G1 X59.453 Y90.163 E0.01698
G1 X89.307 Y120.017 E1.33418
G1 X89.307 Y120.554 E0.01697
G1 X58.916 Y90.163 E1.35819
G1 X58.378 Y90.163 E0.01698
G1 X89.306 Y121.091 E1.38219
G1 X89.306 Y121.628 E0.01697
G1 X57.841 Y90.163 E1.40619
G1 X57.304 Y90.163 E0.01698
G1 X89.305 Y122.165 E1.43020
G1 X89.305 Y122.702 E0.01697
G1 X56.766 Y90.163 E1.45420
M73 P2 R126
G1 X56.292 Y90.163 E0.01499
G1 X56.271 Y90.205 E0.00148
G1 X89.305 Y123.239 E1.47632
G1 X89.304 Y123.776 E0.01697
G1 X56.091 Y90.564 E1.48431
G1 X55.912 Y90.922 E0.01266
G1 X68.064 Y103.074 E0.54307
G1 X67.526 Y103.074 E0.01698
G1 X55.733 Y91.280 E0.52705
M73 Q2 S127
G1 X55.557 Y91.641 E0.01270
G1 X66.989 Y103.074 E0.51091
G1 X66.451 Y103.074 E0.01698
G1 X55.532 Y92.154 E0.48800
G1 X55.532 Y92.692 E0.01698
G1 X65.914 Y103.074 E0.46398
G1 X65.377 Y103.074 E0.01698
G1 X55.532 Y93.229 E0.43996
G1 X55.532 Y93.767 E0.01698
G1 X64.839 Y103.074 E0.41594
G1 X64.302 Y103.074 E0.01698
G1 X55.532 Y94.304 E0.39192
G1 X55.532 Y94.841 E0.01698
G1 X63.764 Y103.074 E0.36790
G1 X63.227 Y103.074 E0.01698
G1 X55.532 Y95.379 E0.34388
G1 X55.532 Y95.916 E0.01698
G1 X62.689 Y103.074 E0.31986
G1 X62.152 Y103.074 E0.01698
G1 X55.532 Y96.454 E0.29584
G1 X55.532 Y96.991 E0.01698
G1 X61.614 Y103.074 E0.27182
G1 X61.077 Y103.074 E0.01698
G1 X55.532 Y97.529 E0.24780
G1 X55.532 Y98.066 E0.01698
G1 X60.539 Y103.074 E0.22378
G1 X60.002 Y103.074 E0.01698
G1 X55.532 Y98.604 E0.19976
G1 X55.532 Y99.141 E0.01698
G1 X59.464 Y103.074 E0.17574
G1 X58.927 Y103.074 E0.01698
G1 X55.532 Y99.679 E0.15172
G1 X55.532 Y99.943 E0.00836
G1 X55.581 Y100.265 E0.01028
G1 X58.389 Y103.074 E0.12553
G1 X57.852 Y103.074 E0.01698
G1 X55.676 Y100.898 E0.09724
G1 X55.772 Y101.531 E0.02023
G1 X57.314 Y103.074 E0.06895
G1 X56.777 Y103.074 E0.01698
G1 X55.867 Y102.164 E0.04066
G1 X55.963 Y102.797 E0.02023
G1 X56.409 Y103.243 E0.01996
;WIPE_START
G1 F8640.000
G1 X55.963 Y102.797 E-0.14584
G1 X55.867 Y102.164 E-0.14781
G1 X56.777 Y103.074 E-0.29713
G1 X57.314 Y103.074 E-0.12410
G1 X57.176 Y102.935 E-0.04511
;WIPE_END
G1 E-0.04000 F2100.000
G1 Z0.600 F10800.000
G1 X68.567 Y103.576
G1 Z0.200
G1 E0.80000 F2100.000
G1 F1200.000
G1 X89.304 Y124.313 E0.92676
G1 X89.303 Y124.851 E0.01697
G1 X68.737 Y104.284 E0.91916
G1 X68.737 Y104.821 E0.01698
G1 X89.303 Y125.388 E0.91914
G1 X89.303 Y125.925 E0.01697
G1 X68.737 Y105.359 E0.91912
G1 X68.737 Y105.896 E0.01698
G1 X89.302 Y126.462 E0.91911
G1 X89.302 Y126.999 E0.01697
G1 X68.737 Y106.434 E0.91909
G1 X68.737 Y106.971 E0.01698
G1 X89.302 Y127.536 E0.91907
G1 X89.301 Y128.041 E0.01597
G1 X89.269 Y128.041 E0.00101
G1 X68.737 Y107.508 E0.91763
G1 X68.737 Y108.046 E0.01698
G1 X88.732 Y128.041 E0.89361
G1 X88.194 Y128.041 E0.01698
