; generated by PrusaSlicer 2.3.1+win64 on 2022-05-27 at 21:16:25 UTC

; 

; external perimeters extrusion width = 0.60mm
; perimeters extrusion width = 0.50mm
; infill extrusion width = 0.50mm
; solid infill extrusion width = 0.50mm
; top infill extrusion width = 0.45mm
; first layer extrusion width = 0.42mm

M73 P0 R122
M73 Q0 S123
M201 X1000 Y1000 Z200 E5000 ; sets maximum accelerations, mm/sec^2
M203 X200 Y200 Z12 E120 ; sets maximum feedrates, mm/sec
M204 P1250 R1250 T1250 ; sets acceleration (P, T) and retract acceleration (R), mm/sec^2
M205 X8.00 Y8.00 Z0.40 E4.50 ; sets the jerk limits, mm/sec
M205 S0 T0 ; sets the minimum extruding and travel feed rate, mm/sec
M107
;TYPE:Custom
M862.3 P "MK3S" ; printer model check
M862.1 P0.4 ; nozzle diameter check
M115 U3.11.0 ; tell printer latest fw version
G90 ; use absolute coordinates
M83 ; extruder relative mode
M104 S215 ; set extruder temp
M140 S60 ; set bed temp
M190 S60 ; wait for bed temp
M109 S215 ; wait for extruder temp
G28 W ; home all without mesh bed level
G80 ; mesh bed leveling
G1 Y-3.0 F1000.0 ; go outside print area
G92 E0.0
G1 X60.0 E9.0 F1000.0 ; intro line
G1 X100.0 E12.5 F1000.0 ; intro line
G92 E0.0
M221 S95

; Don't change E values below. Excessive value can damage the printer.

M907 E538 ; set extruder motor current
G21 ; set units to millimeters
G90 ; use absolute coordinates
M83 ; use relative distances for extrusion
M900 K0.05 ; Filament gcode LA 1.5
M900 K30 ; Filament gcode LA 1.0
;LAYER_CHANGE
;Z:0.2
;HEIGHT:0.2
;BEFORE_LAYER_CHANGE
G92 E0.0
;0.2


M73 P0 R121
G1 E-0.80000 F2100.000
G1 Z0.400 F10800.000
;AFTER_LAYER_CHANGE
;0.2
G1 X193.840 Y122.302
G1 Z0.200
G1 E0.80000 F2100.000
M204 S1000
;TYPE:Skirt
;WIDTH:0.42
G1 F1200.000
G1 X192.741 Y122.771 E0.03746
G1 X87.091 Y131.672 E3.32432
M73 Q0 S122
G1 X70.329 Y131.677 E0.52555
G1 X69.821 Y131.603 E0.01609
G1 X68.913 Y131.311 E0.02992
G1 X68.451 Y131.011 E0.01728
G1 X67.900 Y130.472 E0.02416
G1 X57.808 Y118.553 E0.48967
G1 X57.360 Y117.708 E0.03001
G1 X57.173 Y116.959 E0.02419
G1 X54.654 Y100.238 E0.53019
G1 X54.645 Y91.544 E0.27260
G1 X54.867 Y90.454 E0.03488
G1 X57.563 Y84.992 E0.19098
G1 X57.862 Y84.570 E0.01621
G1 X58.454 Y83.986 E0.02607
G1 X58.903 Y83.694 E0.01680
G1 X69.303 Y78.537 E0.36395
G1 X70.411 Y78.321 E0.03541
G1 X192.088 Y78.321 E3.81509
G1 X192.583 Y78.374 E0.01562
G1 X193.379 Y78.598 E0.02592
G1 X193.820 Y78.821 E0.01550
G1 X194.203 Y79.128 E0.01538
G1 X194.710 Y79.655 E0.02292
G1 X195.007 Y80.128 E0.01752
G1 X195.288 Y81.030 E0.02962
G1 X195.355 Y81.558 E0.01668
G1 X195.264 Y119.672 E1.19505
G1 X195.061 Y120.742 E0.03413
G1 X194.651 Y121.481 E0.02649
G1 X193.882 Y122.260 E0.03432
; printing object Large_Palm_Pen_Med_Pen_hole.stl id:0 copy 0
;WIPE_START
G1 F8640.000
G1 X192.741 Y122.771 E-0.28876
G1 X190.707 Y122.942 E-0.47124
;WIPE_END
G1 E-0.04000 F2100.000
G1 Z0.600 F10800.000
G1 X108.048 Y126.553
G1 Z0.200
G1 E0.80000 F2100.000
;TYPE:Perimeter
G1 F1200.000
G1 X105.687 Y126.750 E0.07428
G1 X105.426 Y126.301 E0.01629
G1 X105.635 Y126.385 E0.00705
G1 X106.201 Y126.550 E0.01847
G1 X107.988 Y126.553 E0.05604
;WIPE_START
G1 F8640.000
G1 X105.687 Y126.750 E-0.53320
G1 X105.426 Y126.301 E-0.11994
G1 X105.635 Y126.385 E-0.05190
G1 X105.863 Y126.451 E-0.05497
;WIPE_END
G1 E-0.04000 F2100.000
G1 Z0.600 F10800.000
G1 X105.104 Y126.496
G1 Z0.200
G1 E0.80000 F2100.000
;TYPE:External perimeter
G1 F1200.000
G1 X104.204 Y126.656 E0.02866
G1 X103.708 Y126.708 E0.01561
G1 X87.211 Y128.089 E0.51908
G1 X87.222 Y112.745 E0.48109
G1 X87.306 Y111.828 E0.02889
G1 X87.875 Y112.094 E0.01972
G1 X88.221 Y113.159 E0.03512
G1 X90.551 Y117.194 E0.14610
G1 X93.669 Y120.657 E0.14610
G1 X97.439 Y123.396 E0.14610
G1 X101.696 Y125.291 E0.14610
G1 X104.785 Y125.948 E0.09903
G1 X105.073 Y126.445 E0.01800
G1 X105.305 Y126.842 F10800.000
;WIPE_START
G1 F8640.000
G1 X104.204 Y126.656 E-0.20668
G1 X103.708 Y126.708 E-0.11495
G1 X101.817 Y126.866 E-0.43837
;WIPE_END
G1 E-0.04000 F2100.000
G1 Z0.600 F10800.000
G1 X87.875 Y96.093
G1 Z0.200
G1 E0.80000 F2100.000
G1 F1200.000
G1 X87.306 Y96.359 E0.01971
G1 X87.222 Y95.453 E0.02852
G1 X87.212 Y94.957 E0.01557
G1 X87.211 Y81.888 E0.40976
G1 X102.080 Y81.889 E0.46620
G1 X102.588 Y81.899 E0.01593
G1 X103.521 Y81.983 E0.02938
G1 X103.226 Y82.570 E0.02061
G1 X101.696 Y82.895 E0.04907
G1 X97.439 Y84.791 E0.14610
G1 X93.669 Y87.530 E0.14610
G1 X90.551 Y90.992 E0.14610
G1 X88.221 Y95.028 E0.14610
G1 X87.894 Y96.036 E0.03323
G1 X87.927 Y96.489 F10800.000
G1 X87.447 Y96.709
;TYPE:Perimeter
G1 F1200.000
G1 X87.192 Y97.268 E0.01925
G1 X86.834 Y98.335 E0.03530
G1 X86.834 Y109.851 E0.36107
G1 X87.192 Y110.919 E0.03530
G1 X87.447 Y111.477 E0.01925
G1 X86.979 Y111.259 E0.01619
G1 X86.845 Y112.728 E0.04626
G1 X86.834 Y128.324 E0.48900
G1 X70.520 Y128.324 E0.51150
G1 X70.472 Y128.311 E0.00157
G1 X70.359 Y128.193 E0.00512
G1 X71.204 Y127.883 E0.02821
G1 X71.204 Y103.356 E0.76903
G1 X58.511 Y103.356 E0.39797
G1 X57.999 Y99.964 E0.10756
G1 X57.999 Y91.697 E0.25922
G1 X58.046 Y91.522 E0.00569
G1 X58.867 Y89.880 E0.05754
G1 X71.204 Y89.880 E0.38681
G1 X71.204 Y81.676 E0.25725
G1 X86.834 Y81.676 E0.49008
G1 X86.845 Y95.475 E0.43264
G1 X86.980 Y96.927 E0.04575
G1 X87.392 Y96.735 E0.01427
;WIPE_START
G1 F8640.000
G1 X87.192 Y97.268 E-0.13153
G1 X86.834 Y98.335 E-0.25995
G1 X86.834 Y99.931 E-0.36852
;WIPE_END
G1 E-0.04000 F2100.000
G1 Z0.600 F10800.000
G1 X70.827 Y89.503
G1 Z0.200
G1 E0.80000 F2100.000
;TYPE:External perimeter
G1 F1200.000
G1 X59.290 Y89.503 E0.36174
G1 X60.635 Y86.812 E0.09435
G1 X70.827 Y81.716 E0.35726
G1 X70.827 Y89.443 E0.24228
G1 X70.996 Y89.866 F10800.000
;WIPE_START
G1 F8640.000
G1 X67.535 Y89.461 E-0.76000
;WIPE_END
G1 E-0.04000 F2100.000
G1 Z0.600 F10800.000
G1 X70.827 Y103.733
G1 Z0.200
G1 E0.80000 F2100.000
G1 F1200.000
G1 X70.827 Y127.620 E0.74895
G1 X70.289 Y127.817 E0.01796
G1 X60.689 Y116.477 E0.46587
G1 X58.766 Y103.733 E0.40408
G1 X70.767 Y103.733 E0.37626
G1 X71.209 Y103.615 F10800.000
;WIPE_START
G1 F8640.000
G1 X70.775 Y107.025 E-0.76000
;WIPE_END
G1 E-0.04000 F2100.000
G1 Z0.600 F10800.000
G1 X103.816 Y82.236
G1 Z0.200
G1 E0.80000 F2100.000
;TYPE:Perimeter
G1 F1200.000
G1 X104.097 Y81.676 E0.01963
G1 X106.015 Y81.676 E0.06013
G1 X104.322 Y82.055 E0.05439
G1 X103.872 Y82.214 E0.01496
;WIPE_START
G1 F8640.000
G1 X104.097 Y81.676 E-0.13472
G1 X106.015 Y81.676 E-0.44283
G1 X105.244 Y81.849 E-0.18245
;WIPE_END
G1 E-0.04000 F2100.000
G1 Z0.600 F10800.000
G1 X192.326 Y81.733
G1 Z0.200
G1 E0.80000 F2100.000
;TYPE:External perimeter
G1 F1200.000
G1 X192.223 Y81.836 E0.00455
G1 X192.029 Y81.888 E0.00630
G1 X108.174 Y81.888 E2.62921
G1 X108.174 Y82.007 E0.00374
G1 X106.261 Y82.007 E0.06000
G1 X104.427 Y82.418 E0.05893
G1 X103.971 Y82.580 E0.01517
G1 X103.560 Y82.779 E0.01429
G1 X101.783 Y83.164 E0.05704
G1 X97.580 Y85.035 E0.14424
G1 X93.858 Y87.739 E0.14425
G1 X90.780 Y91.158 E0.14425
G1 X88.479 Y95.143 E0.14425
G1 X88.174 Y96.082 E0.03098
G1 X88.008 Y96.513 E0.01449
G1 X87.750 Y96.936 E0.01551
G1 X87.544 Y97.404 E0.01605
G1 X87.211 Y98.397 E0.03283
G1 X87.211 Y109.790 E0.35721
G1 X87.544 Y110.783 E0.03283
G1 X87.750 Y111.251 E0.01605
G1 X88.008 Y111.673 E0.01551
G1 X88.174 Y112.105 E0.01449
G1 X88.479 Y113.044 E0.03098
G1 X90.780 Y117.029 E0.14425
G1 X93.858 Y120.448 E0.14425
G1 X97.580 Y123.152 E0.14425
G1 X101.783 Y125.023 E0.14425
G1 X104.907 Y125.687 E0.10013
G1 X105.758 Y126.028 E0.02875
G1 X106.255 Y126.173 E0.01622
G1 X110.097 Y126.180 E0.12049
G1 X191.921 Y119.308 E2.57456
G1 X192.119 Y119.344 E0.00630
G1 X192.230 Y119.437 E0.00454
G1 X192.279 Y119.573 E0.00454
G1 X192.253 Y119.716 E0.00455
G1 X192.159 Y119.827 E0.00454
G1 X191.970 Y119.895 E0.00630
G1 X109.225 Y126.844 E2.60357
M73 P0 R120
G1 X109.213 Y126.705 E0.00438
G1 X108.513 Y126.892 E0.02274
G1 X86.900 Y128.701 E0.68003
G1 X70.471 Y128.701 E0.51512
G1 X70.277 Y128.649 E0.00630
G1 X70.108 Y128.481 E0.00746
G1 X60.179 Y116.751 E0.48187
M73 Q0 S121
G1 X60.114 Y116.510 E0.00783
G1 X57.622 Y99.993 E0.52374
G1 X57.622 Y91.647 E0.26166
G1 X57.692 Y91.387 E0.00844
G1 X60.144 Y86.484 E0.17189
G1 X60.307 Y86.320 E0.00726
G1 X70.211 Y81.369 E0.34716
G1 X70.471 Y81.299 E0.00844
G1 X192.029 Y81.299 E3.81139
M73 P1 R120
M73 Q1 S121
G1 X192.223 Y81.351 E0.00630
G1 X192.326 Y81.453 E0.00455
G1 X192.363 Y81.593 E0.00455
G1 X192.341 Y81.675 E0.00266
G1 X192.181 Y81.733 F10800.000
G1 X192.168 Y81.593
;TYPE:Gap fill
;WIDTH:0.254866
G1 F1200.000
G1 X107.986 Y81.593 E1.48358
;WIDTH:0.294661
G1 X107.933 Y81.613 E0.00119
;WIDTH:0.334462
G1 X107.880 Y81.633 E0.00137
;WIDTH:0.374262
G1 X107.827 Y81.653 E0.00156
G1 X106.202 Y81.653 E0.04476
;WIPE_START
G1 F8640.000
G1 X107.827 Y81.653 E-0.37515
G1 X107.880 Y81.633 E-0.01308
;WIPE_END
G1 E-0.41177 F2100.000
G1 Z0.600 F10800.000
G1 X103.896 Y81.657
G1 Z0.200
G1 E0.80000 F2100.000
;WIDTH:0.366007
G1 F1200.000
G1 X103.252 Y81.628 E0.01731
;WIDTH:0.316234
G1 X102.608 Y81.599 E0.01464
;WIDTH:0.26646
G1 X102.084 Y81.594 E0.00974
;WIDTH:0.255548
G1 X87.023 Y81.593 E0.26629
;WIPE_START
G1 F8640.000
G1 X90.314 Y81.593 E-0.76000
;WIPE_END
G1 E-0.04000 F2100.000
G1 Z0.600 F10800.000
G1 X85.954 Y81.789
G1 Z0.200
G1 E0.80000 F2100.000
;TYPE:Solid infill
;WIDTH:0.422201
G1 F1200.000
G1 X86.551 Y82.386 E0.02664
G1 X86.551 Y82.923 E0.01692
G1 X85.587 Y81.959 E0.04300
G1 X85.051 Y81.959 E0.01692
G1 X86.551 Y83.459 E0.06692
G1 X86.551 Y83.996 E0.01692
G1 X84.515 Y81.959 E0.09084
G1 X83.978 Y81.959 E0.01692
G1 X86.551 Y84.532 E0.11477
G1 X86.551 Y85.068 E0.01692
G1 X83.442 Y81.959 E0.13869
G1 X82.905 Y81.959 E0.01692
G1 X86.551 Y85.605 E0.16262
G1 X86.552 Y86.141 E0.01692
G1 X82.369 Y81.959 E0.18654
G1 X81.833 Y81.959 E0.01692
G1 X86.552 Y86.678 E0.21047
G1 X86.552 Y87.214 E0.01692
G1 X81.296 Y81.959 E0.23439
G1 X80.760 Y81.959 E0.01692
G1 X86.552 Y87.751 E0.25831
G1 X86.552 Y88.287 E0.01692
G1 X80.223 Y81.959 E0.28224
G1 X79.687 Y81.959 E0.01692
G1 X86.552 Y88.823 E0.30616
G1 X86.552 Y89.360 E0.01692
G1 X79.151 Y81.959 E0.33009
G1 X78.614 Y81.959 E0.01692
G1 X86.552 Y89.896 E0.35401
G1 X86.552 Y90.433 E0.01692
G1 X78.078 Y81.959 E0.37794
G1 X77.542 Y81.959 E0.01692
G1 X86.552 Y90.969 E0.40186
G1 X86.552 Y91.505 E0.01692
G1 X77.005 Y81.959 E0.42578
G1 X76.469 Y81.959 E0.01692
G1 X86.552 Y92.042 E0.44971
G1 X86.552 Y92.578 E0.01692
G1 X75.932 Y81.959 E0.47363
G1 X75.396 Y81.959 E0.01692
G1 X86.552 Y93.115 E0.49756
G1 X86.552 Y93.651 E0.01692
G1 X74.860 Y81.959 E0.52148
G1 X74.323 Y81.959 E0.01692
G1 X86.552 Y94.187 E0.54541
G1 X86.552 Y94.724 E0.01692
G1 X73.787 Y81.959 E0.56933
G1 X73.250 Y81.959 E0.01692
G1 X86.558 Y95.267 E0.59353
G1 X86.595 Y95.840 E0.01812
G1 X72.714 Y81.959 E0.61911
G1 X72.178 Y81.959 E0.01692
G1 X86.650 Y96.431 E0.64547
G1 X86.705 Y97.022 E0.01872
G1 X71.641 Y81.959 E0.67183
G1 X71.487 Y81.959 E0.00488
G1 X71.487 Y82.340 E0.01203
G1 X86.774 Y97.627 E0.68181
G1 X86.639 Y98.029 E0.01336
G1 X71.487 Y82.877 E0.67579
G1 X71.487 Y83.413 E0.01692
G1 X86.551 Y98.478 E0.67190
G1 X86.551 Y99.014 E0.01692
G1 X71.487 Y83.950 E0.67190
G1 X71.487 Y84.486 E0.01692
G1 X86.551 Y99.551 E0.67190
G1 X86.551 Y100.087 E0.01692
G1 X71.487 Y85.022 E0.67190
G1 X71.487 Y85.559 E0.01692
G1 X86.551 Y100.623 E0.67190
G1 X86.551 Y101.160 E0.01692
G1 X71.487 Y86.095 E0.67190
G1 X71.487 Y86.631 E0.01692
G1 X86.551 Y101.696 E0.67190
G1 X86.551 Y102.233 E0.01692
G1 X71.487 Y87.168 E0.67190
G1 X71.487 Y87.704 E0.01692
G1 X86.551 Y102.769 E0.67190
G1 X86.551 Y103.305 E0.01692
G1 X71.487 Y88.241 E0.67190
G1 X71.487 Y88.777 E0.01692
G1 X86.551 Y103.842 E0.67190
G1 X86.551 Y104.378 E0.01692
G1 X71.487 Y89.313 E0.67190
G1 X71.487 Y89.850 E0.01692
G1 X86.551 Y104.915 E0.67190
G1 X86.551 Y105.451 E0.01692
G1 X71.264 Y90.163 E0.68184
G1 X70.727 Y90.163 E0.01692
G1 X86.551 Y105.987 E0.70576
G1 X86.551 Y106.524 E0.01692
G1 X70.191 Y90.163 E0.72968
G1 X69.655 Y90.163 E0.01692
G1 X86.551 Y107.060 E0.75361
G1 X86.551 Y107.596 E0.01692
G1 X69.118 Y90.163 E0.77753
G1 X68.582 Y90.163 E0.01692
G1 X86.551 Y108.133 E0.80145
G1 X86.551 Y108.669 E0.01692
G1 X68.045 Y90.163 E0.82537
G1 X67.509 Y90.163 E0.01692
G1 X86.551 Y109.206 E0.84930
M73 P1 R119
G1 X86.551 Y109.742 E0.01692
G1 X66.973 Y90.163 E0.87322
G1 X66.436 Y90.163 E0.01692
G1 X86.744 Y110.471 E0.90573
M73 Q1 S120
G1 X86.890 Y110.905 E0.01445
G1 X86.734 Y110.832 E0.00543
G1 X86.720 Y110.983 E0.00478
G1 X65.900 Y90.163 E0.92858
G1 X65.363 Y90.163 E0.01692
G1 X86.675 Y111.475 E0.95051
G1 X86.630 Y111.966 E0.01557
G1 X64.827 Y90.163 E0.97244
G1 X64.291 Y90.163 E0.01692
G1 X86.586 Y112.458 E0.99436
G1 X86.562 Y112.971 E0.01619
G1 X63.754 Y90.163 E1.01723
G1 X63.218 Y90.163 E0.01692
G1 X86.562 Y113.507 E1.04114
G1 X86.561 Y114.043 E0.01690
G1 X62.682 Y90.163 E1.06504
G1 X62.145 Y90.163 E0.01692
G1 X86.561 Y114.579 E1.08895
G1 X86.560 Y115.115 E0.01690
G1 X61.609 Y90.163 E1.11286
G1 X61.072 Y90.163 E0.01692
G1 X86.560 Y115.651 E1.13676
G1 X86.560 Y116.187 E0.01690
G1 X60.536 Y90.163 E1.16067
M73 P2 R119
M73 Q2 S120
G1 X60.000 Y90.163 E0.01692
G1 X86.559 Y116.723 E1.18457
G1 X86.559 Y117.259 E0.01690
G1 X59.463 Y90.163 E1.20848
G1 X59.042 Y90.163 E0.01330
G1 X59.003 Y90.240 E0.00270
G1 X86.558 Y117.795 E1.22897
G1 X86.558 Y118.331 E0.01690
G1 X58.825 Y90.597 E1.23693
G1 X58.646 Y90.955 E0.01261
G1 X70.764 Y103.074 E0.54049
G1 X70.228 Y103.074 E0.01692
G1 X58.467 Y91.313 E0.52454
G1 X58.297 Y91.679 E0.01274
G1 X69.692 Y103.074 E0.50821
G1 X69.155 Y103.074 E0.01692
G1 X58.282 Y92.200 E0.48495
G1 X58.282 Y92.737 E0.01692
G1 X68.619 Y103.074 E0.46102
G1 X68.082 Y103.074 E0.01692
G1 X58.282 Y93.273 E0.43710
G1 X58.282 Y93.810 E0.01692
G1 X67.546 Y103.074 E0.41318
G1 X67.010 Y103.074 E0.01692
G1 X58.282 Y94.346 E0.38926
G1 X58.282 Y94.882 E0.01692
G1 X66.473 Y103.074 E0.36533
G1 X65.937 Y103.074 E0.01692
G1 X58.282 Y95.419 E0.34141
G1 X58.282 Y95.955 E0.01692
G1 X65.400 Y103.074 E0.31749
G1 X64.864 Y103.074 E0.01692
G1 X58.282 Y96.491 E0.29356
G1 X58.282 Y97.028 E0.01692
G1 X64.328 Y103.074 E0.26964
G1 X63.791 Y103.074 E0.01692
G1 X58.282 Y97.564 E0.24572
G1 X58.282 Y98.101 E0.01692
G1 X63.255 Y103.074 E0.22179
G1 X62.719 Y103.074 E0.01692
G1 X58.282 Y98.637 E0.19787
G1 X58.282 Y99.173 E0.01692
G1 X62.182 Y103.074 E0.17395
G1 X61.646 Y103.074 E0.01692
G1 X58.282 Y99.710 E0.15002
G1 X58.282 Y99.943 E0.00736
G1 X58.336 Y100.300 E0.01138
G1 X61.109 Y103.074 E0.12370
G1 X60.573 Y103.074 E0.01692
G1 X58.431 Y100.932 E0.09553
G1 X58.526 Y101.563 E0.02015
G1 X60.037 Y103.074 E0.06735
G1 X59.500 Y103.074 E0.01692
G1 X58.622 Y102.195 E0.03918
G1 X58.717 Y102.827 E0.02015
G1 X59.134 Y103.243 E0.01857
;WIPE_START
G1 F8640.000
G1 X58.717 Y102.827 E-0.13599
G1 X58.622 Y102.195 E-0.14751
G1 X59.500 Y103.074 E-0.28685
G1 X60.037 Y103.074 E-0.12385
G1 X59.835 Y102.872 E-0.06580
;WIPE_END
G1 E-0.04000 F2100.000
G1 Z0.600 F10800.000
G1 X71.317 Y103.626
G1 Z0.200
G1 E0.80000 F2100.000
G1 F1200.000
G1 X86.558 Y118.867 E0.67975
G1 X86.557 Y119.403 E0.01690
G1 X71.487 Y104.332 E0.67217
G1 X71.487 Y104.869 E0.01692
G1 X86.557 Y119.939 E0.67215
G1 X86.557 Y120.475 E0.01690
G1 X71.487 Y105.405 E0.67213
G1 X71.487 Y105.941 E0.01692
G1 X86.556 Y121.011 E0.67211
G1 X86.556 Y121.547 E0.01690
G1 X71.487 Y106.478 E0.67210
G1 X71.487 Y107.014 E0.01692
G1 X86.555 Y122.083 E0.67208
G1 X86.555 Y122.619 E0.01690
G1 X71.487 Y107.550 E0.67206
G1 X71.487 Y108.087 E0.01692
G1 X86.555 Y123.155 E0.67205
G1 X86.554 Y123.691 E0.01690
G1 X71.487 Y108.623 E0.67203
G1 X71.487 Y109.160 E0.01692
G1 X86.554 Y124.227 E0.67201
G1 X86.554 Y124.763 E0.01690
G1 X71.487 Y109.696 E0.67199
G1 X71.487 Y110.232 E0.01692
G1 X86.553 Y125.299 E0.67198
G1 X86.553 Y125.835 E0.01690
G1 X71.487 Y110.769 E0.67196
G1 X71.487 Y111.305 E0.01692
G1 X86.552 Y126.371 E0.67194
G1 X86.552 Y126.907 E0.01690
G1 X71.487 Y111.842 E0.67193
M73 P2 R118
G1 X71.487 Y112.378 E0.01692
G1 X86.552 Y127.443 E0.67191
G1 X86.551 Y127.979 E0.01690
G1 X71.487 Y112.914 E0.67189
G1 X71.487 Y113.451 E0.01692
G1 X86.077 Y128.041 E0.65075
G1 X85.541 Y128.041 E0.01692
G1 X71.487 Y113.987 E0.62682
M73 Q2 S119
G1 X71.487 Y114.523 E0.01692
