; generated by PrusaSlicer 2.3.1+win64 on 2022-05-27 at 21:17:53 UTC

; 

; external perimeters extrusion width = 0.60mm
; perimeters extrusion width = 0.50mm
; infill extrusion width = 0.50mm
; solid infill extrusion width = 0.50mm
; top infill extrusion width = 0.45mm
; first layer extrusion width = 0.42mm

M73 P0 R103
M73 Q0 S104
M201 X1000 Y1000 Z200 E5000 ; sets maximum accelerations, mm/sec^2
M203 X200 Y200 Z12 E120 ; sets maximum feedrates, mm/sec
M204 P1250 R1250 T1250 ; sets acceleration (P, T) and retract acceleration (R), mm/sec^2
M205 X8.00 Y8.00 Z0.40 E4.50 ; sets the jerk limits, mm/sec
M205 S0 T0 ; sets the minimum extruding and travel feed rate, mm/sec
M107
;TYPE:Custom
M862.3 P "MK3S" ; printer model check
M862.1 P0.4 ; nozzle diameter check
M115 U3.11.0 ; tell printer latest fw version
G90 ; use absolute coordinates
M83 ; extruder relative mode
M104 S215 ; set extruder temp
M140 S60 ; set bed temp
M190 S60 ; wait for bed temp
M109 S215 ; wait for extruder temp
G28 W ; home all without mesh bed level
G80 ; mesh bed leveling
G1 Y-3.0 F1000.0 ; go outside print area
G92 E0.0
G1 X60.0 E9.0 F1000.0 ; intro line
G1 X100.0 E12.5 F1000.0 ; intro line
G92 E0.0
M221 S95

; Don't change E values below. Excessive value can damage the printer.

M907 E538 ; set extruder motor current
G21 ; set units to millimeters
G90 ; use absolute coordinates
M83 ; use relative distances for extrusion
M900 K0.05 ; Filament gcode LA 1.5
M900 K30 ; Filament gcode LA 1.0
;LAYER_CHANGE
;Z:0.2
;HEIGHT:0.2
;BEFORE_LAYER_CHANGE
G92 E0.0
;0.2


G1 E-0.80000 F2100.000
G1 Z0.400 F10800.000
;AFTER_LAYER_CHANGE
;0.2
G1 X60.883 Y92.702
G1 Z0.200
G1 E0.80000 F2100.000
M204 S1000
;TYPE:Skirt
;WIDTH:0.42
G1 F1200.000
G1 X63.558 Y87.309 E0.18875
G1 X63.854 Y86.890 E0.01609
G1 X64.452 Y86.300 E0.02634
G1 X64.895 Y86.011 E0.01657
G1 X75.214 Y80.880 E0.36135
G1 X76.410 Y80.637 E0.03827
G1 X186.296 Y80.647 E3.44539
G1 X187.268 Y80.875 E0.03129
G1 X187.836 Y81.147 E0.01977
G1 X188.620 Y81.862 E0.03326
G1 X188.999 Y82.417 E0.02107
G1 X189.295 Y83.354 E0.03083
G1 X189.363 Y83.909 E0.01752
G1 X189.131 Y114.934 E0.97280
G1 X188.990 Y115.876 E0.02986
G1 X188.733 Y116.501 E0.02119
G1 X188.075 Y117.339 E0.03342
G1 X187.442 Y117.791 E0.02437
G1 X186.234 Y118.191 E0.03991
G1 X87.660 Y129.350 E3.11045
G1 X76.377 Y129.362 E0.35378
G1 X75.845 Y129.293 E0.01680
G1 X74.932 Y129.006 E0.03003
G1 X74.461 Y128.706 E0.01752
G1 X73.913 Y128.174 E0.02393
G1 X63.820 Y116.531 E0.48313
G1 X63.377 Y115.742 E0.02837
G1 X60.649 Y102.604 E0.42070
G1 X60.636 Y93.860 E0.27418
G1 X60.870 Y92.760 E0.03525
; printing object Med_Palm_Pen_Small_Pen_hole.stl id:0 copy 0
;WIPE_START
G1 F8640.000
G1 X62.326 Y89.808 E-0.76000
;WIPE_END
G1 E-0.04000 F2100.000
G1 Z0.600 F10800.000
G1 X103.924 Y123.693
G1 Z0.200
G1 E0.80000 F2100.000
;TYPE:Perimeter
G1 F1200.000
G1 X104.438 Y123.872 E0.01707
G1 X104.991 Y123.892 E0.01735
G1 X106.031 Y123.893 E0.03259
G1 X104.174 Y124.103 E0.05860
G1 X103.955 Y123.744 E0.01317
G1 X103.589 Y123.868 F10800.000
;TYPE:External perimeter
G1 F1200.000
G1 X102.699 Y124.053 E0.02849
G1 X102.207 Y124.118 E0.01558
G1 X87.712 Y125.754 E0.45735
G1 X87.724 Y112.226 E0.42416
G1 X87.807 Y111.305 E0.02899
G1 X88.377 Y111.571 E0.01972
G1 X88.506 Y111.967 E0.01305
G1 X90.574 Y115.549 E0.12968
G1 X93.342 Y118.624 E0.12974
G1 X96.689 Y121.054 E0.12967
G1 X100.468 Y122.738 E0.12974
G1 X103.263 Y123.333 E0.08959
G1 X103.558 Y123.817 E0.01776
G1 X103.796 Y124.210 F10800.000
;WIPE_START
G1 F8640.000
G1 X102.699 Y124.053 E-0.20558
G1 X102.207 Y124.118 E-0.11473
G1 X100.315 Y124.332 E-0.43969
;WIPE_END
G1 E-0.04000 F2100.000
G1 Z0.600 F10800.000
G1 X64.964 Y106.059
G1 Z0.200
G1 E0.80000 F2100.000
G1 F1200.000
G1 X76.825 Y106.059 E0.37189
G1 X76.825 Y125.308 E0.60354
G1 X76.292 Y125.507 E0.01785
G1 X66.675 Y114.410 E0.46040
G1 X64.976 Y106.118 E0.26541
G1 X64.894 Y105.665 F10800.000
;WIPE_START
G1 F8640.000
G1 X68.268 Y106.101 E-0.76000
;WIPE_END
G1 E-0.04000 F2100.000
G1 Z0.600 F10800.000
G1 X65.289 Y91.827
G1 Z0.200
G1 E0.80000 F2100.000
G1 F1200.000
G1 X66.636 Y89.138 E0.09430
G1 X76.825 Y84.041 E0.35720
G1 X76.825 Y91.827 E0.24411
G1 X65.349 Y91.827 E0.35982
G1 X64.891 Y91.782 F10800.000
;WIPE_START
G1 F8640.000
G1 X66.636 Y89.138 E-0.68838
G1 X66.914 Y88.999 E-0.07162
;WIPE_END
G1 E-0.04000 F2100.000
G1 Z0.600 F10800.000
G1 X87.481 Y97.100
M73 Q0 S103
G1 Z0.200
G1 E0.80000 F2100.000
;TYPE:Perimeter
G1 F1200.000
G1 X87.950 Y96.881 E0.01620
G1 X87.858 Y97.055 E0.00616
G1 X87.666 Y97.517 E0.01568
G1 X87.336 Y98.511 E0.03286
G1 X87.336 Y109.322 E0.33897
G1 X87.666 Y110.317 E0.03287
G1 X87.858 Y110.780 E0.01569
G1 X87.951 Y110.956 E0.00625
G1 X87.480 Y110.736 E0.01629
G1 X87.347 Y112.209 E0.04636
G1 X87.335 Y126.000 E0.43240
G1 X76.519 Y126.000 E0.33913
G1 X76.471 Y125.987 E0.00156
G1 X76.367 Y125.881 E0.00463
G1 X77.202 Y125.570 E0.02793
G1 X77.202 Y105.682 E0.62357
G1 X64.698 Y105.682 E0.39206
G1 X63.998 Y102.269 E0.10923
G1 X63.998 Y94.021 E0.25861
G1 X64.045 Y93.846 E0.00568
G1 X64.867 Y92.204 E0.05757
G1 X77.202 Y92.204 E0.38677
G1 X77.202 Y84.000 E0.25722
G1 X87.336 Y84.000 E0.31773
G1 X87.336 Y95.133 E0.34906
G1 X87.347 Y95.647 E0.01612
G1 X87.476 Y97.040 E0.04387
G1 X87.808 Y96.532 F10800.000
;TYPE:External perimeter
G1 F1200.000
G1 X87.724 Y95.626 E0.02852
G1 X87.714 Y95.129 E0.01557
G1 X87.713 Y84.213 E0.34228
G1 X100.296 Y84.214 E0.39453
G1 X100.792 Y84.224 E0.01557
G1 X101.713 Y84.308 E0.02900
G1 X101.419 Y84.895 E0.02058
G1 X100.468 Y85.098 E0.03047
G1 X96.689 Y86.780 E0.12972
G1 X93.342 Y89.212 E0.12970
G1 X90.574 Y92.287 E0.12974
G1 X88.506 Y95.869 E0.12968
G1 X88.377 Y96.266 E0.01308
G1 X87.862 Y96.506 E0.01783
G1 X87.427 Y96.655 F10800.000
;WIPE_START
G1 F8640.000
G1 X87.724 Y95.626 E-0.20577
G1 X87.714 Y95.129 E-0.11468
G1 X87.713 Y93.226 E-0.43955
;WIPE_END
G1 E-0.04000 F2100.000
G1 Z0.600 F10800.000
G1 X102.008 Y84.560
G1 Z0.200
G1 E0.80000 F2100.000
;TYPE:Perimeter
G1 F1200.000
G1 X102.289 Y84.000 E0.01964
G1 X104.212 Y84.000 E0.06029
G1 X102.621 Y84.346 E0.05105
G1 X102.063 Y84.534 E0.01848
;WIPE_START
G1 F8640.000
G1 X102.289 Y84.000 E-0.13396
G1 X104.212 Y84.000 E-0.44399
G1 X103.442 Y84.168 E-0.18206
;WIPE_END
G1 E-0.04000 F2100.000
G1 Z0.600 F10800.000
G1 X186.223 Y84.161
G1 Z0.200
G1 E0.80000 F2100.000
;TYPE:External perimeter
G1 F1200.000
G1 X186.031 Y84.213 E0.00626
G1 X106.175 Y84.213 E2.50381
M73 P0 R102
G1 X106.175 Y84.319 E0.00332
G1 X104.523 Y84.319 E0.05179
G1 X102.719 Y84.711 E0.05790
G1 X102.266 Y84.855 E0.01488
G1 X101.851 Y85.053 E0.01442
G1 X101.444 Y85.177 E0.01334
G1 X100.555 Y85.366 E0.02852
G1 X96.829 Y87.027 E0.12789
G1 X93.532 Y89.423 E0.12780
G1 X90.803 Y92.452 E0.12783
G1 X88.763 Y95.984 E0.12789
G1 X88.623 Y96.416 E0.01424
G1 X88.199 Y97.216 E0.02839
G1 X88.020 Y97.649 E0.01470
G1 X87.713 Y98.572 E0.03052
G1 X87.713 Y109.261 E0.33515
G1 X88.020 Y110.186 E0.03053
G1 X88.199 Y110.619 E0.01471
G1 X88.623 Y111.420 E0.02841
G1 X88.763 Y111.852 E0.01425
G1 X90.803 Y115.382 E0.12783
G1 X93.532 Y118.413 E0.12787
G1 X96.829 Y120.811 E0.12784
G1 X100.554 Y122.470 E0.12786
G1 X103.618 Y123.132 E0.09828
G1 X104.022 Y123.328 E0.01407
G1 X104.508 Y123.497 E0.01614
G1 X104.998 Y123.515 E0.01537
G1 X107.638 Y123.517 E0.08278
G1 X185.771 Y114.643 E2.46554
G1 X185.968 Y114.673 E0.00624
G1 X186.083 Y114.765 E0.00462
G1 X186.137 Y114.899 E0.00454
G1 X186.115 Y115.043 E0.00456
G1 X186.024 Y115.156 E0.00454
G1 X185.832 Y115.232 E0.00648
G1 X107.306 Y124.149 E2.47796
G1 X107.291 Y124.012 E0.00430
G1 X106.507 Y124.219 E0.02540
G1 X87.392 Y126.377 E0.60316
G1 X76.469 Y126.377 E0.34247
G1 X76.276 Y126.325 E0.00629
G1 X76.104 Y126.153 E0.00759
G1 X66.177 Y114.697 E0.47528
G1 X66.110 Y114.448 E0.00809
G1 X63.621 Y102.307 E0.38859
M73 P1 R102
M73 Q1 S103
G1 X63.621 Y93.971 E0.26137
G1 X63.691 Y93.712 E0.00843
G1 X66.143 Y88.807 E0.17192
G1 X66.306 Y88.643 E0.00726
G1 X76.210 Y83.693 E0.34713
G1 X76.469 Y83.623 E0.00843
G1 X186.029 Y83.623 E3.43516
G1 X186.223 Y83.676 E0.00631
G1 X186.326 Y83.778 E0.00454
G1 X186.363 Y83.917 E0.00453
G1 X186.326 Y84.059 E0.00459
G1 X186.266 Y84.118 E0.00264
G1 X186.050 Y84.061 F10800.000
G1 X186.162 Y83.941
;TYPE:Gap fill
;WIDTH:0.255415
G1 F1200.000
G1 X185.990 Y83.918 E0.00306
G1 X105.986 Y83.918 E1.41358
;WIDTH:0.290666
G1 X105.936 Y83.936 E0.00109
;WIDTH:0.325918
G1 X105.887 Y83.953 E0.00125
;WIDTH:0.36117
G1 X105.837 Y83.971 E0.00140
G1 X104.399 Y83.971 E0.03805
;WIPE_START
G1 F8640.000
G1 X105.837 Y83.971 E-0.33205
G1 X105.887 Y83.953 E-0.01223
;WIPE_END
G1 E-0.45572 F2100.000
G1 Z0.600 F10800.000
G1 X102.087 Y83.982
G1 Z0.200
G1 E0.80000 F2100.000
;WIDTH:0.367362
G1 F1200.000
G1 X101.663 Y83.963 E0.01147
;WIDTH:0.333948
G1 X101.238 Y83.943 E0.01029
;WIDTH:0.300534
G1 X100.813 Y83.924 E0.00911
;WIDTH:0.26712
G1 X100.300 Y83.918 E0.00956
;WIDTH:0.256171
G1 X87.524 Y83.918 E0.22654
;WIPE_START
G1 F8640.000
G1 X90.815 Y83.918 E-0.76000
;WIPE_END
G1 E-0.04000 F2100.000
G1 Z0.600 F10800.000
G1 X86.455 Y84.113
G1 Z0.200
G1 E0.80000 F2100.000
;TYPE:Solid infill
;WIDTH:0.422541
G1 F1200.000
G1 X87.053 Y84.712 E0.02672
G1 X87.054 Y85.249 E0.01696
G1 X86.088 Y84.283 E0.04314
G1 X85.551 Y84.283 E0.01695
G1 X87.055 Y85.787 E0.06713
G1 X87.055 Y86.324 E0.01696
G1 X85.014 Y84.283 E0.09112
G1 X84.477 Y84.283 E0.01695
G1 X87.056 Y86.862 E0.11511
G1 X87.056 Y87.399 E0.01696
G1 X83.940 Y84.283 E0.13910
G1 X83.403 Y84.283 E0.01695
G1 X87.057 Y87.936 E0.16309
G1 X87.057 Y88.474 E0.01696
G1 X82.866 Y84.283 E0.18708
G1 X82.330 Y84.283 E0.01695
G1 X87.058 Y89.011 E0.21107
G1 X87.058 Y89.549 E0.01696
G1 X81.793 Y84.283 E0.23506
G1 X81.256 Y84.283 E0.01695
G1 X87.059 Y90.086 E0.25905
G1 X87.059 Y90.623 E0.01696
G1 X80.719 Y84.283 E0.28304
G1 X80.182 Y84.283 E0.01695
G1 X87.060 Y91.161 E0.30703
G1 X87.060 Y91.698 E0.01696
G1 X79.645 Y84.283 E0.33102
G1 X79.108 Y84.283 E0.01695
G1 X87.061 Y92.236 E0.35500
G1 X87.061 Y92.773 E0.01696
G1 X78.572 Y84.283 E0.37899
G1 X78.035 Y84.283 E0.01695
G1 X87.062 Y93.310 E0.40298
G1 X87.063 Y93.848 E0.01696
G1 X77.498 Y84.283 E0.42697
G1 X77.485 Y84.283 E0.00041
G1 X77.485 Y84.807 E0.01654
G1 X87.063 Y94.385 E0.42758
G1 X87.064 Y94.923 E0.01696
G1 X77.485 Y85.344 E0.42760
G1 X77.485 Y85.881 E0.01695
G1 X87.064 Y95.460 E0.42762
G1 X87.099 Y96.031 E0.01807
G1 X77.485 Y86.418 E0.42916
G1 X77.485 Y86.954 E0.01695
G1 X87.153 Y96.623 E0.43161
G1 X87.208 Y97.215 E0.01875
G1 X77.485 Y87.491 E0.43405
G1 X77.485 Y88.028 E0.01695
G1 X87.270 Y97.813 E0.43680
G1 X87.136 Y98.216 E0.01340
G1 X77.485 Y88.565 E0.43082
G1 X77.485 Y89.102 E0.01695
G1 X87.053 Y98.670 E0.42712
G1 X87.053 Y99.207 E0.01695
G1 X77.485 Y89.639 E0.42712
G1 X77.485 Y90.176 E0.01695
G1 X87.053 Y99.744 E0.42712
G1 X87.053 Y100.280 E0.01695
G1 X77.485 Y90.713 E0.42712
G1 X77.485 Y91.249 E0.01695
G1 X87.053 Y100.817 E0.42712
G1 X87.053 Y101.354 E0.01695
G1 X77.485 Y91.786 E0.42712
G1 X77.485 Y92.323 E0.01695
G1 X87.053 Y101.891 E0.42712
G1 X87.053 Y102.428 E0.01695
G1 X77.112 Y92.487 E0.44377
M73 Q1 S102
G1 X76.575 Y92.487 E0.01695
G1 X87.053 Y102.965 E0.46774
G1 X87.053 Y103.502 E0.01695
G1 X76.038 Y92.487 E0.49170
G1 X75.501 Y92.487 E0.01695
G1 X87.053 Y104.038 E0.51567
G1 X87.053 Y104.575 E0.01695
G1 X74.964 Y92.487 E0.53964
G1 X74.427 Y92.487 E0.01695
G1 X87.053 Y105.112 E0.56360
G1 X87.053 Y105.649 E0.01695
G1 X73.891 Y92.487 E0.58757
G1 X73.354 Y92.487 E0.01695
G1 X87.053 Y106.186 E0.61153
G1 X87.053 Y106.723 E0.01695
G1 X72.817 Y92.487 E0.63550
G1 X72.280 Y92.487 E0.01695
G1 X87.053 Y107.260 E0.65947
G1 X87.053 Y107.797 E0.01695
G1 X71.743 Y92.487 E0.68343
G1 X71.206 Y92.487 E0.01695
G1 X87.053 Y108.333 E0.70740
G1 X87.053 Y108.870 E0.01695
G1 X70.669 Y92.487 E0.73136
G1 X70.133 Y92.487 E0.01695
G1 X87.072 Y109.427 E0.75620
G1 X87.339 Y110.231 E0.02674
G1 X69.596 Y92.487 E0.79209
M73 P1 R101
G1 X69.059 Y92.487 E0.01695
G1 X87.205 Y110.633 E0.81007
G1 X87.161 Y111.126 E0.01560
G1 X68.522 Y92.487 E0.83205
G1 X67.985 Y92.487 E0.01695
G1 X87.116 Y111.618 E0.85402
G1 X87.072 Y112.110 E0.01560
G1 X67.448 Y92.487 E0.87600
G1 X66.911 Y92.487 E0.01695
G1 X87.063 Y112.639 E0.89960
G1 X87.063 Y113.175 E0.01693
G1 X66.374 Y92.487 E0.92355
G1 X65.838 Y92.487 E0.01695
G1 X87.063 Y113.712 E0.94749
G1 X87.062 Y114.248 E0.01693
G1 X65.301 Y92.487 E0.97144
G1 X65.041 Y92.487 E0.00819
G1 X64.949 Y92.672 E0.00653
G1 X87.062 Y114.785 E0.98713
G1 X87.061 Y115.321 E0.01693
G1 X77.485 Y105.745 E0.42749
G1 X77.485 Y105.399 E0.01091
G1 X77.139 Y105.399 E0.01091
G1 X64.770 Y93.030 E0.55217
G1 X64.591 Y93.388 E0.01263
G1 X76.602 Y105.399 E0.53620
G1 X76.065 Y105.399 E0.01695
G1 X64.412 Y93.746 E0.52022
M73 P2 R101
M73 Q2 S102
G1 X64.311 Y93.947 E0.00712
G1 X64.281 Y94.059 E0.00364
G1 X64.281 Y94.152 E0.00293
G1 X75.529 Y105.399 E0.50210
G1 X74.992 Y105.399 E0.01695
G1 X64.281 Y94.688 E0.47813
G1 X64.281 Y95.225 E0.01695
G1 X74.455 Y105.399 E0.45416
G1 X73.918 Y105.399 E0.01695
G1 X64.281 Y95.762 E0.43020
G1 X64.281 Y96.299 E0.01695
G1 X73.381 Y105.399 E0.40623
G1 X72.844 Y105.399 E0.01695
G1 X64.281 Y96.836 E0.38227
G1 X64.281 Y97.373 E0.01695
G1 X72.307 Y105.399 E0.35830
G1 X71.771 Y105.399 E0.01695
G1 X64.281 Y97.910 E0.33433
G1 X64.281 Y98.446 E0.01695
G1 X71.234 Y105.399 E0.31037
G1 X70.697 Y105.399 E0.01695
G1 X64.281 Y98.983 E0.28640
G1 X64.281 Y99.520 E0.01695
G1 X70.160 Y105.399 E0.26244
G1 X69.623 Y105.399 E0.01695
G1 X64.281 Y100.057 E0.23847
G1 X64.281 Y100.594 E0.01695
G1 X69.086 Y105.399 E0.21450
G1 X68.549 Y105.399 E0.01695
G1 X64.281 Y101.131 E0.19054
G1 X64.281 Y101.668 E0.01695
G1 X68.012 Y105.399 E0.16657
G1 X67.476 Y105.399 E0.01695
G1 X64.281 Y102.205 E0.14261
G1 X64.410 Y102.871 E0.02142
G1 X66.939 Y105.399 E0.11287
G1 X66.402 Y105.399 E0.01695
G1 X64.549 Y103.546 E0.08273
G1 X64.687 Y104.221 E0.02176
G1 X65.865 Y105.399 E0.05258
G1 X65.328 Y105.399 E0.01695
G1 X64.608 Y104.679 E0.03216
;WIPE_START
G1 F8640.000
G1 X65.328 Y105.399 E-0.23525
G1 X65.865 Y105.399 E-0.12396
G1 X64.687 Y104.221 E-0.38462
G1 X64.673 Y104.153 E-0.01617
;WIPE_END
G1 E-0.04000 F2100.000
G1 Z0.600 F10800.000
G1 X77.315 Y106.112
G1 Z0.200
G1 E0.80000 F2100.000
G1 F1200.000
G1 X87.061 Y115.858 E0.43505
G1 X87.060 Y116.394 E0.01693
G1 X77.485 Y106.818 E0.42745
G1 X77.485 Y107.355 E0.01695
G1 X87.060 Y116.930 E0.42743
G1 X87.059 Y117.467 E0.01693
G1 X77.485 Y107.892 E0.42741
G1 X77.485 Y108.429 E0.01695
G1 X87.059 Y118.003 E0.42739
G1 X87.059 Y118.540 E0.01693
G1 X77.485 Y108.966 E0.42737
G1 X77.485 Y109.503 E0.01695
G1 X87.058 Y119.076 E0.42735
G1 X87.058 Y119.612 E0.01693
G1 X77.485 Y110.040 E0.42733
G1 X77.485 Y110.577 E0.01695
G1 X87.057 Y120.149 E0.42731
G1 X87.057 Y120.685 E0.01693
G1 X77.485 Y111.113 E0.42729
G1 X77.485 Y111.650 E0.01695
G1 X87.056 Y121.222 E0.42727
G1 X87.056 Y121.758 E0.01693
G1 X77.485 Y112.187 E0.42725
G1 X77.485 Y112.724 E0.01695
G1 X87.055 Y122.295 E0.42724
G1 X87.055 Y122.831 E0.01693
G1 X77.485 Y113.261 E0.42722
G1 X77.485 Y113.798 E0.01695
G1 X87.055 Y123.367 E0.42720
G1 X87.054 Y123.904 E0.01693
G1 X77.485 Y114.335 E0.42718
G1 X77.485 Y114.871 E0.01695
G1 X87.054 Y124.440 E0.42716
G1 X87.053 Y124.977 E0.01693
G1 X77.485 Y115.408 E0.42714
G1 X77.485 Y115.945 E0.01695
G1 X87.053 Y125.513 E0.42712
G1 X87.053 Y125.717 E0.00643
G1 X86.720 Y125.717 E0.01051
G1 X77.485 Y116.482 E0.41225
G1 X77.485 Y117.019 E0.01695
G1 X86.183 Y125.717 E0.38828
G1 X85.646 Y125.717 E0.01695
G1 X77.485 Y117.556 E0.36431
G1 X77.485 Y118.093 E0.01695
G1 X85.109 Y125.717 E0.34035
G1 X84.572 Y125.717 E0.01695
G1 X77.485 Y118.630 E0.31638
G1 X77.485 Y119.166 E0.01695
G1 X84.035 Y125.717 E0.29242
G1 X83.498 Y125.717 E0.01695
G1 X77.485 Y119.703 E0.26845
G1 X77.485 Y120.240 E0.01695
G1 X82.962 Y125.717 E0.24448
G1 X82.425 Y125.717 E0.01695
G1 X77.485 Y120.777 E0.22052
G1 X77.485 Y121.314 E0.01695
G1 X81.888 Y125.717 E0.19655
M73 Q2 S101
G1 X81.351 Y125.717 E0.01695
G1 X77.485 Y121.851 E0.17259
G1 X77.485 Y122.388 E0.01695
G1 X80.814 Y125.717 E0.14862
G1 X80.277 Y125.717 E0.01695
G1 X77.485 Y122.924 E0.12465
G1 X77.485 Y123.461 E0.01695
G1 X79.740 Y125.717 E0.10069
