; generated by PrusaSlicer 2.3.1+win64 on 2022-05-27 at 21:18:23 UTC

; 

; external perimeters extrusion width = 0.60mm
; perimeters extrusion width = 0.50mm
; infill extrusion width = 0.50mm
; solid infill extrusion width = 0.50mm
; top infill extrusion width = 0.45mm
; first layer extrusion width = 0.42mm

M73 P0 R118
M73 Q0 S120
M201 X1000 Y1000 Z200 E5000 ; sets maximum accelerations, mm/sec^2
M203 X200 Y200 Z12 E120 ; sets maximum feedrates, mm/sec
M204 P1250 R1250 T1250 ; sets acceleration (P, T) and retract acceleration (R), mm/sec^2
M205 X8.00 Y8.00 Z0.40 E4.50 ; sets the jerk limits, mm/sec
M205 S0 T0 ; sets the minimum extruding and travel feed rate, mm/sec
M107
;TYPE:Custom
M862.3 P "MK3S" ; printer model check
M862.1 P0.4 ; nozzle diameter check
M115 U3.11.0 ; tell printer latest fw version
G90 ; use absolute coordinates
M83 ; extruder relative mode
M104 S215 ; set extruder temp
M140 S60 ; set bed temp
M190 S60 ; wait for bed temp
M109 S215 ; wait for extruder temp
G28 W ; home all without mesh bed level
G80 ; mesh bed leveling
G1 Y-3.0 F1000.0 ; go outside print area
G92 E0.0
G1 X60.0 E9.0 F1000.0 ; intro line
M73 Q0 S119
G1 X100.0 E12.5 F1000.0 ; intro line
G92 E0.0
M221 S95

; Don't change E values below. Excessive value can damage the printer.

M907 E538 ; set extruder motor current
G21 ; set units to millimeters
G90 ; use absolute coordinates
M83 ; use relative distances for extrusion
M900 K0.05 ; Filament gcode LA 1.5
M900 K30 ; Filament gcode LA 1.0
;LAYER_CHANGE
;Z:0.2
;HEIGHT:0.2
;BEFORE_LAYER_CHANGE
G92 E0.0
;0.2


G1 E-0.80000 F2100.000
G1 Z0.400 F10800.000
;AFTER_LAYER_CHANGE
;0.2
G1 X194.378 Y116.211
G1 Z0.200
G1 E0.80000 F2100.000
M204 S1000
;TYPE:Skirt
;WIDTH:0.42
G1 F1200.000
G1 X193.725 Y117.173 E0.03647
G1 X193.076 Y117.720 E0.02661
G1 X192.053 Y118.131 E0.03457
G1 X93.136 Y129.352 E3.12137
G1 X70.862 Y129.362 E0.69838
G1 X70.334 Y129.290 E0.01669
G1 X69.415 Y128.997 E0.03027
G1 X68.949 Y128.695 E0.01740
G1 X68.385 Y128.144 E0.02471
G1 X58.294 Y116.501 E0.48309
G1 X57.946 Y115.927 E0.02107
G1 X57.710 Y115.135 E0.02590
G1 X55.148 Y102.591 E0.40145
G1 X55.136 Y93.858 E0.27380
G1 X55.402 Y92.648 E0.03886
G1 X58.060 Y87.302 E0.18718
G1 X58.363 Y86.878 E0.01633
G1 X58.979 Y86.278 E0.02696
G1 X59.391 Y86.013 E0.01538
G1 X69.415 Y81.003 E0.35135
G1 X70.321 Y80.713 E0.02982
G1 X70.912 Y80.638 E0.01870
G1 X191.583 Y80.638 E3.78354
G1 X192.078 Y80.690 E0.01562
G1 X192.882 Y80.914 E0.02616
G1 X193.323 Y81.137 E0.01550
G1 X193.709 Y81.447 E0.01550
G1 X194.218 Y81.976 E0.02303
G1 X194.515 Y82.449 E0.01752
G1 X194.797 Y83.359 E0.02986
G1 X194.864 Y83.890 E0.01680
G1 X194.625 Y115.021 E0.97611
G1 X194.390 Y116.152 E0.03622
; printing object Med_Palm_Pen_Large_Pen_hole.stl id:0 copy 0
;WIPE_START
G1 F8640.000
G1 X193.725 Y117.173 E-0.28145
G1 X193.076 Y117.720 E-0.19595
G1 X192.053 Y118.131 E-0.25457
G1 X191.932 Y118.145 E-0.02803
;WIPE_END
G1 E-0.04000 F2100.000
G1 Z0.600 F10800.000
G1 X111.531 Y123.893
G1 Z0.200
G1 E0.80000 F2100.000
;TYPE:Perimeter
G1 F1200.000
G1 X109.674 Y124.103 E0.05860
G1 X109.424 Y123.693 E0.01505
G1 X109.938 Y123.872 E0.01707
G1 X110.491 Y123.892 E0.01735
G1 X111.471 Y123.893 E0.03072
;WIPE_START
G1 F8640.000
G1 X109.674 Y124.103 E-0.41776
G1 X109.424 Y123.693 E-0.11084
G1 X109.938 Y123.872 E-0.12571
G1 X110.395 Y123.889 E-0.10569
;WIPE_END
G1 E-0.04000 F2100.000
G1 Z0.600 F10800.000
G1 X109.089 Y123.868
G1 Z0.200
G1 E0.80000 F2100.000
;TYPE:External perimeter
G1 F1200.000
G1 X108.199 Y124.053 E0.02849
G1 X107.707 Y124.118 E0.01558
G1 X93.213 Y125.754 E0.45734
G1 X93.223 Y112.228 E0.42411
G1 X93.307 Y111.306 E0.02901
G1 X93.877 Y111.573 E0.01975
G1 X94.004 Y111.967 E0.01298
G1 X96.074 Y115.549 E0.12970
G1 X98.840 Y118.624 E0.12970
G1 X102.189 Y121.056 E0.12975
G1 X105.968 Y122.738 E0.12972
G1 X108.763 Y123.333 E0.08959
G1 X109.058 Y123.817 E0.01776
G1 X109.296 Y124.210 F10800.000
;WIPE_START
G1 F8640.000
G1 X108.199 Y124.053 E-0.20558
G1 X107.707 Y124.118 E-0.11473
G1 X105.815 Y124.332 E-0.43969
;WIPE_END
G1 E-0.04000 F2100.000
G1 Z0.600 F10800.000
G1 X107.509 Y84.561
G1 Z0.200
G1 E0.80000 F2100.000
;TYPE:Perimeter
G1 F1200.000
G1 X107.790 Y84.000 E0.01966
G1 X109.713 Y84.000 E0.06027
G1 X108.121 Y84.347 E0.05108
G1 X107.563 Y84.535 E0.01844
G1 X107.193 Y84.349 F10800.000
;TYPE:External perimeter
G1 F1200.000
G1 X106.920 Y84.895 E0.01913
G1 X105.968 Y85.098 E0.03051
G1 X102.189 Y86.780 E0.12972
G1 X98.840 Y89.212 E0.12975
G1 X96.074 Y92.287 E0.12970
G1 X94.004 Y95.869 E0.12970
G1 X93.877 Y96.263 E0.01298
G1 X93.307 Y96.529 E0.01973
G1 X93.224 Y95.623 E0.02853
G1 X93.213 Y95.127 E0.01557
G1 X93.213 Y84.213 E0.34221
G1 X105.797 Y84.214 E0.39456
G1 X106.293 Y84.224 E0.01557
G1 X107.200 Y84.307 E0.02857
G1 X107.570 Y84.484 F10800.000
;WIPE_START
G1 F8640.000
G1 X106.920 Y84.895 E-0.15044
G1 X105.968 Y85.098 E-0.22465
G1 X104.445 Y85.776 E-0.38491
;WIPE_END
G1 E-0.04000 F2100.000
G1 Z0.600 F10800.000
G1 X92.981 Y97.098
G1 Z0.200
G1 E0.80000 F2100.000
;TYPE:Perimeter
G1 F1200.000
G1 X93.451 Y96.879 E0.01626
G1 X93.357 Y97.055 E0.00626
G1 X93.166 Y97.517 E0.01568
G1 X92.836 Y98.511 E0.03285
G1 X92.836 Y109.325 E0.33904
G1 X93.166 Y110.318 E0.03283
G1 X93.357 Y110.780 E0.01568
G1 X93.451 Y110.958 E0.00630
G1 X92.980 Y110.737 E0.01633
G1 X92.846 Y112.210 E0.04639
G1 X92.835 Y126.000 E0.43235
G1 X71.019 Y126.000 E0.68403
G1 X70.971 Y125.987 E0.00157
G1 X70.867 Y125.881 E0.00463
G1 X71.702 Y125.570 E0.02793
G1 X71.702 Y105.682 E0.62357
G1 X59.198 Y105.682 E0.39205
G1 X58.498 Y102.267 E0.10929
G1 X58.498 Y94.023 E0.25850
G1 X58.546 Y93.846 E0.00574
G1 X59.365 Y92.206 E0.05747
G1 X71.702 Y92.206 E0.38682
G1 X71.702 Y84.000 E0.25728
G1 X92.836 Y84.000 E0.66263
G1 X92.836 Y95.131 E0.34899
G1 X92.847 Y95.645 E0.01611
G1 X92.976 Y97.039 E0.04389
;WIPE_START
G1 F8640.000
G1 X93.451 Y96.879 E-0.11576
G1 X93.357 Y97.055 E-0.04611
G1 X93.166 Y97.517 E-0.11550
G1 X92.836 Y98.511 E-0.24192
G1 X92.836 Y99.554 E-0.24071
;WIPE_END
G1 E-0.04000 F2100.000
G1 Z0.600 F10800.000
G1 X71.325 Y91.829
G1 Z0.200
G1 E0.80000 F2100.000
;TYPE:External perimeter
G1 F1200.000
G1 X59.790 Y91.829 E0.36168
G1 X61.134 Y89.138 E0.09431
G1 X71.325 Y84.042 E0.35726
G1 X71.325 Y91.769 E0.24229
G1 X71.494 Y92.191 F10800.000
;WIPE_START
G1 F8640.000
G1 X68.034 Y91.786 E-0.76000
;WIPE_END
G1 E-0.04000 F2100.000
G1 Z0.600 F10800.000
G1 X71.325 Y106.059
G1 Z0.200
G1 E0.80000 F2100.000
G1 F1200.000
G1 X71.325 Y125.308 E0.60354
G1 X70.792 Y125.507 E0.01785
G1 X61.175 Y114.412 E0.46035
G1 X59.462 Y106.059 E0.26736
G1 X71.265 Y106.059 E0.37007
G1 X71.715 Y105.968 F10800.000
;WIPE_START
G1 F8640.000
G1 X71.275 Y109.350 E-0.76000
;WIPE_END
G1 E-0.04000 F2100.000
G1 Z0.600 F10800.000
G1 X70.776 Y126.325
G1 Z0.200
G1 E0.80000 F2100.000
G1 F1200.000
G1 X70.604 Y126.153 E0.00759
G1 X60.676 Y114.698 E0.47529
G1 X60.610 Y114.449 E0.00808
G1 X58.121 Y102.305 E0.38867
G1 X58.121 Y93.973 E0.26126
G1 X58.191 Y93.711 E0.00849
G1 X60.641 Y88.808 E0.17186
G1 X60.806 Y88.643 E0.00731
G1 X70.710 Y83.693 E0.34714
G1 X70.969 Y83.623 E0.00843
G1 X191.529 Y83.623 E3.78007
G1 X191.725 Y83.676 E0.00635
G1 X191.826 Y83.777 E0.00451
G1 X191.864 Y83.919 E0.00459
G1 X191.826 Y84.059 E0.00456
G1 X191.724 Y84.162 E0.00455
G1 X191.534 Y84.213 E0.00616
G1 X111.673 Y84.213 E2.50399
M73 P0 R117
G1 X111.673 Y84.319 E0.00332
G1 X110.023 Y84.319 E0.05173
M73 Q0 S118
G1 X108.218 Y84.712 E0.05791
G1 X107.766 Y84.856 E0.01489
G1 X107.351 Y85.054 E0.01442
G1 X106.944 Y85.179 E0.01334
G1 X106.055 Y85.368 E0.02852
G1 X102.329 Y87.025 E0.12784
G1 X99.032 Y89.423 E0.12783
G1 X96.301 Y92.452 E0.12787
G1 X94.263 Y95.984 E0.12786
G1 X94.123 Y96.415 E0.01423
G1 X93.699 Y97.216 E0.02839
G1 X93.520 Y97.649 E0.01470
G1 X93.213 Y98.573 E0.03052
G1 X93.213 Y109.264 E0.33521
G1 X93.520 Y110.186 E0.03049
G1 X93.699 Y110.619 E0.01469
G1 X94.123 Y111.419 E0.02837
G1 X94.263 Y111.850 E0.01422
G1 X96.301 Y115.384 E0.12791
G1 X99.032 Y118.413 E0.12787
G1 X102.329 Y120.811 E0.12783
G1 X106.054 Y122.470 E0.12786
G1 X109.118 Y123.132 E0.09829
G1 X109.522 Y123.328 E0.01408
G1 X110.009 Y123.497 E0.01614
G1 X110.498 Y123.515 E0.01536
G1 X113.136 Y123.517 E0.08273
G1 X191.271 Y114.643 E2.46561
G1 X191.468 Y114.673 E0.00626
G1 X191.584 Y114.765 E0.00464
G1 X191.637 Y114.898 E0.00449
G1 X191.615 Y115.043 E0.00460
G1 X191.524 Y115.157 E0.00456
G1 X191.336 Y115.231 E0.00632
G1 X112.807 Y124.148 E2.47805
G1 X112.793 Y124.007 E0.00445
G1 X112.006 Y124.219 E0.02553
G1 X92.894 Y126.377 E0.60306
M73 P1 R117
M73 Q1 S118
G1 X70.969 Y126.377 E0.68743
G1 X70.834 Y126.340 E0.00441
G1 X70.776 Y126.082 F10800.000
G1 X70.641 Y125.764
;TYPE:Gap fill
;WIDTH:0.230627
G1 F1200.000
G1 X60.932 Y114.563 E0.23136
G1 X59.138 Y105.870 E0.13853
;WIPE_START
G1 F8640.000
G1 X59.803 Y109.094 E-0.76000
;WIPE_END
G1 E-0.04000 F2100.000
G1 Z0.600 F10800.000
G1 X59.367 Y92.018
G1 Z0.200
G1 E0.80000 F2100.000
;WIDTH:0.242697
G1 F1200.000
G1 X60.883 Y88.982 E0.05636
G1 X60.949 Y88.908 E0.00165
;WIDTH:0.252645
G1 X70.814 Y83.969 E0.19240
G1 X71.227 Y83.812 E0.00770
;WIPE_START
G1 F8640.000
G1 X70.814 Y83.969 E-0.10202
G1 X68.266 Y85.245 E-0.65798
;WIPE_END
G1 E-0.04000 F2100.000
G1 Z0.600 F10800.000
G1 X191.663 Y83.941
G1 Z0.200
G1 E0.80000 F2100.000
;WIDTH:0.255426
G1 F1200.000
G1 X191.490 Y83.918 E0.00308
G1 X111.484 Y83.918 E1.41369
;WIDTH:0.290675
G1 X111.434 Y83.936 E0.00109
;WIDTH:0.325926
G1 X111.385 Y83.953 E0.00125
;WIDTH:0.361178
G1 X111.335 Y83.971 E0.00140
G1 X109.899 Y83.971 E0.03799
;WIPE_START
G1 F8640.000
G1 X111.335 Y83.971 E-0.33147
G1 X111.385 Y83.953 E-0.01223
;WIPE_END
G1 E-0.45630 F2100.000
G1 Z0.600 F10800.000
G1 X107.589 Y83.982
G1 Z0.200
G1 E0.80000 F2100.000
;WIDTH:0.367365
G1 F1200.000
G1 X107.164 Y83.963 E0.01148
;WIDTH:0.33395
G1 X106.739 Y83.943 E0.01029
;WIDTH:0.300534
G1 X106.314 Y83.924 E0.00911
;WIDTH:0.26712
G1 X105.801 Y83.918 E0.00956
;WIDTH:0.25617
G1 X93.024 Y83.918 E0.22655
;WIPE_START
G1 F8640.000
G1 X96.316 Y83.918 E-0.76000
;WIPE_END
G1 E-0.04000 F2100.000
G1 Z0.600 F10800.000
G1 X92.723 Y84.877
G1 Z0.200
G1 E0.80000 F2100.000
;TYPE:Solid infill
;WIDTH:0.420885
G1 F1200.000
G1 X92.128 Y84.283 E0.02642
G1 X91.594 Y84.283 E0.01680
G1 X92.553 Y85.243 E0.04264
G1 X92.554 Y85.778 E0.01682
G1 X91.059 Y84.283 E0.06642
G1 X90.525 Y84.283 E0.01680
G1 X92.554 Y86.313 E0.09021
G1 X92.555 Y86.848 E0.01682
G1 X89.990 Y84.283 E0.11399
G1 X89.456 Y84.283 E0.01680
G1 X92.555 Y87.383 E0.13777
G1 X92.556 Y87.918 E0.01682
G1 X88.921 Y84.283 E0.16155
G1 X88.386 Y84.283 E0.01680
G1 X92.556 Y88.453 E0.18534
G1 X92.557 Y88.988 E0.01682
G1 X87.852 Y84.283 E0.20912
G1 X87.317 Y84.283 E0.01680
G1 X92.558 Y89.523 E0.23290
G1 X92.558 Y90.058 E0.01682
G1 X86.783 Y84.283 E0.25668
G1 X86.248 Y84.283 E0.01680
G1 X92.559 Y90.593 E0.28047
G1 X92.559 Y91.128 E0.01682
G1 X85.714 Y84.283 E0.30425
G1 X85.179 Y84.283 E0.01680
G1 X92.560 Y91.664 E0.32803
G1 X92.560 Y92.199 E0.01682
G1 X84.645 Y84.283 E0.35181
G1 X84.110 Y84.283 E0.01680
G1 X92.561 Y92.734 E0.37560
G1 X92.562 Y93.269 E0.01682
G1 X83.576 Y84.283 E0.39938
G1 X83.041 Y84.283 E0.01680
G1 X92.562 Y93.804 E0.42316
G1 X92.563 Y94.339 E0.01682
G1 X82.507 Y84.283 E0.44694
G1 X81.972 Y84.283 E0.01680
G1 X92.563 Y94.874 E0.47073
G1 X92.564 Y95.409 E0.01682
G1 X81.438 Y84.283 E0.49451
G1 X80.903 Y84.283 E0.01680
G1 X92.593 Y95.973 E0.51957
G1 X92.648 Y96.562 E0.01859
G1 X80.369 Y84.283 E0.54575
G1 X79.834 Y84.283 E0.01680
G1 X92.702 Y97.151 E0.57193
G1 X92.737 Y97.525 E0.01180
G1 X92.889 Y97.454 E0.00530
G1 X92.785 Y97.768 E0.01042
G1 X79.300 Y84.283 E0.59935
G1 X78.765 Y84.283 E0.01680
G1 X92.651 Y98.169 E0.61718
G1 X92.553 Y98.466 E0.00981
G1 X92.553 Y98.605 E0.00439
G1 X78.231 Y84.283 E0.63656
G1 X77.696 Y84.283 E0.01680
G1 X92.553 Y99.140 E0.66032
G1 X92.553 Y99.674 E0.01680
G1 X77.162 Y84.283 E0.68408
G1 X76.627 Y84.283 E0.01680
G1 X92.553 Y100.209 E0.70783
G1 X92.553 Y100.743 E0.01680
G1 X76.092 Y84.283 E0.73159
G1 X75.558 Y84.283 E0.01680
G1 X92.553 Y101.278 E0.75535
G1 X92.553 Y101.812 E0.01680
G1 X75.023 Y84.283 E0.77911
G1 X74.489 Y84.283 E0.01680
G1 X92.553 Y102.347 E0.80286
G1 X92.553 Y102.882 E0.01680
G1 X73.954 Y84.283 E0.82662
G1 X73.420 Y84.283 E0.01680
G1 X92.553 Y103.416 E0.85038
G1 X92.553 Y103.951 E0.01680
G1 X72.885 Y84.283 E0.87414
G1 X72.351 Y84.283 E0.01680
G1 X92.553 Y104.485 E0.89789
G1 X92.553 Y105.020 E0.01680
G1 X71.985 Y84.452 E0.91416
G1 X71.985 Y84.986 E0.01680
G1 X92.553 Y105.554 E0.91416
G1 X92.553 Y106.089 E0.01680
G1 X71.985 Y85.521 E0.91416
G1 X71.985 Y86.055 E0.01680
G1 X92.553 Y106.623 E0.91416
M73 P1 R116
G1 X92.553 Y107.158 E0.01680
G1 X71.985 Y86.590 E0.91416
G1 X71.985 Y87.124 E0.01680
G1 X92.553 Y107.692 E0.91416
M73 Q1 S117
G1 X92.553 Y108.227 E0.01680
G1 X71.985 Y87.659 E0.91416
G1 X71.985 Y88.193 E0.01680
G1 X92.553 Y108.761 E0.91416
G1 X92.553 Y109.296 E0.01680
G1 X71.985 Y88.728 E0.91416
G1 X71.985 Y89.262 E0.01680
G1 X92.782 Y110.060 E0.92435
G1 X92.890 Y110.382 E0.01069
G1 X92.734 Y110.310 E0.00538
G1 X92.715 Y110.527 E0.00685
G1 X71.985 Y89.797 E0.92136
G1 X71.985 Y90.331 E0.01680
G1 X92.670 Y111.017 E0.91938
G1 X92.626 Y111.507 E0.01547
G1 X71.985 Y90.866 E0.91741
G1 X71.985 Y91.401 E0.01680
G1 X92.582 Y111.997 E0.91544
G1 X92.563 Y112.513 E0.01623
G1 X71.985 Y91.935 E0.91462
G1 X71.985 Y92.470 E0.01680
G1 X92.563 Y113.048 E0.91460
G1 X92.562 Y113.582 E0.01679
G1 X71.470 Y92.489 E0.93748
G1 X70.935 Y92.489 E0.01680
G1 X92.562 Y114.116 E0.96122
G1 X92.562 Y114.650 E0.01679
G1 X70.401 Y92.489 E0.98496
G1 X69.866 Y92.489 E0.01680
G1 X92.561 Y115.184 E1.00870
G1 X92.561 Y115.718 E0.01679
G1 X69.332 Y92.489 E1.03244
M73 P2 R116
M73 Q2 S117
G1 X68.797 Y92.489 E0.01680
G1 X92.560 Y116.252 E1.05618
G1 X92.560 Y116.786 E0.01679
G1 X68.263 Y92.489 E1.07991
G1 X67.728 Y92.489 E0.01680
G1 X92.559 Y117.320 E1.10365
G1 X92.559 Y117.854 E0.01679
G1 X67.193 Y92.489 E1.12739
G1 X66.659 Y92.489 E0.01680
G1 X92.559 Y118.388 E1.15113
G1 X92.558 Y118.923 E0.01679
G1 X66.124 Y92.489 E1.17487
G1 X65.590 Y92.489 E0.01680
G1 X92.558 Y119.457 E1.19861
G1 X92.557 Y119.991 E0.01679
G1 X65.055 Y92.489 E1.22234
G1 X64.521 Y92.489 E0.01680
G1 X92.557 Y120.525 E1.24608
G1 X92.556 Y121.059 E0.01679
G1 X63.986 Y92.489 E1.26982
G1 X63.452 Y92.489 E0.01680
G1 X92.556 Y121.593 E1.29356
G1 X92.556 Y122.127 E0.01679
G1 X62.917 Y92.489 E1.31730
G1 X62.383 Y92.489 E0.01680
G1 X92.555 Y122.661 E1.34104
G1 X92.555 Y123.195 E0.01679
G1 X61.848 Y92.489 E1.36477
G1 X61.314 Y92.489 E0.01680
G1 X92.554 Y123.729 E1.38851
G1 X92.554 Y124.264 E0.01679
G1 X60.779 Y92.489 E1.41225
G1 X60.245 Y92.489 E0.01680
G1 X92.553 Y124.798 E1.43599
M73 P2 R115
G1 X92.553 Y125.332 E0.01679
G1 X59.710 Y92.489 E1.45973
M73 Q2 S116
G1 X59.540 Y92.489 E0.00536
G1 X59.418 Y92.732 E0.00853
G1 X92.404 Y125.717 E1.46605
G1 X91.869 Y125.717 E0.01680
G1 X71.985 Y105.833 E0.88377
G1 X71.985 Y105.399 E0.01363
G1 X71.551 Y105.399 E0.01363
G1 X59.240 Y93.088 E0.54717
G1 X59.062 Y93.445 E0.01252
G1 X71.017 Y105.399 E0.53133
G1 X70.482 Y105.399 E0.01680
G1 X58.884 Y93.801 E0.51549
G1 X58.811 Y93.946 E0.00511
G1 X58.781 Y94.060 E0.00369
G1 X58.781 Y94.233 E0.00543
G1 X69.948 Y105.399 E0.49631
G1 X69.413 Y105.399 E0.01680
G1 X58.781 Y94.767 E0.47255
G1 X58.781 Y95.302 E0.01680
G1 X68.879 Y105.399 E0.44879
G1 X68.344 Y105.399 E0.01680
G1 X58.781 Y95.836 E0.42504
G1 X58.781 Y96.371 E0.01680
G1 X67.810 Y105.399 E0.40128
G1 X67.275 Y105.399 E0.01680
G1 X58.781 Y96.905 E0.37752
G1 X58.781 Y97.440 E0.01680
G1 X66.741 Y105.399 E0.35376
G1 X66.206 Y105.399 E0.01680
G1 X58.781 Y97.974 E0.33001
G1 X58.781 Y98.509 E0.01680
G1 X65.672 Y105.399 E0.30625
G1 X65.137 Y105.399 E0.01680
G1 X58.781 Y99.043 E0.28249
G1 X58.781 Y99.578 E0.01680
G1 X64.602 Y105.399 E0.25873
G1 X64.068 Y105.399 E0.01680
G1 X58.781 Y100.112 E0.23498
G1 X58.781 Y100.647 E0.01680
G1 X63.533 Y105.399 E0.21122
G1 X62.999 Y105.399 E0.01680
G1 X58.781 Y101.181 E0.18746
G1 X58.781 Y101.716 E0.01680
G1 X62.464 Y105.399 E0.16371
G1 X61.930 Y105.399 E0.01680
G1 X58.784 Y102.253 E0.13981
G1 X58.922 Y102.926 E0.02157
