; generated by PrusaSlicer 2.3.1+win64 on 2022-05-27 at 21:18:11 UTC

; 

; external perimeters extrusion width = 0.60mm
; perimeters extrusion width = 0.50mm
; infill extrusion width = 0.50mm
; solid infill extrusion width = 0.50mm
; top infill extrusion width = 0.45mm
; first layer extrusion width = 0.42mm

M73 P0 R110
M73 Q0 S111
M201 X1000 Y1000 Z200 E5000 ; sets maximum accelerations, mm/sec^2
M203 X200 Y200 Z12 E120 ; sets maximum feedrates, mm/sec
M204 P1250 R1250 T1250 ; sets acceleration (P, T) and retract acceleration (R), mm/sec^2
M205 X8.00 Y8.00 Z0.40 E4.50 ; sets the jerk limits, mm/sec
M205 S0 T0 ; sets the minimum extruding and travel feed rate, mm/sec
M107
;TYPE:Custom
M862.3 P "MK3S" ; printer model check
M862.1 P0.4 ; nozzle diameter check
M115 U3.11.0 ; tell printer latest fw version
G90 ; use absolute coordinates
M83 ; extruder relative mode
M104 S215 ; set extruder temp
M140 S60 ; set bed temp
M190 S60 ; wait for bed temp
M109 S215 ; wait for extruder temp
G28 W ; home all without mesh bed level
G80 ; mesh bed leveling
G1 Y-3.0 F1000.0 ; go outside print area
G92 E0.0
G1 X60.0 E9.0 F1000.0 ; intro line
G1 X100.0 E12.5 F1000.0 ; intro line
G92 E0.0
M221 S95

; Don't change E values below. Excessive value can damage the printer.

M907 E538 ; set extruder motor current
G21 ; set units to millimeters
G90 ; use absolute coordinates
M83 ; use relative distances for extrusion
M900 K0.05 ; Filament gcode LA 1.5
M900 K30 ; Filament gcode LA 1.0
;LAYER_CHANGE
;Z:0.2
;HEIGHT:0.2
;BEFORE_LAYER_CHANGE
G92 E0.0
;0.2


G1 E-0.80000 F2100.000
G1 Z0.400 F10800.000
;AFTER_LAYER_CHANGE
;0.2
G1 X191.630 Y116.204
G1 Z0.200
G1 E0.80000 F2100.000
M204 S1000
;TYPE:Skirt
;WIDTH:0.42
G1 F1200.000
G1 X190.984 Y117.163 E0.03626
G1 X190.341 Y117.711 E0.02649
G1 X189.336 Y118.123 E0.03406
G1 X90.397 Y129.351 E3.12207
G1 X73.621 Y129.362 E0.52599
G1 X73.094 Y129.292 E0.01669
G1 X72.178 Y129.003 E0.03012
G1 X71.707 Y128.702 E0.01752
G1 X71.159 Y128.168 E0.02400
G1 X61.064 Y116.525 E0.48317
G1 X60.778 Y116.099 E0.01609
G1 X60.589 Y115.622 E0.01609
G1 X57.897 Y102.601 E0.41690
G1 X57.884 Y93.862 E0.27400
G1 X58.135 Y92.690 E0.03758
G1 X60.808 Y87.305 E0.18849
G1 X61.108 Y86.884 E0.01621
G1 X61.707 Y86.298 E0.02628
G1 X62.146 Y86.012 E0.01645
G1 X72.587 Y80.841 E0.36532
G1 X73.662 Y80.636 E0.03430
G1 X188.837 Y80.636 E3.61123
G1 X189.332 Y80.689 E0.01562
G1 X190.134 Y80.913 E0.02610
G1 X190.575 Y81.137 E0.01550
G1 X190.960 Y81.446 E0.01550
G1 X191.471 Y81.979 E0.02315
G1 X191.765 Y82.450 E0.01740
G1 X192.047 Y83.355 E0.02971
G1 X192.114 Y83.886 E0.01680
G1 X191.875 Y115.022 E0.97625
G1 X191.643 Y116.145 E0.03598
; printing object Med_Palm_Pen_Med_Pen_hole.stl id:0 copy 0
;WIPE_START
G1 F8640.000
G1 X190.984 Y117.163 E-0.27986
G1 X190.341 Y117.711 E-0.19509
G1 X189.336 Y118.123 E-0.25081
G1 X189.188 Y118.139 E-0.03424
;WIPE_END
G1 E-0.04000 F2100.000
G1 Z0.600 F10800.000
G1 X108.799 Y123.891
G1 Z0.200
G1 E0.80000 F2100.000
;TYPE:Perimeter
G1 F1200.000
G1 X106.924 Y124.103 E0.05917
G1 X106.673 Y123.691 E0.01512
G1 X107.186 Y123.870 E0.01704
G1 X107.739 Y123.890 E0.01736
G1 X108.739 Y123.891 E0.03134
;WIPE_START
G1 F8640.000
G1 X106.924 Y124.103 E-0.42198
G1 X106.673 Y123.691 E-0.11131
G1 X107.186 Y123.870 E-0.12549
G1 X107.624 Y123.886 E-0.10122
;WIPE_END
G1 E-0.04000 F2100.000
G1 Z0.600 F10800.000
G1 X106.339 Y123.868
G1 Z0.200
G1 E0.80000 F2100.000
;TYPE:External perimeter
G1 F1200.000
G1 X105.449 Y124.053 E0.02849
G1 X104.957 Y124.118 E0.01558
G1 X90.461 Y125.754 E0.45740
G1 X90.472 Y112.225 E0.42419
G1 X90.555 Y111.304 E0.02900
G1 X91.125 Y111.570 E0.01973
G1 X91.254 Y111.967 E0.01308
G1 X93.324 Y115.549 E0.12971
G1 X96.092 Y118.624 E0.12974
G1 X99.439 Y121.054 E0.12967
G1 X103.218 Y122.738 E0.12974
G1 X106.013 Y123.333 E0.08959
G1 X106.308 Y123.817 E0.01776
G1 X106.546 Y124.210 F10800.000
;WIPE_START
G1 F8640.000
G1 X105.449 Y124.053 E-0.20559
G1 X104.957 Y124.118 E-0.11474
G1 X103.065 Y124.332 E-0.43966
;WIPE_END
G1 E-0.04000 F2100.000
G1 Z0.600 F10800.000
G1 X62.214 Y106.057
G1 Z0.200
G1 E0.80000 F2100.000
G1 F1200.000
G1 X74.077 Y106.057 E0.37195
G1 X74.077 Y125.308 E0.60360
G1 X73.544 Y125.507 E0.01785
G1 X63.925 Y114.412 E0.46039
G1 X62.226 Y106.116 E0.26553
M73 Q0 S110
G1 X62.144 Y105.663 F10800.000
;WIPE_START
G1 F8640.000
G1 X65.518 Y106.099 E-0.76000
;WIPE_END
G1 E-0.04000 F2100.000
G1 Z0.600 F10800.000
G1 X62.539 Y91.827
G1 Z0.200
G1 E0.80000 F2100.000
G1 F1200.000
G1 X63.886 Y89.138 E0.09430
G1 X74.077 Y84.042 E0.35725
G1 X74.077 Y91.827 E0.24410
G1 X62.599 Y91.827 E0.35989
G1 X62.141 Y91.782 F10800.000
;WIPE_START
G1 F8640.000
G1 X63.886 Y89.138 E-0.68840
G1 X64.163 Y88.999 E-0.07160
;WIPE_END
G1 E-0.04000 F2100.000
G1 Z0.600 F10800.000
G1 X90.229 Y97.100
G1 Z0.200
G1 E0.80000 F2100.000
;TYPE:Perimeter
G1 F1200.000
G1 X90.701 Y96.880 E0.01632
G1 X90.608 Y97.055 E0.00623
G1 X90.416 Y97.518 E0.01570
G1 X90.084 Y98.513 E0.03290
G1 X90.084 Y109.323 E0.33895
G1 X90.416 Y110.318 E0.03288
G1 X90.608 Y110.780 E0.01569
G1 X90.701 Y110.956 E0.00626
G1 X90.228 Y110.735 E0.01639
G1 X90.095 Y112.208 E0.04637
G1 X90.083 Y126.000 E0.43243
G1 X73.771 Y126.000 E0.51147
G1 X73.722 Y125.987 E0.00158
G1 X73.619 Y125.881 E0.00461
G1 X74.454 Y125.570 E0.02793
G1 X74.454 Y105.680 E0.62363
G1 X61.946 Y105.680 E0.39218
M73 P0 R109
G1 X61.246 Y102.269 E0.10917
G1 X61.246 Y94.023 E0.25856
G1 X61.294 Y93.846 E0.00574
G1 X62.115 Y92.204 E0.05755
G1 X74.454 Y92.204 E0.38690
G1 X74.454 Y83.998 E0.25728
G1 X90.084 Y83.998 E0.49005
G1 X90.084 Y95.133 E0.34913
G1 X90.095 Y95.647 E0.01612
G1 X90.224 Y97.040 E0.04387
G1 X90.556 Y96.532 F10800.000
;TYPE:External perimeter
G1 F1200.000
G1 X90.472 Y95.626 E0.02852
G1 X90.462 Y95.129 E0.01557
G1 X90.461 Y84.213 E0.34228
G1 X103.046 Y84.214 E0.39462
G1 X103.543 Y84.224 E0.01557
G1 X104.464 Y84.308 E0.02900
G1 X104.170 Y84.895 E0.02058
G1 X103.218 Y85.098 E0.03051
G1 X99.439 Y86.780 E0.12972
G1 X96.092 Y89.212 E0.12970
G1 X93.324 Y92.285 E0.12969
G1 X91.254 Y95.869 E0.12976
G1 X91.125 Y96.266 E0.01308
G1 X90.610 Y96.506 E0.01783
G1 X90.175 Y96.655 F10800.000
;WIPE_START
G1 F8640.000
G1 X90.472 Y95.626 E-0.20577
G1 X90.462 Y95.129 E-0.11468
G1 X90.461 Y93.226 E-0.43955
;WIPE_END
G1 E-0.04000 F2100.000
G1 Z0.600 F10800.000
G1 X104.759 Y84.560
G1 Z0.200
G1 E0.80000 F2100.000
;TYPE:Perimeter
G1 F1200.000
G1 X105.041 Y83.998 E0.01972
G1 X106.970 Y83.998 E0.06046
G1 X105.369 Y84.347 E0.05135
G1 X104.814 Y84.535 E0.01839
;WIPE_START
G1 F8640.000
G1 X105.041 Y83.998 E-0.13455
G1 X106.970 Y83.998 E-0.44521
G1 X106.207 Y84.165 E-0.18024
;WIPE_END
G1 E-0.04000 F2100.000
G1 Z0.600 F10800.000
G1 X188.974 Y84.161
G1 Z0.200
G1 E0.80000 F2100.000
;TYPE:External perimeter
G1 F1200.000
G1 X188.783 Y84.213 E0.00621
G1 X108.923 Y84.213 E2.50395
G1 X108.923 Y84.319 E0.00332
G1 X107.271 Y84.319 E0.05180
G1 X105.467 Y84.712 E0.05789
G1 X105.015 Y84.856 E0.01488
G1 X104.600 Y85.054 E0.01441
G1 X104.194 Y85.179 E0.01333
G1 X103.305 Y85.368 E0.02850
G1 X99.579 Y87.025 E0.12784
G1 X96.280 Y89.423 E0.12788
G1 X93.551 Y92.452 E0.12783
G1 X91.515 Y95.984 E0.12782
G1 X91.374 Y96.416 E0.01424
G1 X90.949 Y97.216 E0.02842
G1 X90.769 Y97.650 E0.01472
G1 X90.461 Y98.574 E0.03055
G1 X90.461 Y109.262 E0.33511
G1 X90.769 Y110.186 E0.03053
G1 X90.949 Y110.619 E0.01471
G1 X91.374 Y111.419 E0.02840
G1 X91.515 Y111.850 E0.01423
G1 X93.551 Y115.384 E0.12787
G1 X96.280 Y118.413 E0.12783
G1 X99.579 Y120.811 E0.12788
G1 X103.304 Y122.470 E0.12786
G1 X106.367 Y123.130 E0.09823
G1 X106.771 Y123.326 E0.01407
G1 X107.257 Y123.495 E0.01613
G1 X107.747 Y123.513 E0.01537
G1 X110.388 Y123.515 E0.08283
G1 X188.521 Y114.643 E2.46554
G1 X188.718 Y114.673 E0.00624
G1 X188.833 Y114.765 E0.00462
G1 X188.886 Y114.899 E0.00454
G1 X188.865 Y115.042 E0.00452
G1 X188.774 Y115.157 E0.00460
G1 X188.584 Y115.232 E0.00638
G1 X110.057 Y124.148 E2.47798
G1 X110.043 Y124.009 E0.00440
G1 X109.257 Y124.219 E0.02550
G1 X90.144 Y126.377 E0.60308
G1 X73.721 Y126.377 E0.51493
G1 X73.526 Y126.324 E0.00633
G1 X73.357 Y126.154 E0.00753
G1 X63.426 Y114.698 E0.47536
G1 X63.360 Y114.449 E0.00808
G1 X60.869 Y102.307 E0.38862
G1 X60.869 Y93.973 E0.26132
G1 X60.939 Y93.711 E0.00849
G1 X63.391 Y88.809 E0.17186
G1 X63.556 Y88.645 E0.00728
G1 X73.459 Y83.691 E0.34721
M73 Q1 S110
G1 X73.721 Y83.621 E0.00849
G1 X188.773 Y83.621 E3.60736
M73 P1 R109
G1 X188.975 Y83.674 E0.00655
G1 X189.076 Y83.777 E0.00453
G1 X189.114 Y83.917 E0.00456
G1 X189.076 Y84.059 E0.00459
G1 X189.017 Y84.118 E0.00265
G1 X188.802 Y84.062 F10800.000
G1 X188.913 Y83.940
;TYPE:Gap fill
;WIDTH:0.257368
G1 F1200.000
G1 X188.734 Y83.917 E0.00321
G1 X108.734 Y83.917 E1.42651
;WIDTH:0.29262
G1 X108.684 Y83.935 E0.00110
;WIDTH:0.327871
G1 X108.634 Y83.952 E0.00126
;WIDTH:0.363122
G1 X108.584 Y83.970 E0.00142
G1 X107.156 Y83.970 E0.03801
;WIPE_START
G1 F8640.000
G1 X108.584 Y83.970 E-0.32966
G1 X108.634 Y83.952 E-0.01228
;WIPE_END
G1 E-0.45805 F2100.000
G1 Z0.600 F10800.000
G1 X104.839 Y83.981
G1 Z0.200
G1 E0.80000 F2100.000
;WIDTH:0.369256
G1 F1200.000
G1 X104.414 Y83.962 E0.01155
;WIDTH:0.335862
G1 X103.989 Y83.942 E0.01037
;WIDTH:0.302468
G1 X103.564 Y83.923 E0.00918
;WIDTH:0.269074
G1 X103.051 Y83.917 E0.00965
;WIDTH:0.258123
G1 X90.272 Y83.917 E0.22866
;WIPE_START
G1 F8640.000
G1 X93.564 Y83.917 E-0.76000
;WIPE_END
G1 E-0.04000 F2100.000
G1 Z0.600 F10800.000
G1 X89.201 Y84.111
G1 Z0.200
G1 E0.80000 F2100.000
;TYPE:Solid infill
;WIDTH:0.423404
G1 F1200.000
G1 X89.801 Y84.711 E0.02684
G1 X89.801 Y85.250 E0.01703
G1 X88.833 Y84.281 E0.04333
G1 X88.295 Y84.281 E0.01702
G1 X89.802 Y85.788 E0.06743
G1 X89.802 Y86.327 E0.01704
G1 X87.756 Y84.281 E0.09153
G1 X87.218 Y84.281 E0.01702
G1 X89.803 Y86.866 E0.11564
G1 X89.803 Y87.404 E0.01704
G1 X86.680 Y84.281 E0.13974
G1 X86.142 Y84.281 E0.01702
G1 X89.804 Y87.943 E0.16384
G1 X89.805 Y88.482 E0.01704
G1 X85.604 Y84.281 E0.18794
G1 X85.066 Y84.281 E0.01702
G1 X89.805 Y89.020 E0.21204
G1 X89.806 Y89.559 E0.01704
G1 X84.528 Y84.281 E0.23614
G1 X83.990 Y84.281 E0.01702
G1 X89.806 Y90.098 E0.26024
G1 X89.807 Y90.636 E0.01704
G1 X83.452 Y84.281 E0.28434
G1 X82.914 Y84.281 E0.01702
G1 X89.808 Y91.175 E0.30844
G1 X89.808 Y91.714 E0.01704
G1 X82.376 Y84.281 E0.33255
G1 X81.837 Y84.281 E0.01702
G1 X89.809 Y92.252 E0.35665
G1 X89.809 Y92.791 E0.01704
G1 X81.299 Y84.281 E0.38075
G1 X80.761 Y84.281 E0.01702
G1 X89.810 Y93.330 E0.40485
G1 X89.810 Y93.868 E0.01704
G1 X80.223 Y84.281 E0.42895
G1 X79.685 Y84.281 E0.01702
G1 X89.811 Y94.407 E0.45305
G1 X89.812 Y94.946 E0.01704
G1 X79.147 Y84.281 E0.47715
G1 X78.609 Y84.281 E0.01702
G1 X89.812 Y95.484 E0.50125
G1 X89.849 Y96.060 E0.01824
G1 X78.071 Y84.281 E0.52699
G1 X77.533 Y84.281 E0.01702
G1 X89.904 Y96.652 E0.55352
G1 X89.959 Y97.245 E0.01884
G1 X76.995 Y84.281 E0.58004
G1 X76.457 Y84.281 E0.01702
G1 X90.012 Y97.836 E0.60647
G1 X89.877 Y98.239 E0.01346
G1 X75.919 Y84.281 E0.62452
M73 Q1 S109
G1 X75.380 Y84.281 E0.01702
G1 X89.801 Y98.702 E0.64520
G1 X89.801 Y99.240 E0.01702
G1 X74.842 Y84.281 E0.66928
G1 X74.737 Y84.281 E0.00334
G1 X74.737 Y84.714 E0.01369
G1 X89.801 Y99.778 E0.67400
G1 X89.801 Y100.316 E0.01702
G1 X74.737 Y85.252 E0.67400
G1 X74.737 Y85.790 E0.01702
G1 X89.801 Y100.854 E0.67400
G1 X89.801 Y101.392 E0.01702
G1 X74.737 Y86.328 E0.67400
G1 X74.737 Y86.866 E0.01702
G1 X89.801 Y101.930 E0.67400
M73 P1 R108
G1 X89.801 Y102.468 E0.01702
G1 X74.737 Y87.404 E0.67400
G1 X74.737 Y87.942 E0.01702
G1 X89.801 Y103.006 E0.67400
G1 X89.801 Y103.544 E0.01702
G1 X74.737 Y88.480 E0.67400
G1 X74.737 Y89.018 E0.01702
G1 X89.801 Y104.082 E0.67400
G1 X89.801 Y104.621 E0.01702
G1 X74.737 Y89.556 E0.67400
G1 X74.737 Y90.095 E0.01702
G1 X89.801 Y105.159 E0.67400
G1 X89.801 Y105.697 E0.01702
G1 X74.737 Y90.633 E0.67400
G1 X74.737 Y91.171 E0.01702
G1 X89.801 Y106.235 E0.67400
G1 X89.801 Y106.773 E0.01702
G1 X74.737 Y91.709 E0.67400
G1 X74.737 Y92.247 E0.01702
G1 X89.801 Y107.311 E0.67400
G1 X89.801 Y107.849 E0.01702
G1 X74.439 Y92.487 E0.68734
G1 X73.901 Y92.487 E0.01702
G1 X89.801 Y108.387 E0.71141
G1 X89.801 Y108.925 E0.01702
G1 X73.363 Y92.487 E0.73549
G1 X72.824 Y92.487 E0.01702
G1 X89.848 Y109.511 E0.76167
G1 X90.118 Y110.318 E0.02695
G1 X72.286 Y92.487 E0.79782
G1 X71.748 Y92.487 E0.01702
G1 X89.948 Y110.687 E0.81431
G1 X89.904 Y111.180 E0.01567
G1 X71.210 Y92.487 E0.83638
G1 X70.672 Y92.487 E0.01702
G1 X89.859 Y111.674 E0.85846
G1 X89.814 Y112.167 E0.01567
G1 X70.134 Y92.487 E0.88054
G1 X69.596 Y92.487 E0.01702
G1 X89.811 Y112.702 E0.90448
G1 X89.811 Y113.240 E0.01701
G1 X69.058 Y92.487 E0.92853
G1 X68.520 Y92.487 E0.01702
G1 X89.811 Y113.778 E0.95259
G1 X89.810 Y114.315 E0.01701
G1 X67.982 Y92.487 E0.97664
G1 X67.444 Y92.487 E0.01702
G1 X89.810 Y114.853 E1.00070
G1 X89.809 Y115.391 E0.01701
G1 X66.906 Y92.487 E1.02475
G1 X66.367 Y92.487 E0.01702
G1 X89.809 Y115.928 E1.04881
M73 P2 R108
M73 Q2 S109
G1 X89.808 Y116.466 E0.01701
G1 X65.829 Y92.487 E1.07286
G1 X65.291 Y92.487 E0.01702
G1 X89.808 Y117.003 E1.09692
G1 X89.807 Y117.541 E0.01701
G1 X64.753 Y92.487 E1.12098
G1 X64.215 Y92.487 E0.01702
G1 X89.807 Y118.079 E1.14503
G1 X89.807 Y118.616 E0.01701
G1 X63.677 Y92.487 E1.16909
G1 X63.139 Y92.487 E0.01702
G1 X89.806 Y119.154 E1.19314
G1 X89.806 Y119.692 E0.01701
G1 X62.601 Y92.487 E1.21720
G1 X62.289 Y92.487 E0.00986
G1 X62.214 Y92.638 E0.00534
G1 X89.805 Y120.229 E1.23449
G1 X89.805 Y120.767 E0.01701
G1 X62.034 Y92.997 E1.24250
G1 X61.855 Y93.355 E0.01269
G1 X73.897 Y105.397 E0.53877
G1 X73.359 Y105.397 E0.01702
G1 X61.676 Y93.714 E0.52272
M73 Q2 S108
G1 X61.559 Y93.947 E0.00823
G1 X61.529 Y94.106 E0.00512
G1 X72.821 Y105.397 E0.50520
G1 X72.283 Y105.397 E0.01702
G1 X61.529 Y94.644 E0.48113
G1 X61.529 Y95.182 E0.01702
G1 X71.744 Y105.397 E0.45705
G1 X71.206 Y105.397 E0.01702
G1 X61.529 Y95.720 E0.43298
G1 X61.529 Y96.258 E0.01702
G1 X70.668 Y105.397 E0.40890
G1 X70.130 Y105.397 E0.01702
G1 X61.529 Y96.796 E0.38483
G1 X61.529 Y97.334 E0.01702
G1 X69.592 Y105.397 E0.36075
G1 X69.054 Y105.397 E0.01702
G1 X61.529 Y97.872 E0.33668
G1 X61.529 Y98.410 E0.01702
G1 X68.516 Y105.397 E0.31260
G1 X67.978 Y105.397 E0.01702
G1 X61.529 Y98.948 E0.28853
G1 X61.529 Y99.486 E0.01702
G1 X67.440 Y105.397 E0.26445
G1 X66.902 Y105.397 E0.01702
G1 X61.529 Y100.025 E0.24038
M73 P2 R107
G1 X61.529 Y100.563 E0.01702
G1 X66.364 Y105.397 E0.21630
G1 X65.826 Y105.397 E0.01702
G1 X61.529 Y101.101 E0.19223
G1 X61.529 Y101.639 E0.01702
G1 X65.287 Y105.397 E0.16815
G1 X64.749 Y105.397 E0.01702
G1 X61.529 Y102.177 E0.14408
G1 X61.652 Y102.837 E0.02126
G1 X64.211 Y105.397 E0.11452
G1 X63.673 Y105.397 E0.01702
G1 X61.791 Y103.514 E0.08423
G1 X61.929 Y104.191 E0.02186
G1 X63.135 Y105.397 E0.05394
G1 X62.597 Y105.397 E0.01702
G1 X61.850 Y104.651 E0.03340
;WIPE_START
G1 F8640.000
G1 X62.597 Y105.397 E-0.24379
G1 X63.135 Y105.397 E-0.12425
G1 X61.935 Y104.197 E-0.39196
;WIPE_END
G1 E-0.04000 F2100.000
G1 Z0.600 F10800.000
G1 X74.567 Y106.067
G1 Z0.200
G1 E0.80000 F2100.000
G1 F1200.000
G1 X89.804 Y121.305 E0.68174
G1 X89.804 Y121.842 E0.01701
G1 X74.737 Y106.775 E0.67413
G1 X74.737 Y107.313 E0.01702
G1 X89.803 Y122.380 E0.67411
G1 X89.803 Y122.918 E0.01701
G1 X74.737 Y107.851 E0.67409
G1 X74.737 Y108.389 E0.01702
G1 X89.803 Y123.455 E0.67407
G1 X89.802 Y123.993 E0.01701
G1 X74.737 Y108.928 E0.67405
G1 X74.737 Y109.466 E0.01702
G1 X89.802 Y124.530 E0.67403
G1 X89.801 Y125.068 E0.01701
G1 X74.737 Y110.004 E0.67401
G1 X74.737 Y110.542 E0.01702
G1 X89.801 Y125.606 E0.67399
G1 X89.801 Y125.717 E0.00352
G1 X89.374 Y125.717 E0.01350
G1 X74.737 Y111.080 E0.65489
G1 X74.737 Y111.618 E0.01702
G1 X88.836 Y125.717 E0.63081
G1 X88.298 Y125.717 E0.01702
G1 X74.737 Y112.156 E0.60674
G1 X74.737 Y112.694 E0.01702
G1 X87.760 Y125.717 E0.58266
G1 X87.221 Y125.717 E0.01702
G1 X74.737 Y113.232 E0.55859
G1 X74.737 Y113.770 E0.01702
G1 X86.683 Y125.717 E0.53451
G1 X86.145 Y125.717 E0.01702
G1 X74.737 Y114.308 E0.51044
G1 X74.737 Y114.847 E0.01702
G1 X85.607 Y125.717 E0.48636
G1 X85.069 Y125.717 E0.01702
G1 X74.737 Y115.385 E0.46229
G1 X74.737 Y115.923 E0.01702
G1 X84.531 Y125.717 E0.43821
