; generated by PrusaSlicer 2.3.1+win64 on 2022-05-27 at 21:19:46 UTC

; 

; external perimeters extrusion width = 0.60mm
; perimeters extrusion width = 0.50mm
; infill extrusion width = 0.50mm
; solid infill extrusion width = 0.50mm
; top infill extrusion width = 0.45mm
; first layer extrusion width = 0.42mm

M73 P0 R92
M73 Q0 S93
M201 X1000 Y1000 Z200 E5000 ; sets maximum accelerations, mm/sec^2
M203 X200 Y200 Z12 E120 ; sets maximum feedrates, mm/sec
M204 P1250 R1250 T1250 ; sets acceleration (P, T) and retract acceleration (R), mm/sec^2
M205 X8.00 Y8.00 Z0.40 E4.50 ; sets the jerk limits, mm/sec
M205 S0 T0 ; sets the minimum extruding and travel feed rate, mm/sec
M107
;TYPE:Custom
M862.3 P "MK3S" ; printer model check
M862.1 P0.4 ; nozzle diameter check
M115 U3.11.0 ; tell printer latest fw version
G90 ; use absolute coordinates
M83 ; extruder relative mode
M104 S215 ; set extruder temp
M140 S60 ; set bed temp
M190 S60 ; wait for bed temp
M109 S215 ; wait for extruder temp
G28 W ; home all without mesh bed level
G80 ; mesh bed leveling
G1 Y-3.0 F1000.0 ; go outside print area
G92 E0.0
G1 X60.0 E9.0 F1000.0 ; intro line
M73 Q0 S92
G1 X100.0 E12.5 F1000.0 ; intro line
G92 E0.0
M221 S95

; Don't change E values below. Excessive value can damage the printer.

M907 E538 ; set extruder motor current
G21 ; set units to millimeters
G90 ; use absolute coordinates
M83 ; use relative distances for extrusion
M900 K0.05 ; Filament gcode LA 1.5
M900 K30 ; Filament gcode LA 1.0
;LAYER_CHANGE
;Z:0.2
;HEIGHT:0.2
;BEFORE_LAYER_CHANGE
G92 E0.0
;0.2


G1 E-0.80000 F2100.000
G1 Z0.400 F10800.000
;AFTER_LAYER_CHANGE
;0.2
G1 X68.152 Y92.793
G1 Z0.200
G1 E0.80000 F2100.000
M204 S1000
;TYPE:Skirt
;WIDTH:0.42
G1 F1200.000
G1 X68.839 Y92.053 E0.03165
G1 X69.342 Y91.699 E0.01929
G1 X79.414 Y86.661 E0.35311
G1 X80.399 Y86.359 E0.03230
G1 X80.902 Y86.304 E0.01585
G1 X181.807 Y86.316 E3.16381
M73 P0 R91
G1 X182.763 Y86.542 E0.03081
G1 X183.325 Y86.811 E0.01953
G1 X184.107 Y87.523 E0.03315
G1 X184.482 Y88.062 E0.02060
G1 X184.789 Y89.009 E0.03123
G1 X184.862 Y89.559 E0.01740
G1 X184.888 Y115.642 E0.81781
G1 X184.710 Y116.633 E0.03155
G1 X184.453 Y117.233 E0.02048
G1 X183.760 Y118.060 E0.03382
G1 X183.177 Y118.478 E0.02249
G1 X182.317 Y118.789 E0.02869
G1 X181.796 Y118.880 E0.01657
G1 X97.524 Y123.693 E2.64660
G1 X80.707 Y123.687 E0.52729
G1 X79.627 Y123.427 E0.03484
G1 X78.945 Y123.038 E0.02461
G1 X68.788 Y113.964 E0.42705
G1 X68.216 Y113.360 E0.02608
G1 X65.633 Y109.800 E0.13789
G1 X65.380 Y109.302 E0.01752
G1 X65.168 Y108.532 E0.02505
G1 X65.113 Y108.030 E0.01585
G1 X65.155 Y99.153 E0.27833
G1 X65.461 Y98.126 E0.03361
G1 X68.124 Y92.846 E0.18541
; printing object Small_Palm_Pen_Med_Pen_hole.stl id:0 copy 0
;WIPE_START
G1 F8640.000
G1 X68.839 Y92.053 E-0.24641
G1 X69.342 Y91.699 E-0.14208
G1 X70.781 Y90.980 E-0.37151
;WIPE_END
G1 E-0.04000 F2100.000
G1 Z0.600 F10800.000
G1 X108.458 Y119.177
G1 Z0.200
G1 E0.80000 F2100.000
;TYPE:Perimeter
G1 F1200.000
G1 X108.899 Y119.335 E0.01467
G1 X109.986 Y119.596 E0.03506
G1 X110.123 Y119.596 E0.00430
G1 X108.735 Y119.675 E0.04361
G1 X108.488 Y119.230 E0.01597
G1 X108.150 Y119.398 F10800.000
;TYPE:External perimeter
G1 F1200.000
G1 X107.251 Y119.534 E0.02851
G1 X106.762 Y119.572 E0.01536
G1 X97.702 Y120.091 E0.28455
G1 X97.713 Y111.748 E0.26159
G1 X97.796 Y110.861 E0.02791
G1 X98.331 Y111.077 E0.01808
G1 X99.606 Y113.288 E0.08003
G1 X101.674 Y115.585 E0.09692
G1 X104.177 Y117.403 E0.09698
G1 X107.000 Y118.659 E0.09690
G1 X107.839 Y118.838 E0.02688
G1 X108.121 Y119.346 E0.01820
G1 X108.318 Y119.761 F10800.000
;WIPE_START
G1 F8640.000
G1 X107.251 Y119.534 E-0.20553
G1 X106.762 Y119.572 E-0.11309
G1 X104.854 Y119.681 E-0.44138
;WIPE_END
G1 E-0.04000 F2100.000
G1 Z0.600 F10800.000
G1 X97.469 Y98.869
G1 Z0.200
G1 E0.80000 F2100.000
;TYPE:Perimeter
G1 F1200.000
G1 X97.799 Y98.736 E0.01115
G1 X97.713 Y98.880 E0.00528
G1 X97.515 Y99.337 E0.01560
G1 X97.326 Y99.892 E0.01840
G1 X97.326 Y109.300 E0.29496
G1 X97.515 Y109.854 E0.01838
G1 X97.713 Y110.310 E0.01558
G1 X97.800 Y110.456 E0.00533
G1 X97.467 Y110.322 E0.01124
G1 X97.336 Y111.730 E0.04432
G1 X97.325 Y120.324 E0.26947
G1 X80.965 Y120.313 E0.51294
G1 X81.692 Y119.987 E0.02498
G1 X81.692 Y111.357 E0.27059
G1 X72.156 Y111.357 E0.29900
G1 X71.842 Y112.180 E0.02763
G1 X70.891 Y111.310 E0.04040
G1 X68.515 Y108.036 E0.12685
G1 X68.485 Y107.922 E0.00370
G1 X68.485 Y99.698 E0.25786
G1 X68.531 Y99.520 E0.00577
G1 X69.350 Y97.883 E0.05739
G1 X81.692 Y97.883 E0.38698
G1 X81.692 Y89.676 E0.25733
G1 X97.325 Y89.676 E0.49016
G1 X97.336 Y97.483 E0.24478
G1 X97.464 Y98.809 E0.04178
G1 X97.796 Y98.330 F10800.000
;TYPE:External perimeter
G1 F1200.000
G1 X97.713 Y97.462 E0.02734
G1 X97.702 Y96.499 E0.03021
G1 X97.702 Y89.891 E0.20718
G1 X105.916 Y89.893 E0.25752
G1 X106.372 Y89.903 E0.01433
G1 X107.221 Y89.989 E0.02675
G1 X106.982 Y90.539 E0.01881
G1 X104.177 Y91.787 E0.09629
G1 X101.674 Y93.605 E0.09698
G1 X99.606 Y95.902 E0.09692
G1 X98.331 Y98.115 E0.08008
G1 X97.852 Y98.308 E0.01618
G1 X97.424 Y98.476 F10800.000
;WIPE_START
G1 F8640.000
G1 X97.713 Y97.462 E-0.19782
G1 X97.702 Y96.499 E-0.22246
G1 X97.702 Y95.028 E-0.33972
;WIPE_END
G1 E-0.04000 F2100.000
G1 Z0.600 F10800.000
G1 X107.529 Y90.226
G1 Z0.200
G1 E0.80000 F2100.000
;TYPE:Perimeter
G1 F1200.000
G1 X107.768 Y89.676 E0.01881
G1 X109.615 Y89.676 E0.05791
G1 X108.434 Y89.932 E0.03790
G1 X107.909 Y90.078 E0.01709
G1 X107.585 Y90.204 E0.01089
;WIPE_START
G1 F8640.000
G1 X107.768 Y89.676 E-0.12914
G1 X109.615 Y89.676 E-0.42650
G1 X108.750 Y89.863 E-0.20436
;WIPE_END
G1 E-0.04000 F2100.000
G1 Z0.600 F10800.000
G1 X81.315 Y89.720
G1 Z0.200
G1 E0.80000 F2100.000
;TYPE:External perimeter
G1 F1200.000
G1 X81.315 Y97.506 E0.24411
G1 X69.779 Y97.506 E0.36171
G1 X71.125 Y94.816 E0.09431
G1 X81.261 Y89.747 E0.35533
G1 X81.707 Y89.642 F10800.000
;WIPE_START
G1 F8640.000
G1 X81.284 Y93.039 E-0.76000
;WIPE_END
G1 E-0.04000 F2100.000
G1 Z0.600 F10800.000
G1 X81.261 Y111.734
G1 Z0.200
G1 E0.80000 F2100.000
G1 F1200.000
G1 X81.315 Y111.734 E0.00168
G1 X81.315 Y119.743 E0.25111
G1 X80.830 Y119.960 E0.01666
G1 X72.214 Y112.262 E0.36227
G1 X72.415 Y111.734 E0.01771
G1 X81.201 Y111.734 E0.27547
G1 X81.287 Y111.687 F10800.000
;WIPE_START
G1 F8640.000
G1 X81.315 Y111.734 E-0.02625
G1 X81.315 Y114.912 E-0.73375
;WIPE_END
G1 E-0.04000 F2100.000
G1 Z0.600 F10800.000
G1 X181.816 Y89.454
G1 Z0.200
G1 E0.80000 F2100.000
G1 F1200.000
G1 X181.854 Y89.594 E0.00456
G1 X181.816 Y89.736 E0.00461
G1 X181.711 Y89.841 E0.00462
G1 X181.522 Y89.891 E0.00616
G1 X111.161 Y89.891 E2.20611
G1 X111.161 Y89.971 E0.00250
G1 X110.033 Y89.971 E0.03536
G1 X108.525 Y90.298 E0.04839
G1 X108.028 Y90.437 E0.01616
G1 X107.074 Y90.808 E0.03212
G1 X104.318 Y92.035 E0.09459
G1 X101.867 Y93.817 E0.09501
G1 X99.836 Y96.070 E0.09509
G1 X98.585 Y98.236 E0.07843
G1 X98.292 Y98.646 E0.01581
G1 X98.049 Y99.052 E0.01484
G1 X97.867 Y99.473 E0.01437
G1 X97.703 Y99.955 E0.01596
G1 X97.703 Y109.237 E0.29104
G1 X97.867 Y109.718 E0.01595
G1 X98.049 Y110.138 E0.01435
G1 X98.291 Y110.545 E0.01483
G1 X98.585 Y110.954 E0.01582
G1 X99.836 Y113.120 E0.07843
G1 X101.867 Y115.373 E0.09509
G1 X104.318 Y117.157 E0.09505
G1 X107.089 Y118.389 E0.09510
G1 X108.063 Y118.596 E0.03122
G1 X108.516 Y118.797 E0.01552
G1 X109.007 Y118.973 E0.01636
G1 X110.031 Y119.219 E0.03303
G1 X111.973 Y119.219 E0.06089
G1 X111.973 Y119.279 E0.00189
G1 X181.523 Y115.300 E2.18426
G1 X181.727 Y115.342 E0.00653
G1 X181.836 Y115.439 E0.00457
G1 X181.882 Y115.579 E0.00463
G1 X181.853 Y115.721 E0.00455
G1 X181.755 Y115.830 E0.00461
G1 X181.568 Y115.893 E0.00617
G1 X112.129 Y119.865 E2.18078
G1 X112.118 Y119.734 E0.00411
G1 X111.506 Y119.894 E0.01983
G1 X97.393 Y120.701 E0.44322
G1 X80.959 Y120.701 E0.51529
G1 X80.751 Y120.645 E0.00676
G1 X70.832 Y111.784 E0.41703
G1 X70.604 Y111.556 E0.01014
G1 X68.168 Y108.200 E0.13000
G1 X68.108 Y107.971 E0.00744
G1 X68.108 Y99.649 E0.26090
M73 Q1 S92
G1 X68.177 Y99.387 E0.00852
G1 X70.627 Y94.485 E0.17182
G1 X70.793 Y94.321 E0.00731
M73 P1 R91
G1 X80.696 Y89.367 E0.34719
G1 X80.958 Y89.299 E0.00848
G1 X181.518 Y89.299 E3.15299
M73 Q1 S91
G1 X181.712 Y89.350 E0.00629
G1 X181.773 Y89.411 E0.00273
G1 X181.745 Y89.581 F10800.000
G1 X181.652 Y89.617
;TYPE:Gap fill
;WIDTH:0.258546
G1 F1200.000
G1 X181.479 Y89.595 E0.00313
G1 X110.972 Y89.595 E1.26415
;WIDTH:0.298383
G1 X110.907 Y89.615 E0.00146
;WIDTH:0.338222
G1 X110.841 Y89.635 E0.00168
G1 X110.013 Y89.635 E0.02034
;WIDTH:0.34745
G1 X109.803 Y89.656 E0.00535
;WIPE_START
G1 F8640.000
G1 X110.013 Y89.635 E-0.04880
;WIPE_END
G1 E-0.75120 F2100.000
G1 Z0.600 F10800.000
G1 X107.570 Y89.660
G1 Z0.200
G1 E0.80000 F2100.000
;WIDTH:0.3713
G1 F1200.000
G1 X106.982 Y89.631 E0.01605
;WIDTH:0.321375
G1 X106.395 Y89.601 E0.01361
;WIDTH:0.271449
G1 X105.920 Y89.596 E0.00903
;WIDTH:0.260334
G1 X97.514 Y89.595 E0.15197
;WIPE_START
G1 F8640.000
G1 X100.805 Y89.595 E-0.76000
;WIPE_END
G1 E-0.04000 F2100.000
G1 Z0.600 F10800.000
G1 X97.212 Y90.556
G1 Z0.200
G1 E0.80000 F2100.000
;TYPE:Solid infill
;WIDTH:0.422262
G1 F1200.000
G1 X96.615 Y89.959 E0.02665
G1 X96.078 Y89.959 E0.01692
G1 X97.042 Y90.923 E0.04301
G1 X97.042 Y91.459 E0.01692
G1 X95.542 Y89.959 E0.06694
G1 X95.005 Y89.959 E0.01692
G1 X97.042 Y91.996 E0.09087
G1 X97.042 Y92.532 E0.01692
G1 X94.469 Y89.959 E0.11480
G1 X93.932 Y89.959 E0.01692
G1 X97.042 Y93.069 E0.13873
G1 X97.042 Y93.605 E0.01692
G1 X93.396 Y89.959 E0.16266
G1 X92.859 Y89.959 E0.01692
G1 X97.042 Y94.142 E0.18659
G1 X97.042 Y94.678 E0.01692
G1 X92.323 Y89.959 E0.21052
G1 X91.786 Y89.959 E0.01692
G1 X97.042 Y95.214 E0.23446
G1 X97.042 Y95.751 E0.01692
G1 X91.250 Y89.959 E0.25839
G1 X90.713 Y89.959 E0.01692
G1 X97.042 Y96.287 E0.28232
G1 X97.046 Y96.828 E0.01704
G1 X90.177 Y89.959 E0.30641
G1 X89.641 Y89.959 E0.01692
G1 X97.052 Y97.370 E0.33062
G1 X97.097 Y97.952 E0.01840
G1 X89.104 Y89.959 E0.35655
G1 X88.568 Y89.959 E0.01692
G1 X97.154 Y98.545 E0.38302
M73 P1 R90
G1 X97.211 Y99.138 E0.01880
G1 X88.031 Y89.959 E0.40950
G1 X87.495 Y89.959 E0.01692
G1 X97.129 Y99.593 E0.42977
G1 X97.043 Y99.845 E0.00841
G1 X97.043 Y100.043 E0.00624
G1 X86.958 Y89.959 E0.44985
G1 X86.422 Y89.959 E0.01692
G1 X97.043 Y100.580 E0.47379
G1 X97.043 Y101.116 E0.01692
G1 X85.885 Y89.959 E0.49772
G1 X85.349 Y89.959 E0.01692
G1 X97.043 Y101.653 E0.52165
G1 X97.043 Y102.189 E0.01692
G1 X84.812 Y89.959 E0.54558
G1 X84.276 Y89.959 E0.01692
G1 X97.043 Y102.726 E0.56951
G1 X97.043 Y103.262 E0.01692
G1 X83.739 Y89.959 E0.59344
G1 X83.203 Y89.959 E0.01692
G1 X97.043 Y103.799 E0.61737
G1 X97.043 Y104.335 E0.01692
G1 X82.666 Y89.959 E0.64130
G1 X82.130 Y89.959 E0.01692
G1 X97.043 Y104.871 E0.66523
G1 X97.043 Y105.408 E0.01692
G1 X81.975 Y90.340 E0.67215
G1 X81.975 Y90.876 E0.01692
G1 X97.043 Y105.944 E0.67215
G1 X97.043 Y106.481 E0.01692
G1 X81.975 Y91.413 E0.67215
G1 X81.975 Y91.949 E0.01692
G1 X97.043 Y107.017 E0.67215
G1 X97.043 Y107.554 E0.01692
G1 X81.975 Y92.486 E0.67215
G1 X81.975 Y93.022 E0.01692
G1 X97.043 Y108.090 E0.67215
G1 X97.043 Y108.627 E0.01692
G1 X81.975 Y93.559 E0.67215
G1 X81.975 Y94.095 E0.01692
G1 X97.043 Y109.163 E0.67215
G1 X97.043 Y109.347 E0.00579
G1 X97.226 Y109.883 E0.01788
G1 X81.975 Y94.632 E0.68033
G1 X81.975 Y95.168 E0.01692
G1 X97.179 Y110.372 E0.67820
G1 X97.133 Y110.863 E0.01555
G1 X81.975 Y95.705 E0.67616
G1 X81.975 Y96.241 E0.01692
G1 X97.087 Y111.353 E0.67412
G1 X97.053 Y111.856 E0.01588
G1 X81.975 Y96.778 E0.67260
G1 X81.975 Y97.314 E0.01692
G1 X97.052 Y112.391 E0.67257
G1 X97.052 Y112.927 E0.01690
G1 X81.975 Y97.851 E0.67254
G1 X81.975 Y98.166 E0.00995
G1 X81.754 Y98.166 E0.00698
G1 X97.051 Y113.463 E0.68237
G1 X97.050 Y113.999 E0.01690
G1 X81.217 Y98.166 E0.70627
G1 X80.681 Y98.166 E0.01692
G1 X97.049 Y114.535 E0.73017
G1 X97.049 Y115.070 E0.01690
G1 X80.144 Y98.166 E0.75407
G1 X79.608 Y98.166 E0.01692
G1 X97.048 Y115.606 E0.77797
G1 X97.047 Y116.142 E0.01690
G1 X79.071 Y98.166 E0.80187
G1 X78.535 Y98.166 E0.01692
G1 X97.047 Y116.678 E0.82576
G1 X97.046 Y117.213 E0.01690
G1 X77.998 Y98.166 E0.84966
G1 X77.462 Y98.166 E0.01692
G1 X97.045 Y117.749 E0.87356
G1 X97.044 Y118.285 E0.01690
G1 X76.925 Y98.166 E0.89746
M73 P2 R90
M73 Q2 S91
G1 X76.389 Y98.166 E0.01692
G1 X97.044 Y118.821 E0.92136
G1 X97.043 Y119.356 E0.01690
G1 X75.853 Y98.166 E0.94526
G1 X75.316 Y98.166 E0.01692
G1 X97.042 Y119.892 E0.96916
G1 X97.042 Y120.041 E0.00470
G1 X96.655 Y120.041 E0.01222
G1 X74.780 Y98.166 E0.97580
G1 X74.243 Y98.166 E0.01692
G1 X96.118 Y120.041 E0.97578
G1 X95.581 Y120.040 E0.01693
G1 X73.707 Y98.166 E0.97576
M73 Q2 S90
G1 X73.170 Y98.166 E0.01692
G1 X95.044 Y120.040 E0.97575
G1 X94.507 Y120.039 E0.01693
G1 X72.634 Y98.166 E0.97573
G1 X72.097 Y98.166 E0.01692
G1 X93.970 Y120.039 E0.97571
G1 X93.434 Y120.039 E0.01693
G1 X71.561 Y98.166 E0.97569
G1 X71.024 Y98.166 E0.01692
G1 X92.897 Y120.038 E0.97568
G1 X92.360 Y120.038 E0.01693
G1 X70.488 Y98.166 E0.97566
G1 X69.951 Y98.166 E0.01692
G1 X91.823 Y120.037 E0.97564
M73 P2 R89
G1 X91.286 Y120.037 E0.01693
G1 X69.488 Y98.239 E0.97236
G1 X69.309 Y98.597 E0.01261
G1 X90.749 Y120.037 E0.95639
G1 X90.212 Y120.036 E0.01693
G1 X81.975 Y111.799 E0.36746
G1 X81.975 Y112.335 E0.01692
G1 X89.676 Y120.036 E0.34351
G1 X89.139 Y120.036 E0.01693
G1 X81.975 Y112.872 E0.31956
G1 X81.975 Y113.408 E0.01692
G1 X88.602 Y120.035 E0.29562
G1 X88.065 Y120.035 E0.01693
G1 X81.975 Y113.945 E0.27167
G1 X81.975 Y114.481 E0.01692
G1 X87.528 Y120.034 E0.24772
G1 X86.991 Y120.034 E0.01693
G1 X81.975 Y115.018 E0.22377
G1 X81.975 Y115.554 E0.01692
G1 X86.454 Y120.034 E0.19982
G1 X85.918 Y120.033 E0.01693
G1 X81.975 Y116.091 E0.17588
G1 X81.975 Y116.627 E0.01692
G1 X85.381 Y120.033 E0.15193
G1 X84.844 Y120.032 E0.01693
G1 X81.975 Y117.163 E0.12798
G1 X81.975 Y117.700 E0.01692
G1 X84.307 Y120.032 E0.10403
G1 X83.770 Y120.032 E0.01693
G1 X81.975 Y118.236 E0.08008
G1 X81.975 Y118.773 E0.01692
G1 X83.233 Y120.031 E0.05614
G1 X82.696 Y120.031 E0.01693
G1 X81.975 Y119.309 E0.03219
G1 X81.975 Y119.846 E0.01692
G1 X82.329 Y120.200 E0.01582
;WIPE_START
G1 F8640.000
G1 X81.975 Y119.846 E-0.11578
G1 X81.975 Y119.309 E-0.12387
G1 X82.696 Y120.031 E-0.23563
G1 X83.233 Y120.031 E-0.12396
G1 X82.741 Y119.539 E-0.16076
;WIPE_END
G1 E-0.04000 F2100.000
G1 Z0.600 F10800.000
G1 X81.420 Y111.244
G1 Z0.200
G1 E0.80000 F2100.000
G1 F1200.000
G1 X69.130 Y98.954 E0.54821
G1 X68.952 Y99.312 E0.01261
G1 X80.714 Y111.074 E0.52468
G1 X80.177 Y111.074 E0.01692
G1 X68.782 Y99.679 E0.50831
G1 X68.768 Y99.734 E0.00181
G1 X68.768 Y100.201 E0.01471
G1 X79.641 Y111.074 E0.48503
G1 X79.104 Y111.074 E0.01692
G1 X68.768 Y100.737 E0.46110
G1 X68.768 Y101.274 E0.01692
G1 X78.568 Y111.074 E0.43717
G1 X78.031 Y111.074 E0.01692
G1 X68.768 Y101.810 E0.41324
G1 X68.768 Y102.347 E0.01692
G1 X77.495 Y111.074 E0.38931
G1 X76.958 Y111.074 E0.01692
G1 X68.768 Y102.883 E0.36538
G1 X68.768 Y103.420 E0.01692
G1 X76.422 Y111.074 E0.34145
G1 X75.886 Y111.074 E0.01692
G1 X68.768 Y103.956 E0.31752
G1 X68.768 Y104.493 E0.01692
G1 X75.349 Y111.074 E0.29359
G1 X74.813 Y111.074 E0.01692
G1 X68.768 Y105.029 E0.26966
G1 X68.768 Y105.566 E0.01692
G1 X74.276 Y111.074 E0.24572
G1 X73.740 Y111.074 E0.01692
G1 X68.768 Y106.102 E0.22179
G1 X68.768 Y106.638 E0.01692
G1 X73.203 Y111.074 E0.19786
G1 X72.667 Y111.074 E0.01692
G1 X68.768 Y107.175 E0.17393
G1 X68.768 Y107.711 E0.01692
G1 X72.130 Y111.074 E0.15000
G1 X71.961 Y111.074 E0.00534
G1 X71.860 Y111.340 E0.00897
G1 X69.681 Y109.161 E0.09719
G1 X71.102 Y111.118 E0.07629
G1 X71.843 Y111.860 E0.03307
G1 X71.956 Y112.409 F10800.000
;TYPE:Gap fill
;WIDTH:0.23056
G1 F1200.000
G1 X80.702 Y120.224 E0.18299
;WIPE_START
G1 F8640.000
G1 X78.247 Y118.031 E-0.76000
;WIPE_END
G1 E-0.04000 F2100.000
G1 Z0.600 F10800.000
G1 X69.353 Y97.694
G1 Z0.200
G1 E0.80000 F2100.000
;WIDTH:0.246675
G1 F1200.000
G1 X70.871 Y94.661 E0.05746
G1 X70.939 Y94.585 E0.00174
;WIDTH:0.258399
G1 X80.801 Y89.646 E0.19761
G1 X81.223 Y89.487 E0.00808
;WIPE_START
G1 F8640.000
G1 X80.801 Y89.646 E-0.10413
G1 X78.261 Y90.918 E-0.65587
;WIPE_END
G1 E-0.04000 F2100.000
