; generated by PrusaSlicer 2.3.1+win64 on 2022-05-27 at 21:19:25 UTC

; 

; external perimeters extrusion width = 0.60mm
; perimeters extrusion width = 0.50mm
; infill extrusion width = 0.50mm
; solid infill extrusion width = 0.50mm
; top infill extrusion width = 0.45mm
; first layer extrusion width = 0.42mm

M73 P0 R97
M73 Q0 S97
M201 X1000 Y1000 Z200 E5000 ; sets maximum accelerations, mm/sec^2
M203 X200 Y200 Z12 E120 ; sets maximum feedrates, mm/sec
M204 P1250 R1250 T1250 ; sets acceleration (P, T) and retract acceleration (R), mm/sec^2
M205 X8.00 Y8.00 Z0.40 E4.50 ; sets the jerk limits, mm/sec
M205 S0 T0 ; sets the minimum extruding and travel feed rate, mm/sec
M107
;TYPE:Custom
M862.3 P "MK3S" ; printer model check
M862.1 P0.4 ; nozzle diameter check
M115 U3.11.0 ; tell printer latest fw version
G90 ; use absolute coordinates
M83 ; extruder relative mode
M104 S215 ; set extruder temp
M140 S60 ; set bed temp
M190 S60 ; wait for bed temp
M109 S215 ; wait for extruder temp
G28 W ; home all without mesh bed level
G80 ; mesh bed leveling
G1 Y-3.0 F1000.0 ; go outside print area
G92 E0.0
G1 X60.0 E9.0 F1000.0 ; intro line
G1 X100.0 E12.5 F1000.0 ; intro line
G92 E0.0
M221 S95

; Don't change E values below. Excessive value can damage the printer.

M907 E538 ; set extruder motor current
G21 ; set units to millimeters
G90 ; use absolute coordinates
M83 ; use relative distances for extrusion
M900 K0.05 ; Filament gcode LA 1.5
M900 K30 ; Filament gcode LA 1.0
;LAYER_CHANGE
;Z:0.2
;HEIGHT:0.2
;BEFORE_LAYER_CHANGE
G92 E0.0
;0.2


G1 E-0.80000 F2100.000
G1 Z0.400 F10800.000
;AFTER_LAYER_CHANGE
;0.2
G1 X65.410 Y92.783
G1 Z0.200
G1 E0.80000 F2100.000
M204 S1000
;TYPE:Skirt
;WIDTH:0.42
G1 F1200.000
G1 X66.090 Y92.050 E0.03136
G1 X66.597 Y91.695 E0.01941
G1 X76.668 Y86.661 E0.35302
G1 X77.728 Y86.342 E0.03470
G1 X184.325 Y86.304 E3.34227
G1 X184.820 Y86.357 E0.01562
G1 X185.624 Y86.583 E0.02617
G1 X186.065 Y86.806 E0.01550
G1 X186.450 Y87.115 E0.01550
G1 X186.963 Y87.645 E0.02312
G1 X187.260 Y88.118 E0.01752
G1 X187.544 Y89.028 E0.02988
G1 X187.612 Y89.559 E0.01680
G1 X187.628 Y115.768 E0.82175
G1 X187.322 Y117.009 E0.04009
M73 P0 R96
G1 X187.068 Y117.433 E0.01550
G1 X186.608 Y117.959 E0.02190
G1 X185.910 Y118.486 E0.02743
G1 X184.827 Y118.846 E0.03579
G1 X100.263 Y123.693 E2.65580
G1 X77.951 Y123.687 E0.69957
G1 X76.874 Y123.426 E0.03476
G1 X76.195 Y123.039 E0.02449
G1 X66.032 Y113.959 E0.42730
G1 X65.468 Y113.362 E0.02576
G1 X62.879 Y109.791 E0.13831
G1 X62.624 Y109.281 E0.01787
G1 X62.401 Y108.451 E0.02695
G1 X62.405 Y99.149 E0.29164
G1 X62.714 Y98.122 E0.03362
G1 X65.383 Y92.837 E0.18564
; printing object Small_Palm_Pen_Large_Pen_hole.stl id:0 copy 0
;WIPE_START
G1 F8640.000
G1 X66.090 Y92.050 E-0.24428
G1 X66.597 Y91.695 E-0.14295
G1 X68.041 Y90.973 E-0.37276
;WIPE_END
G1 E-0.04000 F2100.000
G1 Z0.600 F10800.000
G1 X111.208 Y119.177
G1 Z0.200
G1 E0.80000 F2100.000
;TYPE:Perimeter
G1 F1200.000
G1 X111.649 Y119.335 E0.01467
G1 X112.736 Y119.596 E0.03506
G1 X112.904 Y119.596 E0.00525
G1 X111.486 Y119.677 E0.04454
G1 X111.238 Y119.230 E0.01603
G1 X110.900 Y119.398 F10800.000
;TYPE:External perimeter
G1 F1200.000
G1 X110.001 Y119.534 E0.02849
G1 X109.514 Y119.572 E0.01534
G1 X100.452 Y120.091 E0.28458
G1 X100.463 Y111.748 E0.26159
G1 X100.546 Y110.861 E0.02791
G1 X101.081 Y111.077 E0.01808
G1 X102.356 Y113.288 E0.08003
G1 X104.426 Y115.585 E0.09697
G1 X106.927 Y117.403 E0.09693
G1 X109.750 Y118.659 E0.09690
G1 X110.589 Y118.838 E0.02688
G1 X110.871 Y119.346 E0.01820
G1 X111.068 Y119.761 F10800.000
;WIPE_START
G1 F8640.000
G1 X110.001 Y119.534 E-0.20539
G1 X109.514 Y119.572 E-0.11296
G1 X107.604 Y119.681 E-0.44165
;WIPE_END
G1 E-0.04000 F2100.000
G1 Z0.600 F10800.000
G1 X100.219 Y98.867
G1 Z0.200
G1 E0.80000 F2100.000
;TYPE:Perimeter
G1 F1200.000
G1 X100.550 Y98.733 E0.01118
G1 X100.462 Y98.881 E0.00538
G1 X100.265 Y99.336 E0.01555
G1 X100.076 Y99.890 E0.01836
G1 X100.076 Y109.300 E0.29504
G1 X100.265 Y109.854 E0.01838
G1 X100.463 Y110.310 E0.01558
G1 X100.550 Y110.456 E0.00533
G1 X100.217 Y110.322 E0.01124
G1 X100.086 Y111.730 E0.04432
G1 X100.075 Y120.324 E0.26947
G1 X78.257 Y120.324 E0.68407
G1 X78.210 Y120.312 E0.00151
G1 X78.940 Y119.985 E0.02506
G1 X78.940 Y111.357 E0.27053
G1 X69.406 Y111.357 E0.29894
G1 X69.091 Y112.180 E0.02764
G1 X68.342 Y111.511 E0.03151
G1 X68.144 Y111.311 E0.00882
G1 X65.765 Y108.034 E0.12699
G1 X65.735 Y107.922 E0.00363
G1 X65.735 Y99.700 E0.25780
G1 X65.782 Y99.522 E0.00576
G1 X66.602 Y97.883 E0.05745
G1 X78.940 Y97.883 E0.38686
G1 X78.940 Y89.676 E0.25733
G1 X100.075 Y89.676 E0.66268
G1 X100.076 Y96.979 E0.22899
G1 X100.087 Y97.484 E0.01583
G1 X100.214 Y98.807 E0.04168
G1 X100.546 Y98.328 F10800.000
;TYPE:External perimeter
G1 F1200.000
G1 X100.463 Y97.462 E0.02730
G1 X100.453 Y96.975 E0.01526
G1 X100.452 Y89.891 E0.22211
G1 X108.664 Y89.892 E0.25749
G1 X109.121 Y89.902 E0.01432
G1 X109.970 Y89.987 E0.02674
G1 X109.731 Y90.537 E0.01880
G1 X106.927 Y91.789 E0.09629
G1 X104.426 Y93.605 E0.09690
G1 X102.356 Y95.902 E0.09696
G1 X101.081 Y98.113 E0.08003
G1 X100.602 Y98.306 E0.01618
G1 X100.174 Y98.474 F10800.000
;WIPE_START
G1 F8640.000
G1 X100.463 Y97.462 E-0.19755
G1 X100.453 Y96.975 E-0.11238
G1 X100.453 Y95.026 E-0.45007
;WIPE_END
G1 E-0.04000 F2100.000
G1 Z0.600 F10800.000
G1 X110.277 Y90.226
G1 Z0.200
G1 E0.80000 F2100.000
;TYPE:Perimeter
G1 F1200.000
G1 X110.516 Y89.676 E0.01881
G1 X112.357 Y89.676 E0.05773
G1 X111.184 Y89.931 E0.03765
G1 X110.659 Y90.078 E0.01710
G1 X110.333 Y90.204 E0.01095
;WIPE_START
G1 F8640.000
G1 X110.516 Y89.676 E-0.12918
G1 X112.357 Y89.676 E-0.42516
G1 X111.487 Y89.865 E-0.20566
;WIPE_END
G1 E-0.04000 F2100.000
G1 Z0.600 F10800.000
G1 X78.563 Y89.720
G1 Z0.200
G1 E0.80000 F2100.000
;TYPE:External perimeter
G1 F1200.000
G1 X78.563 Y97.506 E0.24412
G1 X67.030 Y97.506 E0.36162
G1 X68.373 Y94.816 E0.09427
G1 X78.509 Y89.747 E0.35534
G1 X78.955 Y89.642 F10800.000
;WIPE_START
G1 F8640.000
G1 X78.532 Y93.038 E-0.76000
;WIPE_END
G1 E-0.04000 F2100.000
G1 Z0.600 F10800.000
G1 X78.509 Y111.734
G1 Z0.200
G1 E0.80000 F2100.000
G1 F1200.000
G1 X78.563 Y111.734 E0.00168
G1 X78.563 Y119.741 E0.25105
G1 X78.078 Y119.958 E0.01666
G1 X69.464 Y112.262 E0.36218
G1 X69.665 Y111.734 E0.01771
G1 X78.449 Y111.734 E0.27541
G1 X78.535 Y111.687 F10800.000
;WIPE_START
G1 F8640.000
G1 X78.563 Y111.734 E-0.02624
G1 X78.563 Y114.912 E-0.73375
;WIPE_END
G1 E-0.04000 F2100.000
G1 Z0.600 F10800.000
G1 X184.566 Y89.455
G1 Z0.200
G1 E0.80000 F2100.000
G1 F1200.000
G1 X184.604 Y89.594 E0.00453
G1 X184.566 Y89.736 E0.00461
G1 X184.462 Y89.841 E0.00462
G1 X184.272 Y89.891 E0.00617
G1 X113.913 Y89.891 E2.20604
G1 X113.913 Y89.969 E0.00244
G1 X112.783 Y89.969 E0.03542
G1 X111.275 Y90.297 E0.04840
G1 X110.778 Y90.436 E0.01616
G1 X109.824 Y90.808 E0.03212
G1 X107.068 Y92.033 E0.09456
G1 X104.615 Y93.817 E0.09510
G1 X102.586 Y96.070 E0.09505
G1 X101.336 Y98.237 E0.07847
G1 X101.040 Y98.647 E0.01583
G1 X100.799 Y99.053 E0.01481
G1 X100.617 Y99.472 E0.01432
G1 X100.453 Y99.953 E0.01593
G1 X100.453 Y109.237 E0.29111
G1 X100.617 Y109.718 E0.01595
G1 X100.799 Y110.138 E0.01435
G1 X101.041 Y110.545 E0.01483
G1 X101.335 Y110.954 E0.01582
G1 X102.586 Y113.120 E0.07843
G1 X104.615 Y115.373 E0.09505
G1 X107.068 Y117.157 E0.09510
G1 X109.839 Y118.389 E0.09510
G1 X110.813 Y118.596 E0.03122
G1 X111.266 Y118.797 E0.01552
G1 X111.757 Y118.973 E0.01636
G1 X112.781 Y119.219 E0.03303
G1 X114.723 Y119.219 E0.06089
G1 X114.723 Y119.279 E0.00189
G1 X184.280 Y115.301 E2.18448
G1 X184.476 Y115.342 E0.00626
G1 X184.585 Y115.439 E0.00459
G1 X184.631 Y115.579 E0.00461
G1 X184.602 Y115.722 E0.00459
G1 X184.505 Y115.830 E0.00457
G1 X184.318 Y115.893 E0.00619
G1 X114.879 Y119.865 E2.18077
G1 X114.867 Y119.724 E0.00443
G1 X114.254 Y119.896 E0.01997
G1 X100.143 Y120.701 E0.44315
G1 X78.207 Y120.701 E0.68779
G1 X78.001 Y120.646 E0.00670
G1 X68.082 Y111.785 E0.41702
G1 X67.856 Y111.556 E0.01008
G1 X65.419 Y108.199 E0.13008
G1 X65.358 Y107.972 E0.00738
G1 X65.358 Y99.650 E0.26092
G1 X65.428 Y99.388 E0.00852
G1 X67.880 Y94.483 E0.17191
G1 X68.044 Y94.319 E0.00728
G1 X77.947 Y89.369 E0.34713
G1 X78.207 Y89.299 E0.00846
G1 X184.267 Y89.299 E3.32542
M73 P1 R96
M73 Q1 S96
G1 X184.462 Y89.351 E0.00633
G1 X184.524 Y89.412 E0.00272
G1 X184.496 Y89.581 F10800.000
G1 X184.402 Y89.618
;TYPE:Gap fill
;WIDTH:0.258522
G1 F1200.000
G1 X184.228 Y89.595 E0.00316
G1 X113.724 Y89.595 E1.26393
;WIDTH:0.297375
G1 X113.660 Y89.614 E0.00143
;WIDTH:0.339666
G1 X113.595 Y89.634 E0.00167
G1 X112.732 Y89.636 E0.02130
;WIDTH:0.347266
G1 X112.545 Y89.656 E0.00475
;WIPE_START
G1 F8640.000
G1 X112.732 Y89.636 E-0.04336
;WIPE_END
G1 E-0.75664 F2100.000
G1 Z0.600 F10800.000
G1 X110.318 Y89.660
G1 Z0.200
G1 E0.80000 F2100.000
;WIDTH:0.370169
G1 F1200.000
G1 X109.731 Y89.630 E0.01599
;WIDTH:0.320226
G1 X109.144 Y89.601 E0.01355
;WIDTH:0.270282
G1 X108.669 Y89.595 E0.00898
;WIDTH:0.259168
G1 X100.264 Y89.595 E0.15114
;WIPE_START
G1 F8640.000
G1 X103.555 Y89.595 E-0.76000
;WIPE_END
G1 E-0.04000 F2100.000
G1 Z0.600 F10800.000
G1 X99.962 Y90.558
G1 Z0.200
G1 E0.80000 F2100.000
;TYPE:Solid infill
;WIDTH:0.423231
G1 F1200.000
G1 X99.363 Y89.959 E0.02681
G1 X98.825 Y89.959 E0.01701
G1 X99.792 Y90.926 E0.04328
G1 X99.793 Y91.464 E0.01701
G1 X98.287 Y89.959 E0.06733
G1 X97.749 Y89.959 E0.01701
G1 X99.793 Y92.002 E0.09139
G1 X99.793 Y92.540 E0.01701
G1 X97.211 Y89.959 E0.11544
G1 X96.673 Y89.959 E0.01701
G1 X99.793 Y93.078 E0.13950
G1 X99.793 Y93.616 E0.01701
G1 X96.136 Y89.959 E0.16356
G1 X95.598 Y89.959 E0.01701
G1 X99.793 Y94.154 E0.18761
G1 X99.793 Y94.691 E0.01701
G1 X95.060 Y89.959 E0.21167
G1 X94.522 Y89.959 E0.01701
G1 X99.793 Y95.229 E0.23572
G1 X99.793 Y95.767 E0.01701
G1 X93.984 Y89.959 E0.25978
G1 X93.446 Y89.959 E0.01701
G1 X99.793 Y96.305 E0.28383
G1 X99.793 Y96.843 E0.01701
G1 X92.909 Y89.959 E0.30789
G1 X92.371 Y89.959 E0.01701
G1 X99.802 Y97.390 E0.33233
G1 X99.850 Y97.975 E0.01859
G1 X91.833 Y89.959 E0.35853
G1 X91.295 Y89.959 E0.01701
G1 X99.907 Y98.570 E0.38513
G1 X99.964 Y99.165 E0.01890
G1 X90.757 Y89.959 E0.41174
G1 X90.219 Y89.959 E0.01701
G1 X99.872 Y99.611 E0.43169
G1 X99.793 Y99.843 E0.00774
G1 X99.793 Y100.070 E0.00718
G1 X89.681 Y89.959 E0.45220
M73 P1 R95
G1 X89.144 Y89.959 E0.01701
G1 X99.793 Y100.608 E0.47625
G1 X99.793 Y101.146 E0.01701
G1 X88.606 Y89.959 E0.50030
G1 X88.068 Y89.959 E0.01701
G1 X99.793 Y101.683 E0.52436
G1 X99.793 Y102.221 E0.01701
G1 X87.530 Y89.959 E0.54841
G1 X86.992 Y89.959 E0.01701
G1 X99.793 Y102.759 E0.57246
G1 X99.793 Y103.297 E0.01701
G1 X86.454 Y89.959 E0.59652
G1 X85.917 Y89.959 E0.01701
G1 X99.793 Y103.835 E0.62057
G1 X99.793 Y104.373 E0.01701
G1 X85.379 Y89.959 E0.64462
G1 X84.841 Y89.959 E0.01701
G1 X99.793 Y104.910 E0.66868
G1 X99.793 Y105.448 E0.01701
G1 X84.303 Y89.959 E0.69273
G1 X83.765 Y89.959 E0.01701
G1 X99.793 Y105.986 E0.71678
G1 X99.793 Y106.524 E0.01701
G1 X83.227 Y89.959 E0.74083
G1 X82.690 Y89.959 E0.01701
G1 X99.793 Y107.062 E0.76489
G1 X99.793 Y107.600 E0.01701
G1 X82.152 Y89.959 E0.78894
G1 X81.614 Y89.959 E0.01701
G1 X99.793 Y108.138 E0.81299
G1 X99.793 Y108.675 E0.01701
G1 X81.076 Y89.959 E0.83705
G1 X80.538 Y89.959 E0.01701
G1 X99.793 Y109.213 E0.86110
G1 X99.793 Y109.347 E0.00422
G1 X99.991 Y109.926 E0.01937
G1 X99.970 Y109.928 E0.00067
G1 X80.000 Y89.959 E0.89307
G1 X79.463 Y89.959 E0.01701
G1 X99.924 Y110.420 E0.91508
G1 X99.878 Y110.912 E0.01563
G1 X79.223 Y90.257 E0.92374
G1 X79.223 Y90.795 E0.01701
G1 X99.832 Y111.404 E0.92169
G1 X99.803 Y111.913 E0.01611
G1 X79.223 Y91.332 E0.92038
G1 X79.223 Y91.870 E0.01701
G1 X99.802 Y112.450 E0.92035
G1 X99.802 Y112.987 E0.01699
G1 X79.223 Y92.408 E0.92031
G1 X79.223 Y92.946 E0.01701
G1 X99.801 Y113.524 E0.92028
G1 X99.800 Y114.061 E0.01699
G1 X79.223 Y93.484 E0.92025
G1 X79.223 Y94.022 E0.01701
G1 X99.799 Y114.598 E0.92022
G1 X99.799 Y115.135 E0.01699
G1 X79.223 Y94.559 E0.92019
G1 X79.223 Y95.097 E0.01701
G1 X99.798 Y115.672 E0.92015
G1 X99.797 Y116.210 E0.01699
G1 X79.223 Y95.635 E0.92012
G1 X79.223 Y96.173 E0.01701
G1 X99.797 Y116.747 E0.92009
G1 X99.796 Y117.284 E0.01699
G1 X79.223 Y96.711 E0.92006
M73 Q2 S96
G1 X79.223 Y97.249 E0.01701
G1 X99.795 Y117.821 E0.92003
M73 P2 R95
M73 Q2 S95
G1 X99.794 Y118.358 E0.01699
G1 X79.223 Y97.787 E0.91999
G1 X79.223 Y98.166 E0.01200
G1 X79.064 Y98.166 E0.00501
G1 X99.794 Y118.895 E0.92705
G1 X99.793 Y119.432 E0.01699
G1 X78.527 Y98.166 E0.95107
G1 X77.989 Y98.166 E0.01701
G1 X99.792 Y119.969 E0.97509
G1 X99.792 Y120.041 E0.00228
G1 X99.326 Y120.041 E0.01473
G1 X77.451 Y98.166 E0.97831
G1 X76.913 Y98.166 E0.01701
G1 X98.789 Y120.041 E0.97831
G1 X98.251 Y120.041 E0.01701
G1 X76.375 Y98.166 E0.97831
G1 X75.837 Y98.166 E0.01701
G1 X97.713 Y120.041 E0.97831
G1 X97.175 Y120.041 E0.01701
G1 X75.299 Y98.166 E0.97831
G1 X74.762 Y98.166 E0.01701
G1 X96.637 Y120.041 E0.97831
G1 X96.099 Y120.041 E0.01701
G1 X74.224 Y98.166 E0.97831
G1 X73.686 Y98.166 E0.01701
M73 P2 R94
G1 X95.562 Y120.041 E0.97831
G1 X95.024 Y120.041 E0.01701
G1 X73.148 Y98.166 E0.97831
G1 X72.610 Y98.166 E0.01701
G1 X94.486 Y120.041 E0.97831
G1 X93.948 Y120.041 E0.01701
G1 X72.072 Y98.166 E0.97831
G1 X71.535 Y98.166 E0.01701
G1 X93.410 Y120.041 E0.97831
G1 X92.872 Y120.041 E0.01701
G1 X70.997 Y98.166 E0.97831
G1 X70.459 Y98.166 E0.01701
G1 X92.334 Y120.041 E0.97831
G1 X91.797 Y120.041 E0.01701
G1 X69.921 Y98.166 E0.97831
G1 X69.383 Y98.166 E0.01701
G1 X91.259 Y120.041 E0.97831
G1 X90.721 Y120.041 E0.01701
G1 X68.845 Y98.166 E0.97831
G1 X68.308 Y98.166 E0.01701
G1 X90.183 Y120.041 E0.97831
G1 X89.645 Y120.041 E0.01701
G1 X67.770 Y98.166 E0.97831
G1 X67.232 Y98.166 E0.01701
G1 X89.107 Y120.041 E0.97831
G1 X88.570 Y120.041 E0.01701
G1 X66.749 Y98.221 E0.97585
G1 X66.570 Y98.579 E0.01268
G1 X88.032 Y120.041 E0.95982
G1 X87.494 Y120.041 E0.01701
G1 X79.223 Y111.770 E0.36989
G1 X79.223 Y112.308 E0.01701
G1 X86.956 Y120.041 E0.34584
G1 X86.418 Y120.041 E0.01701
G1 X79.223 Y112.846 E0.32179
G1 X79.223 Y113.384 E0.01701
G1 X85.880 Y120.041 E0.29773
G1 X85.343 Y120.041 E0.01701
G1 X79.223 Y113.922 E0.27368
G1 X79.223 Y114.460 E0.01701
G1 X84.805 Y120.041 E0.24963
G1 X84.267 Y120.041 E0.01701
G1 X79.223 Y114.997 E0.22558
G1 X79.223 Y115.535 E0.01701
G1 X83.729 Y120.041 E0.20152
G1 X83.191 Y120.041 E0.01701
G1 X79.223 Y116.073 E0.17747
G1 X79.223 Y116.611 E0.01701
G1 X82.653 Y120.041 E0.15342
G1 X82.115 Y120.041 E0.01701
G1 X79.223 Y117.149 E0.12936
G1 X79.223 Y117.687 E0.01701
G1 X81.578 Y120.041 E0.10531
G1 X81.040 Y120.041 E0.01701
G1 X79.223 Y118.224 E0.08126
G1 X79.223 Y118.762 E0.01701
G1 X80.502 Y120.041 E0.05720
G1 X79.964 Y120.041 E0.01701
G1 X79.223 Y119.300 E0.03315
G1 X79.223 Y119.838 E0.01701
G1 X79.596 Y120.211 E0.01669
;WIPE_START
G1 F8640.000
G1 X79.223 Y119.838 E-0.12184
G1 X79.223 Y119.300 E-0.12419
G1 X79.964 Y120.041 E-0.24206
G1 X80.502 Y120.041 E-0.12419
G1 X80.050 Y119.589 E-0.14773
;WIPE_END
G1 E-0.04000 F2100.000
G1 Z0.600 F10800.000
G1 X78.696 Y111.244
G1 Z0.200
G1 E0.80000 F2100.000
G1 F1200.000
G1 X66.390 Y98.938 E0.55033
G1 X66.211 Y99.297 E0.01268
G1 X77.989 Y111.074 E0.52671
G1 X77.451 Y111.074 E0.01701
G1 X66.038 Y99.661 E0.51041
G1 X66.018 Y99.737 E0.00248
G1 X66.018 Y100.179 E0.01397
G1 X76.913 Y111.074 E0.48727
G1 X76.375 Y111.074 E0.01701
G1 X66.018 Y100.716 E0.46321
G1 X66.018 Y101.254 E0.01701
G1 X75.837 Y111.074 E0.43916
G1 X75.300 Y111.074 E0.01701
G1 X66.018 Y101.792 E0.41511
G1 X66.018 Y102.330 E0.01701
G1 X74.762 Y111.074 E0.39105
G1 X74.224 Y111.074 E0.01701
G1 X66.018 Y102.868 E0.36700
G1 X66.018 Y103.406 E0.01701
G1 X73.686 Y111.074 E0.34295
G1 X73.148 Y111.074 E0.01701
G1 X66.018 Y103.943 E0.31889
G1 X66.018 Y104.481 E0.01701
G1 X72.610 Y111.074 E0.29484
G1 X72.073 Y111.074 E0.01701
G1 X66.018 Y105.019 E0.27079
G1 X66.018 Y105.557 E0.01701
G1 X71.535 Y111.074 E0.24674
G1 X70.997 Y111.074 E0.01701
G1 X66.018 Y106.095 E0.22268
M73 P3 R94
G1 X66.018 Y106.633 E0.01701
G1 X70.459 Y111.074 E0.19863
M73 Q3 S95
G1 X69.921 Y111.074 E0.01701
G1 X66.018 Y107.170 E0.17458
G1 X66.018 Y107.708 E0.01701
