; generated by PrusaSlicer 2.3.1+win64 on 2022-05-27 at 21:20:01 UTC

; 

; external perimeters extrusion width = 0.60mm
; perimeters extrusion width = 0.50mm
; infill extrusion width = 0.50mm
; solid infill extrusion width = 0.50mm
; top infill extrusion width = 0.45mm
; first layer extrusion width = 0.42mm

M73 P0 R84
M73 Q0 S85
M201 X1000 Y1000 Z200 E5000 ; sets maximum accelerations, mm/sec^2
M203 X200 Y200 Z12 E120 ; sets maximum feedrates, mm/sec
M204 P1250 R1250 T1250 ; sets acceleration (P, T) and retract acceleration (R), mm/sec^2
M205 X8.00 Y8.00 Z0.40 E4.50 ; sets the jerk limits, mm/sec
M205 S0 T0 ; sets the minimum extruding and travel feed rate, mm/sec
M107
;TYPE:Custom
M862.3 P "MK3S" ; printer model check
M862.1 P0.4 ; nozzle diameter check
M115 U3.11.0 ; tell printer latest fw version
G90 ; use absolute coordinates
M83 ; extruder relative mode
M104 S215 ; set extruder temp
M140 S60 ; set bed temp
M190 S60 ; wait for bed temp
M109 S215 ; wait for extruder temp
G28 W ; home all without mesh bed level
G80 ; mesh bed leveling
G1 Y-3.0 F1000.0 ; go outside print area
G92 E0.0
G1 X60.0 E9.0 F1000.0 ; intro line
G1 X100.0 E12.5 F1000.0 ; intro line
G92 E0.0
M221 S95

; Don't change E values below. Excessive value can damage the printer.

M907 E538 ; set extruder motor current
G21 ; set units to millimeters
G90 ; use absolute coordinates
M83 ; use relative distances for extrusion
M900 K0.05 ; Filament gcode LA 1.5
M900 K30 ; Filament gcode LA 1.0
;LAYER_CHANGE
;Z:0.2
;HEIGHT:0.2
;BEFORE_LAYER_CHANGE
G92 E0.0
;0.2


G1 E-0.80000 F2100.000
G1 Z0.400 F10800.000
;AFTER_LAYER_CHANGE
;0.2
G1 X67.910 Y99.116
G1 Z0.200
G1 E0.80000 F2100.000
M204 S1000
;TYPE:Skirt
;WIDTH:0.42
G1 F1200.000
G1 X68.211 Y98.128 E0.03237
G1 X70.783 Y92.984 E0.18033
G1 X71.173 Y92.464 E0.02036
G1 X72.008 Y91.745 E0.03457
G1 X82.168 Y86.661 E0.35620
G1 X83.303 Y86.328 E0.03710
G1 X108.821 Y86.302 E0.80010
G1 X178.832 Y86.302 E2.19516
G1 X179.346 Y86.361 E0.01621
G1 X180.197 Y86.611 E0.02780
G1 X180.832 Y87.005 E0.02343
G1 X181.588 Y87.815 E0.03475
G1 X181.879 Y88.421 E0.02107
G1 X182.109 Y89.464 E0.03351
G1 X182.139 Y115.563 E0.81829
G1 X181.860 Y116.926 E0.04363
G1 X181.498 Y117.523 E0.02190
G1 X180.713 Y118.307 E0.03476
G1 X180.132 Y118.604 E0.02048
G1 X179.065 Y118.880 E0.03456
G1 X94.774 Y123.693 E2.64717
G1 X83.501 Y123.691 E0.35348
G1 X82.393 Y123.433 E0.03566
G1 X81.699 Y123.042 E0.02496
G1 X71.585 Y114.009 E0.42520
G1 X70.965 Y113.361 E0.02812
G1 X68.304 Y109.670 E0.14266
G1 X68.075 Y109.128 E0.01846
G1 X67.863 Y108.111 E0.03258
G1 X67.910 Y99.176 E0.28015
; printing object Small_Palm_Pen_Small_Pen_hole.stl id:0 copy 0
;WIPE_START
G1 F8640.000
G1 X68.211 Y98.128 E-0.25171
G1 X69.195 Y96.159 E-0.50829
;WIPE_END
G1 E-0.04000 F2100.000
G1 Z0.600 F10800.000
G1 X105.707 Y119.178
G1 Z0.200
G1 E0.80000 F2100.000
;TYPE:Perimeter
G1 F1200.000
G1 X106.149 Y119.336 E0.01470
G1 X107.236 Y119.597 E0.03507
G1 X107.352 Y119.597 E0.00362
G1 X105.984 Y119.676 E0.04296
G1 X105.737 Y119.230 E0.01597
G1 X105.398 Y119.398 F10800.000
;TYPE:External perimeter
G1 F1200.000
G1 X104.499 Y119.534 E0.02851
G1 X104.011 Y119.572 E0.01536
G1 X94.950 Y120.090 E0.28455
G1 X94.961 Y111.748 E0.26156
G1 X95.044 Y110.862 E0.02791
G1 X95.579 Y111.077 E0.01808
G1 X96.856 Y113.288 E0.08004
G1 X98.924 Y115.585 E0.09692
G1 X101.427 Y117.403 E0.09698
G1 X104.250 Y118.659 E0.09690
G1 X105.087 Y118.838 E0.02684
G1 X105.369 Y119.345 E0.01821
G1 X105.566 Y119.761 F10800.000
;WIPE_START
G1 F8640.000
G1 X104.499 Y119.534 E-0.20553
G1 X104.011 Y119.572 E-0.11309
G1 X102.103 Y119.681 E-0.44138
;WIPE_END
G1 E-0.04000 F2100.000
G1 Z0.600 F10800.000
G1 X75.166 Y111.734
G1 Z0.200
G1 E0.80000 F2100.000
G1 F1200.000
G1 X84.063 Y111.734 E0.27896
G1 X84.063 Y119.740 E0.25103
G1 X83.578 Y119.957 E0.01666
G1 X74.965 Y112.262 E0.36216
G1 X75.145 Y111.790 E0.01583
G1 X75.061 Y111.348 F10800.000
;WIPE_START
G1 F8640.000
G1 X78.436 Y111.769 E-0.76000
;WIPE_END
G1 E-0.04000 F2100.000
G1 Z0.600 F10800.000
G1 X84.063 Y89.721
G1 Z0.200
G1 E0.80000 F2100.000
G1 F1200.000
G1 X84.063 Y97.506 E0.24410
G1 X72.530 Y97.506 E0.36161
M73 Q0 S84
G1 X73.873 Y94.816 E0.09426
G1 X84.009 Y89.747 E0.35533
G1 X84.455 Y89.642 F10800.000
G1 X84.440 Y89.747
;TYPE:Perimeter
G1 F1200.000
G1 X84.440 Y89.673 E0.00232
G1 X94.574 Y89.673 E0.31773
G1 X94.585 Y97.481 E0.24479
G1 X94.718 Y98.866 E0.04364
G1 X95.050 Y98.732 E0.01123
G1 X94.962 Y98.879 E0.00536
G1 X94.765 Y99.335 E0.01557
G1 X94.574 Y99.890 E0.01840
G1 X94.574 Y109.300 E0.29506
G1 X94.765 Y109.855 E0.01840
G1 X94.962 Y110.311 E0.01557
G1 X95.050 Y110.458 E0.00536
G1 X94.716 Y110.323 E0.01130
G1 X94.584 Y111.730 E0.04432
G1 X94.573 Y120.325 E0.26947
G1 X83.757 Y120.325 E0.33912
G1 X83.709 Y120.312 E0.00155
G1 X84.440 Y119.985 E0.02510
G1 X84.440 Y111.357 E0.27052
G1 X74.906 Y111.357 E0.29892
G1 X74.592 Y112.181 E0.02766
G1 X73.641 Y111.310 E0.04042
G1 X71.264 Y108.033 E0.12695
G1 X71.232 Y107.919 E0.00371
G1 X71.232 Y99.701 E0.25765
G1 X71.281 Y99.524 E0.00577
G1 X72.101 Y97.883 E0.05750
G1 X84.440 Y97.883 E0.38689
G1 X84.440 Y89.807 E0.25320
;WIPE_START
G1 F8640.000
G1 X84.440 Y89.673 E-0.03095
G1 X87.597 Y89.673 E-0.72905
;WIPE_END
G1 E-0.04000 F2100.000
G1 Z0.600 F10800.000
G1 X94.951 Y89.892
G1 Z0.200
G1 E0.80000 F2100.000
;TYPE:External perimeter
G1 F1200.000
G1 X103.178 Y89.894 E0.25796
G1 X103.628 Y89.904 E0.01413
G1 X104.471 Y89.989 E0.02654
G1 X104.232 Y90.539 E0.01879
G1 X101.427 Y91.789 E0.09629
G1 X98.924 Y93.605 E0.09694
G1 X96.856 Y95.902 E0.09692
G1 X95.579 Y98.113 E0.08005
G1 X95.045 Y98.328 E0.01805
G1 X94.962 Y97.460 E0.02733
G1 X94.951 Y96.497 E0.03020
G1 X94.951 Y89.952 E0.20523
G1 X94.951 Y89.492 F10800.000
;WIPE_START
G1 F8640.000
G1 X98.242 Y89.928 E-0.76000
;WIPE_END
G1 E-0.04000 F2100.000
G1 Z0.600 F10800.000
G1 X104.781 Y90.222
G1 Z0.200
G1 E0.80000 F2100.000
;TYPE:Perimeter
G1 F1200.000
G1 X105.019 Y89.673 E0.01875
G1 X106.878 Y89.673 E0.05830
G1 X105.684 Y89.932 E0.03830
G1 X105.162 Y90.078 E0.01700
G1 X104.837 Y90.201 E0.01090
;WIPE_START
G1 F8640.000
G1 X105.019 Y89.673 E-0.12878
G1 X106.878 Y89.673 E-0.42934
G1 X106.024 Y89.858 E-0.20188
;WIPE_END
G1 E-0.04000 F2100.000
G1 Z0.600 F10800.000
G1 X178.962 Y89.841
G1 Z0.200
G1 E0.80000 F2100.000
;TYPE:External perimeter
G1 F1200.000
G1 X178.772 Y89.892 E0.00617
G1 X108.411 Y89.892 E2.20611
G1 X108.411 Y89.971 E0.00250
G1 X107.283 Y89.971 E0.03535
G1 X105.775 Y90.298 E0.04839
G1 X105.280 Y90.437 E0.01613
G1 X104.323 Y90.808 E0.03218
G1 X101.568 Y92.034 E0.09453
G1 X99.115 Y93.817 E0.09510
G1 X97.087 Y96.070 E0.09505
G1 X95.836 Y98.236 E0.07842
G1 X95.541 Y98.645 E0.01582
G1 X95.299 Y99.051 E0.01483
G1 X95.116 Y99.471 E0.01435
G1 X94.951 Y99.953 E0.01596
G1 X94.951 Y109.237 E0.29111
G1 X95.116 Y109.719 E0.01596
G1 X95.299 Y110.138 E0.01435
G1 X95.541 Y110.545 E0.01483
G1 X95.836 Y110.954 E0.01582
G1 X97.087 Y113.120 E0.07842
G1 X99.115 Y115.373 E0.09505
G1 X101.568 Y117.156 E0.09510
G1 X104.339 Y118.389 E0.09510
G1 X105.313 Y118.596 E0.03123
G1 X105.765 Y118.798 E0.01552
G1 X106.257 Y118.974 E0.01636
G1 X107.281 Y119.220 E0.03303
G1 X109.223 Y119.220 E0.06089
G1 X109.223 Y119.279 E0.00183
G1 X178.773 Y115.299 E2.18427
G1 X178.976 Y115.341 E0.00650
G1 X179.085 Y115.439 E0.00459
G1 X179.131 Y115.579 E0.00462
G1 X179.103 Y115.722 E0.00458
G1 X179.005 Y115.830 E0.00456
G1 X178.809 Y115.895 E0.00648
G1 X109.379 Y119.865 E2.18049
M73 Q1 S84
G1 X109.368 Y119.736 E0.00406
G1 X108.757 Y119.895 E0.01981
G1 X94.643 Y120.702 E0.44324
M73 P1 R83
G1 X83.707 Y120.702 E0.34289
G1 X83.501 Y120.646 E0.00671
G1 X73.582 Y111.785 E0.41703
G1 X73.353 Y111.556 E0.01014
G1 X70.918 Y108.199 E0.13004
G1 X70.855 Y107.969 E0.00745
G1 X70.855 Y99.651 E0.26083
G1 X70.927 Y99.388 E0.00853
G1 X73.377 Y94.485 E0.17187
G1 X73.543 Y94.321 E0.00731
G1 X83.447 Y89.368 E0.34720
G1 X83.708 Y89.296 E0.00850
G1 X178.760 Y89.296 E2.98026
G1 X178.962 Y89.351 E0.00657
G1 X179.066 Y89.454 E0.00461
G1 X179.104 Y89.594 E0.00454
G1 X179.066 Y89.737 E0.00462
G1 X179.004 Y89.798 E0.00274
G1 X178.791 Y89.742 F10800.000
G1 X178.903 Y89.618
;TYPE:Gap fill
;WIDTH:0.261208
G1 F1200.000
G1 X178.720 Y89.594 E0.00334
G1 X108.222 Y89.594 E1.27958
;WIDTH:0.301077
G1 X108.156 Y89.614 E0.00148
;WIDTH:0.347462
G1 X108.091 Y89.634 E0.00175
G1 X107.263 Y89.634 E0.02095
G1 X107.066 Y89.653 E0.00503
;WIPE_START
G1 F8640.000
G1 X107.263 Y89.634 E-0.04589
G1 X108.091 Y89.634 E-0.19101
G1 X108.156 Y89.614 E-0.01591
;WIPE_END
G1 E-0.54719 F2100.000
G1 Z0.600 F10800.000
G1 X104.819 Y89.660
G1 Z0.200
G1 E0.80000 F2100.000
;WIDTH:0.374347
G1 F1200.000
G1 X104.430 Y89.640 E0.01074
;WIDTH:0.340952
G1 X104.041 Y89.620 E0.00966
;WIDTH:0.307557
G1 X103.652 Y89.601 E0.00857
;WIDTH:0.274162
G1 X103.183 Y89.595 E0.00902
;WIDTH:0.263015
G1 X94.762 Y89.594 E0.15410
;WIPE_START
G1 F8640.000
G1 X98.054 Y89.594 E-0.76000
;WIPE_END
G1 E-0.04000 F2100.000
G1 Z0.600 F10800.000
G1 X94.462 Y90.552
G1 Z0.200
G1 E0.80000 F2100.000
;TYPE:Solid infill
;WIDTH:0.421068
G1 F1200.000
G1 X93.866 Y89.956 E0.02650
G1 X93.331 Y89.956 E0.01682
G1 X94.293 Y90.918 E0.04276
G1 X94.293 Y91.453 E0.01684
G1 X92.796 Y89.956 E0.06657
G1 X92.261 Y89.956 E0.01682
G1 X94.294 Y91.989 E0.09039
G1 X94.295 Y92.524 E0.01684
G1 X91.727 Y89.956 E0.11420
G1 X91.192 Y89.956 E0.01682
G1 X94.296 Y93.060 E0.13802
G1 X94.296 Y93.596 E0.01684
G1 X90.657 Y89.956 E0.16183
G1 X90.122 Y89.956 E0.01682
G1 X94.297 Y94.131 E0.18564
G1 X94.298 Y94.667 E0.01684
G1 X89.587 Y89.956 E0.20946
G1 X89.053 Y89.956 E0.01682
G1 X94.299 Y95.202 E0.23327
G1 X94.299 Y95.738 E0.01684
G1 X88.518 Y89.956 E0.25709
G1 X87.983 Y89.956 E0.01682
G1 X94.300 Y96.273 E0.28090
G1 X94.301 Y96.809 E0.01684
G1 X87.448 Y89.956 E0.30472
G1 X86.914 Y89.956 E0.01682
G1 X94.302 Y97.344 E0.32853
G1 X94.343 Y97.920 E0.01815
G1 X86.379 Y89.956 E0.35414
G1 X85.844 Y89.956 E0.01682
G1 X94.400 Y98.512 E0.38044
G1 X94.456 Y99.103 E0.01869
G1 X85.309 Y89.956 E0.40675
G1 X84.774 Y89.956 E0.01682
G1 X94.386 Y99.568 E0.42739
G1 X94.291 Y99.843 E0.00914
G1 X94.291 Y100.008 E0.00520
G1 X84.723 Y90.439 E0.42548
G1 X84.723 Y90.974 E0.01682
G1 X94.291 Y100.543 E0.42548
G1 X94.291 Y101.077 E0.01682
G1 X84.723 Y91.509 E0.42548
G1 X84.723 Y92.044 E0.01682
G1 X94.291 Y101.612 E0.42548
G1 X94.291 Y102.147 E0.01682
G1 X84.723 Y92.579 E0.42548
G1 X84.723 Y93.113 E0.01682
G1 X94.291 Y102.682 E0.42548
G1 X94.291 Y103.217 E0.01682
G1 X84.723 Y93.648 E0.42548
G1 X84.723 Y94.183 E0.01682
G1 X94.291 Y103.751 E0.42548
G1 X94.291 Y104.286 E0.01682
G1 X84.723 Y94.718 E0.42548
G1 X84.723 Y95.252 E0.01682
G1 X94.291 Y104.821 E0.42548
G1 X94.291 Y105.356 E0.01682
G1 X84.723 Y95.787 E0.42548
G1 X84.723 Y96.322 E0.01682
G1 X94.291 Y105.891 E0.42549
G1 X94.291 Y106.425 E0.01682
G1 X84.723 Y96.857 E0.42549
G1 X84.723 Y97.392 E0.01682
G1 X94.291 Y106.960 E0.42549
G1 X94.291 Y107.495 E0.01682
G1 X84.723 Y97.926 E0.42549
G1 X84.723 Y98.166 E0.00753
G1 X84.428 Y98.166 E0.00929
G1 X94.291 Y108.030 E0.43862
G1 X94.291 Y108.564 E0.01682
G1 X83.893 Y98.166 E0.46240
G1 X83.358 Y98.166 E0.01682
G1 X94.291 Y109.099 E0.48618
G1 X94.291 Y109.347 E0.00780
G1 X94.441 Y109.784 E0.01451
G1 X82.823 Y98.166 E0.51662
G1 X82.288 Y98.166 E0.01682
G1 X94.433 Y110.310 E0.54003
G1 X94.387 Y110.799 E0.01545
G1 X81.754 Y98.166 E0.56178
G1 X81.219 Y98.166 E0.01682
G1 X94.342 Y111.289 E0.58353
M73 Q1 S83
G1 X94.302 Y111.783 E0.01561
G1 X80.684 Y98.166 E0.60553
G1 X80.149 Y98.166 E0.01682
G1 X94.301 Y112.317 E0.62928
G1 X94.300 Y112.851 E0.01679
G1 X79.615 Y98.166 E0.65303
G1 X79.080 Y98.166 E0.01682
G1 X94.299 Y113.386 E0.67678
G1 X94.299 Y113.920 E0.01679
G1 X78.545 Y98.166 E0.70053
G1 X78.010 Y98.166 E0.01682
G1 X94.298 Y114.454 E0.72428
G1 X94.297 Y114.988 E0.01679
G1 X77.475 Y98.166 E0.74802
G1 X76.941 Y98.166 E0.01682
G1 X94.297 Y115.522 E0.77177
G1 X94.296 Y116.056 E0.01679
G1 X76.406 Y98.166 E0.79552
G1 X75.871 Y98.166 E0.01682
G1 X94.295 Y116.590 E0.81927
G1 X94.294 Y117.124 E0.01679
G1 X75.336 Y98.166 E0.84302
G1 X74.801 Y98.166 E0.01682
G1 X94.294 Y117.658 E0.86677
M73 P2 R83
M73 Q2 S83
G1 X94.293 Y118.192 E0.01679
G1 X74.267 Y98.166 E0.89052
G1 X73.732 Y98.166 E0.01682
G1 X94.292 Y118.726 E0.91426
G1 X94.292 Y119.260 E0.01679
G1 X73.197 Y98.166 E0.93801
G1 X72.662 Y98.166 E0.01682
G1 X94.291 Y119.794 E0.96176
G1 X94.291 Y120.042 E0.00778
G1 X94.004 Y120.042 E0.00903
G1 X72.226 Y98.265 E0.96838
G1 X72.048 Y98.621 E0.01253
G1 X93.469 Y120.042 E0.95252
M73 P2 R82
G1 X92.934 Y120.042 E0.01682
G1 X84.723 Y111.831 E0.36512
G1 X84.723 Y112.365 E0.01682
G1 X92.399 Y120.042 E0.34134
G1 X91.864 Y120.042 E0.01682
G1 X84.723 Y112.900 E0.31756
G1 X84.723 Y113.435 E0.01682
G1 X91.330 Y120.042 E0.29378
G1 X90.795 Y120.042 E0.01682
G1 X84.723 Y113.970 E0.27000
G1 X84.723 Y114.505 E0.01682
G1 X90.260 Y120.042 E0.24622
G1 X89.725 Y120.042 E0.01682
G1 X84.723 Y115.039 E0.22244
G1 X84.723 Y115.574 E0.01682
G1 X89.190 Y120.042 E0.19866
G1 X88.656 Y120.042 E0.01682
G1 X84.723 Y116.109 E0.17488
G1 X84.723 Y116.644 E0.01682
G1 X88.121 Y120.042 E0.15110
G1 X87.586 Y120.042 E0.01682
G1 X84.723 Y117.179 E0.12732
G1 X84.723 Y117.713 E0.01682
G1 X87.051 Y120.042 E0.10354
G1 X86.517 Y120.042 E0.01682
G1 X84.723 Y118.248 E0.07976
G1 X84.723 Y118.783 E0.01682
G1 X85.982 Y120.042 E0.05598
G1 X85.447 Y120.042 E0.01682
G1 X84.723 Y119.318 E0.03220
G1 X84.723 Y119.852 E0.01682
G1 X85.082 Y120.211 E0.01597
;WIPE_START
G1 F8640.000
G1 X84.723 Y119.852 E-0.11724
G1 X84.723 Y119.318 E-0.12348
G1 X85.447 Y120.042 E-0.23646
G1 X85.982 Y120.042 E-0.12348
G1 X85.494 Y119.554 E-0.15933
;WIPE_END
G1 E-0.04000 F2100.000
G1 Z0.600 F10800.000
G1 X84.136 Y111.244
G1 Z0.200
G1 E0.80000 F2100.000
G1 F1200.000
G1 X71.870 Y98.978 E0.54544
G1 X71.692 Y99.334 E0.01253
G1 X83.431 Y111.074 E0.52203
G1 X82.897 Y111.074 E0.01682
G1 X71.525 Y99.703 E0.50566
G1 X71.515 Y100.227 E0.01650
G1 X82.362 Y111.074 E0.48232
G1 X81.827 Y111.074 E0.01682
G1 X71.515 Y100.762 E0.45854
G1 X71.515 Y101.297 E0.01682
G1 X81.292 Y111.074 E0.43476
G1 X80.758 Y111.074 E0.01682
G1 X71.515 Y101.832 E0.41098
G1 X71.515 Y102.367 E0.01682
G1 X80.223 Y111.074 E0.38720
G1 X79.688 Y111.074 E0.01682
G1 X71.515 Y102.901 E0.36342
G1 X71.515 Y103.436 E0.01682
G1 X79.153 Y111.074 E0.33964
G1 X78.618 Y111.074 E0.01682
G1 X71.515 Y103.971 E0.31586
G1 X71.515 Y104.506 E0.01682
G1 X78.084 Y111.074 E0.29208
G1 X77.549 Y111.074 E0.01682
G1 X71.515 Y105.040 E0.26830
G1 X71.515 Y105.575 E0.01682
G1 X77.014 Y111.074 E0.24452
G1 X76.479 Y111.074 E0.01682
G1 X71.515 Y106.110 E0.22074
G1 X71.515 Y106.645 E0.01682
G1 X75.945 Y111.074 E0.19696
G1 X75.410 Y111.074 E0.01682
G1 X71.515 Y107.180 E0.17318
G1 X71.515 Y107.714 E0.01682
G1 X74.875 Y111.074 E0.14940
G1 X74.712 Y111.074 E0.00514
G1 X74.609 Y111.343 E0.00905
G1 X72.443 Y109.177 E0.09633
G1 X73.855 Y111.123 E0.07563
G1 X74.593 Y111.861 E0.03281
G1 X74.706 Y112.410 F10800.000
;TYPE:Gap fill
;WIDTH:0.231339
G1 F1200.000
G1 X83.449 Y120.221 E0.18369
;WIPE_START
G1 F8640.000
G1 X80.995 Y118.028 E-0.76000
;WIPE_END
G1 E-0.04000 F2100.000
G1 Z0.600 F10800.000
G1 X72.105 Y97.694
G1 Z0.200
G1 E0.80000 F2100.000
;WIDTH:0.246044
G1 F1200.000
G1 X73.620 Y94.661 E0.05728
G1 X73.687 Y94.585 E0.00171
;WIDTH:0.256471
G1 X83.553 Y89.645 E0.19592
G1 X83.972 Y89.485 E0.00796
;WIPE_START
G1 F8640.000
G1 X83.553 Y89.645 E-0.10347
G1 X81.011 Y90.918 E-0.65653
;WIPE_END
G1 E-0.04000 F2100.000
G1 Z0.600 F10800.000
G1 X95.478 Y98.372
G1 Z0.200
G1 E0.80000 F2100.000
;WIDTH:0.194381
G1 F1200.000
G1 X95.191 Y98.607 E0.00467
;WIPE_START
G1 F8640.000
G1 X95.478 Y98.372 E-0.08566
;WIPE_END
G1 E-0.71434 F2100.000
G1 Z0.600 F10800.000
G1 X95.191 Y110.583
G1 Z0.200
G1 E0.80000 F2100.000
;WIDTH:0.194425
G1 F1200.000
G1 X95.478 Y110.818 E0.00467
;WIPE_START
G1 F8640.000
G1 X95.191 Y110.583 E-0.08566
;WIPE_END
G1 E-0.71434 F2100.000
G1 Z0.600 F10800.000
G1 X94.761 Y120.398
G1 Z0.200
G1 E0.80000 F2100.000
;WIDTH:0.259089
G1 F1200.000
G1 X104.032 Y119.868 E0.16691
;WIDTH:0.27005
G1 X104.538 Y119.833 E0.00957
;WIDTH:0.319926
G1 X105.161 Y119.769 E0.01443
;WIDTH:0.369803
